( Made using CamBam - http://www.cambam.co.uk )
( cot_leg 11/16/2011 3:56:20 PM )
( T0 : 0.375 )
G20 G90 G64 G40
G0 Z2.0
( T0 : 0.375 )
G17
G0 X1.6432 Y3.4374
G1 F10.0 Z1.45
G3 F30.0 Y0.0626 I0.0611 J-1.6874
G3 X1.6502 Y0.0625 I0.0068 J0.1874
G1 X31.3315 Y0.096
G1 X35.9521 Y0.0706
G3 X36.1194 Y0.3448 I0.001 J0.1875
G3 X32.0363 Y3.4336 I-5.3013 J-2.7647
G3 X31.9981 Y3.4375 I-0.0382 J-0.1836
G1 X1.65
G3 X1.6432 Y3.4374 I0.0 J-0.1875
G1 F10.0 Z1.4
G3 F30.0 Y0.0626 I0.0611 J-1.6874
G3 X1.6502 Y0.0625 I0.0068 J0.1874
G1 X31.3315 Y0.096
G1 X35.9521 Y0.0706
G3 X36.1194 Y0.3448 I0.001 J0.1875
G3 X32.0363 Y3.4336 I-5.3013 J-2.7647
G3 X31.9981 Y3.4375 I-0.0382 J-0.1836
G1 X1.65
G3 X1.6432 Y3.4374 I0.0 J-0.1875
G1 F10.0 Z1.35
G3 F30.0 Y0.0626 I0.0611 J-1.6874
G3 X1.6502 Y0.0625 I0.0068 J0.1874
G1 X31.3315 Y0.096
G1 X35.9521 Y0.0706
G3 X36.1194 Y0.3448 I0.001 J0.1875
G3 X32.0363 Y3.4336 I-5.3013 J-2.7647
G3 X31.9981 Y3.4375 I-0.0382 J-0.1836
G1 X1.65
G3 X1.6432 Y3.4374 I0.0 J-0.1875
G1 F10.0 Z1.3
G3 F30.0 Y0.0626 I0.0611 J-1.6874
G3 X1.6502 Y0.0625 I0.0068 J0.1874
G1 X31.3315 Y0.096
G1 X35.9521 Y0.0706
G3 X36.1194 Y0.3448 I0.001 J0.1875
G3 X32.0363 Y3.4336 I-5.3013 J-2.7647
G3 X31.9981 Y3.4375 I-0.0382 J-0.1836
G1 X1.65
G3 X1.6432 Y3.4374 I0.0 J-0.1875
G1 F10.0 Z1.25
G3 F30.0 Y0.0626 I0.0611 J-1.6874
G3 X1.6502 Y0.0625 I0.0068 J0.1874
G1 X31.3315 Y0.096
G1 X35.9521 Y0.0706
G3 X36.1194 Y0.3448 I0.001 J0.1875
G3 X32.0363 Y3.4336 I-5.3013 J-2.7647
G3 X31.9981 Y3.4375 I-0.0382 J-0.1836
G1 X1.65
G3 X1.6432 Y3.4374 I0.0 J-0.1875
G1 F10.0 Z1.2
G3 F30.0 Y0.0626 I0.0611 J-1.6874
G3 X1.6502 Y0.0625 I0.0068 J0.1874
G1 X31.3315 Y0.096
G1 X35.9521 Y0.0706
G3 X36.1194 Y0.3448 I0.001 J0.1875
G3 X32.0363 Y3.4336 I-5.3013 J-2.7647
G3 X31.9981 Y3.4375 I-0.0382 J-0.1836
G1 X1.65
G3 X1.6432 Y3.4374 I0.0 J-0.1875
G1 F10.0 Z1.15
G3 F30.0 Y0.0626 I0.0611 J-1.6874
G3 X1.6502 Y0.0625 I0.0068 J0.1874
G1 X31.3315 Y0.096
G1 X35.9521 Y0.0706
G3 X36.1194 Y0.3448 I0.001 J0.1875
G3 X32.0363 Y3.4336 I-5.3013 J-2.7647
G3 X31.9981 Y3.4375 I-0.0382 J-0.1836
G1 X1.65
G3 X1.6432 Y3.4374 I0.0 J-0.1875
G1 F10.0 Z1.1
G3 F30.0 Y0.0626 I0.0611 J-1.6874
G3 X1.6502 Y0.0625 I0.0068 J0.1874
G1 X31.3315 Y0.096
G1 X35.9521 Y0.0706
G3 X36.1194 Y0.3448 I0.001 J0.1875
G3 X32.0363 Y3.4336 I-5.3013 J-2.7647
G3 X31.9981 Y3.4375 I-0.0382 J-0.1836
G1 X1.65
G3 X1.6432 Y3.4374 I0.0 J-0.1875
G1 F10.0 Z1.05
G3 F30.0 Y0.0626 I0.0611 J-1.6874
G3 X1.6502 Y0.0625 I0.0068 J0.1874
G1 X31.3315 Y0.096
G1 X35.9521 Y0.0706
G3 X36.1194 Y0.3448 I0.001 J0.1875
G3 X32.0363 Y3.4336 I-5.3013 J-2.7647
G3 X31.9981 Y3.4375 I-0.0382 J-0.1836
G1 X1.65
G3 X1.6432 Y3.4374 I0.0 J-0.1875
G1 F10.0 Z1.0
G3 F30.0 Y0.0626 I0.0611 J-1.6874
G3 X1.6502 Y0.0625 I0.0068 J0.1874
G1 X31.3315 Y0.096
G1 X35.9521 Y0.0706
G3 X36.1194 Y0.3448 I0.001 J0.1875
G3 X32.0363 Y3.4336 I-5.3013 J-2.7647
G3 X31.9981 Y3.4375 I-0.0382 J-0.1836
G1 X1.65
G3 X1.6432 Y3.4374 I0.0 J-0.1875
G1 F10.0 Z0.95
G3 F30.0 Y0.0626 I0.0611 J-1.6874
G3 X1.6502 Y0.0625 I0.0068 J0.1874
G1 X31.3315 Y0.096
G1 X35.9521 Y0.0706
G3 X36.1194 Y0.3448 I0.001 J0.1875
G3 X32.0363 Y3.4336 I-5.3013 J-2.7647
G3 X31.9981 Y3.4375 I-0.0382 J-0.1836
G1 X1.65
G3 X1.6432 Y3.4374 I0.0 J-0.1875
G1 F10.0 Z0.9
G3 F30.0 Y0.0626 I0.0611 J-1.6874
G3 X1.6502 Y0.0625 I0.0068 J0.1874
G1 X31.3315 Y0.096
G1 X35.9521 Y0.0706
G3 X36.1194 Y0.3448 I0.001 J0.1875
G3 X32.0363 Y3.4336 I-5.3013 J-2.7647
G3 X31.9981 Y3.4375 I-0.0382 J-0.1836
G1 X1.65
G3 X1.6432 Y3.4374 I0.0 J-0.1875
G1 F10.0 Z0.85
G3 F30.0 Y0.0626 I0.0611 J-1.6874
G3 X1.6502 Y0.0625 I0.0068 J0.1874
G1 X31.3315 Y0.096
G1 X35.9521 Y0.0706
G3 X36.1194 Y0.3448 I0.001 J0.1875
G3 X32.0363 Y3.4336 I-5.3013 J-2.7647
G3 X31.9981 Y3.4375 I-0.0382 J-0.1836
G1 X1.65
G3 X1.6432 Y3.4374 I0.0 J-0.1875
G1 F10.0 Z0.8
G3 F30.0 Y0.0626 I0.0611 J-1.6874
G3 X1.6502 Y0.0625 I0.0068 J0.1874
G1 X31.3315 Y0.096
G1 X35.9521 Y0.0706
G3 X36.1194 Y0.3448 I0.001 J0.1875
G3 X32.0363 Y3.4336 I-5.3013 J-2.7647
G3 X31.9981 Y3.4375 I-0.0382 J-0.1836
G1 X1.65
G3 X1.6432 Y3.4374 I0.0 J-0.1875
G1 F10.0 Z0.75
G3 F30.0 Y0.0626 I0.0611 J-1.6874
G3 X1.6502 Y0.0625 I0.0068 J0.1874
G1 X31.3315 Y0.096
G1 X35.9521 Y0.0706
G3 X36.1194 Y0.3448 I0.001 J0.1875
G3 X32.0363 Y3.4336 I-5.3013 J-2.7647
G3 X31.9981 Y3.4375 I-0.0382 J-0.1836
G1 X1.65
G3 X1.6432 Y3.4374 I0.0 J-0.1875
G1 F10.0 Z0.7
G3 F30.0 Y0.0626 I0.0611 J-1.6874
G3 X1.6502 Y0.0625 I0.0068 J0.1874
G1 X31.3315 Y0.096
G1 X35.9521 Y0.0706
G3 X36.1194 Y0.3448 I0.001 J0.1875
G3 X32.0363 Y3.4336 I-5.3013 J-2.7647
G3 X31.9981 Y3.4375 I-0.0382 J-0.1836
G1 X1.65
G3 X1.6432 Y3.4374 I0.0 J-0.1875
G1 F10.0 Z0.65
G3 F30.0 Y0.0626 I0.0611 J-1.6874
G3 X1.6502 Y0.0625 I0.0068 J0.1874
G1 X31.3315 Y0.096
G1 X35.9521 Y0.0706
G3 X36.1194 Y0.3448 I0.001 J0.1875
G3 X32.0363 Y3.4336 I-5.3013 J-2.7647
G3 X31.9981 Y3.4375 I-0.0382 J-0.1836
G1 X1.65
G3 X1.6432 Y3.4374 I0.0 J-0.1875
G1 F10.0 Z0.6
G3 F30.0 Y0.0626 I0.0611 J-1.6874
G3 X1.6502 Y0.0625 I0.0068 J0.1874
G1 X31.3315 Y0.096
G1 X35.9521 Y0.0706
G3 X36.1194 Y0.3448 I0.001 J0.1875
G3 X32.0363 Y3.4336 I-5.3013 J-2.7647
G3 X31.9981 Y3.4375 I-0.0382 J-0.1836
G1 X1.65
G3 X1.6432 Y3.4374 I0.0 J-0.1875
G1 F10.0 Z0.55
G3 F30.0 Y0.0626 I0.0611 J-1.6874
G3 X1.6502 Y0.0625 I0.0068 J0.1874
G1 X31.3315 Y0.096
G1 X35.9521 Y0.0706
G3 X36.1194 Y0.3448 I0.001 J0.1875
G3 X32.0363 Y3.4336 I-5.3013 J-2.7647
G3 X31.9981 Y3.4375 I-0.0382 J-0.1836
G1 X1.65
G3 X1.6432 Y3.4374 I0.0 J-0.1875
G1 F10.0 Z0.5
G3 F30.0 Y0.0626 I0.0611 J-1.6874
G3 X1.6502 Y0.0625 I0.0068 J0.1874
G1 X31.3315 Y0.096
G1 X35.9521 Y0.0706
G3 X36.1194 Y0.3448 I0.001 J0.1875
G3 X32.0363 Y3.4336 I-5.3013 J-2.7647
G3 X31.9981 Y3.4375 I-0.0382 J-0.1836
G1 X1.65
G3 X1.6432 Y3.4374 I0.0 J-0.1875
G1 F10.0 Z0.45
G3 F30.0 Y0.0626 I0.0611 J-1.6874
G3 X1.6502 Y0.0625 I0.0068 J0.1874
G1 X2.9545 Y0.064
G1 X3.242 Y0.0643
G1 X3.5295 Y0.0646
G1 X15.3516 Y0.078
G1 X15.6391 Y0.0783
G1 X15.9266 Y0.0786
G1 X27.7488 Y0.092
G1 X28.0363 Y0.0923
G1 X28.3238 Y0.0926
G1 X31.3315 Y0.096
G1 X35.9521 Y0.0706
G3 X36.1194 Y0.3448 I0.001 J0.1875
G3 X32.9502 Y3.1659 I-5.3013 J-2.7647
G3 X32.6791 Y3.262 I-2.1321 J-5.5858
G3 X32.4037 Y3.3449 I-1.861 J-5.6819
G3 X32.0363 Y3.4336 I-1.5857 J-5.7648
G3 X31.9981 Y3.4375 I-0.0382 J-0.1836
G1 X20.5332
G1 X20.2457
G1 X19.9582
G1 X8.1361
G1 X7.8486
G1 X7.5611
G1 X1.65
G3 X1.6432 Y3.4374 I0.0 J-0.1875
G1 F10.0 Z0.4
G3 F30.0 Y0.0626 I0.0611 J-1.6874
G3 X1.6502 Y0.0625 I0.0068 J0.1874
G1 X2.9545 Y0.064
G1 X3.242 Y0.0643 Z0.45
G1 X3.5295 Y0.0646 Z0.4
G1 X15.3516 Y0.078
G1 X15.6391 Y0.0783 Z0.45
G1 X15.9266 Y0.0786 Z0.4
G1 X27.7488 Y0.092
G1 X28.0363 Y0.0923 Z0.45
G1 X28.3238 Y0.0926 Z0.4
G1 X31.3315 Y0.096
G1 X35.9521 Y0.0706
G3 X36.1194 Y0.3448 I0.001 J0.1875
G3 X32.9502 Y3.1659 I-5.3013 J-2.7647
G3 X32.6791 Y3.262 Z0.45 I-2.1321 J-5.5858
G3 X32.4037 Y3.3449 Z0.4 I-1.861 J-5.6819
G3 X32.0363 Y3.4336 I-1.5857 J-5.7648
G3 X31.9981 Y3.4375 I-0.0382 J-0.1836
G1 X20.5332
G1 X20.2457 Z0.45
G1 X19.9582 Z0.4
G1 X8.1361
G1 X7.8486 Z0.45
G1 X7.5611 Z0.4
G1 X1.65
G3 X1.6432 Y3.4374 I0.0 J-0.1875
G1 F10.0 Z0.35
G3 F30.0 Y0.0626 I0.0611 J-1.6874
G3 X1.6502 Y0.0625 I0.0068 J0.1874
G1 X2.9545 Y0.064
G1 X3.242 Y0.0643 Z0.45
G1 X3.5295 Y0.0646 Z0.35
G1 X15.3516 Y0.078
G1 X15.6391 Y0.0783 Z0.45
G1 X15.9266 Y0.0786 Z0.35
G1 X27.7488 Y0.092
G1 X28.0363 Y0.0923 Z0.45
G1 X28.3238 Y0.0926 Z0.35
G1 X31.3315 Y0.096
G1 X35.9521 Y0.0706
G3 X36.1194 Y0.3448 I0.001 J0.1875
G3 X32.9502 Y3.1659 I-5.3013 J-2.7647
G3 X32.6791 Y3.262 Z0.45 I-2.1321 J-5.5858
G3 X32.4037 Y3.3449 Z0.35 I-1.861 J-5.6819
G3 X32.0363 Y3.4336 I-1.5857 J-5.7648
G3 X31.9981 Y3.4375 I-0.0382 J-0.1836
G1 X20.5332
G1 X20.2457 Z0.45
G1 X19.9582 Z0.35
G1 X8.1361
G1 X7.8486 Z0.45
G1 X7.5611 Z0.35
G1 X1.65
G3 X1.6432 Y3.4374 I0.0 J-0.1875
G1 F10.0 Z0.3
G3 F30.0 Y0.0626 I0.0611 J-1.6874
G3 X1.6502 Y0.0625 I0.0068 J0.1874
G1 X2.9545 Y0.064
G1 X3.242 Y0.0643 Z0.45
G1 X3.5295 Y0.0646 Z0.3
G1 X15.3516 Y0.078
G1 X15.6391 Y0.0783 Z0.45
G1 X15.9266 Y0.0786 Z0.3
G1 X27.7488 Y0.092
G1 X28.0363 Y0.0923 Z0.45
G1 X28.3238 Y0.0926 Z0.3
G1 X31.3315 Y0.096
G1 X35.9521 Y0.0706
G3 X36.1194 Y0.3448 I0.001 J0.1875
G3 X32.9502 Y3.1659 I-5.3013 J-2.7647
G3 X32.6791 Y3.262 Z0.45 I-2.1321 J-5.5858
G3 X32.4037 Y3.3449 Z0.3 I-1.861 J-5.6819
G3 X32.0363 Y3.4336 I-1.5857 J-5.7648
G3 X31.9981 Y3.4375 I-0.0382 J-0.1836
G1 X20.5332
G1 X20.2457 Z0.45
G1 X19.9582 Z0.3
G1 X8.1361
G1 X7.8486 Z0.45
G1 X7.5611 Z0.3
G1 X1.65
G3 X1.6432 Y3.4374 I0.0 J-0.1875
G1 F10.0 Z0.25
G3 F30.0 Y0.0626 I0.0611 J-1.6874
G3 X1.6502 Y0.0625 I0.0068 J0.1874
G1 X2.9545 Y0.064
G1 X3.242 Y0.0643 Z0.45
G1 X3.5295 Y0.0646 Z0.25
G1 X15.3516 Y0.078
G1 X15.6391 Y0.0783 Z0.45
G1 X15.9266 Y0.0786 Z0.25
G1 X27.7488 Y0.092
G1 X28.0363 Y0.0923 Z0.45
G1 X28.3238 Y0.0926 Z0.25
G1 X31.3315 Y0.096
G1 X35.9521 Y0.0706
G3 X36.1194 Y0.3448 I0.001 J0.1875
G3 X32.9502 Y3.1659 I-5.3013 J-2.7647
G3 X32.6791 Y3.262 Z0.45 I-2.1321 J-5.5858
G3 X32.4037 Y3.3449 Z0.25 I-1.861 J-5.6819
G3 X32.0363 Y3.4336 I-1.5857 J-5.7648
G3 X31.9981 Y3.4375 I-0.0382 J-0.1836
G1 X20.5332
G1 X20.2457 Z0.45
G1 X19.9582 Z0.25
G1 X8.1361
G1 X7.8486 Z0.45
G1 X7.5611 Z0.25
G1 X1.65
G3 X1.6432 Y3.4374 I0.0 J-0.1875
G0 Z2.0
G1 X0 Y0
M30
