( Made using CamBam - http://www.cambam.co.uk )
( cot_leg_holes 10/14/2011 3:28:48 AM )
( T0 : 0.375 )
G20 G90 G64 G40
G0 Z1.0
G17
G0 X1.9688 Y1.375
G1 F10.0 Z0.7
G2 F30.0 X1.2656 Y0.9691 I-0.4688 J0.0
G2 Y1.7809 I0.2344 J0.4059
G2 X1.9688 Y1.375 I0.2344 J-0.4059
G1 F10.0 Z0.65
G2 F30.0 X1.2656 Y0.9691 I-0.4688 J0.0
G2 Y1.7809 I0.2344 J0.4059
G2 X1.9688 Y1.375 I0.2344 J-0.4059
G1 F10.0 Z0.6
G2 F30.0 X1.2656 Y0.9691 I-0.4688 J0.0
G2 Y1.7809 I0.2344 J0.4059
G2 X1.9688 Y1.375 I0.2344 J-0.4059
G1 F10.0 Z0.55
G2 F30.0 X1.2656 Y0.9691 I-0.4688 J0.0
G2 Y1.7809 I0.2344 J0.4059
G2 X1.9688 Y1.375 I0.2344 J-0.4059
G1 F10.0 Z0.5
G2 F30.0 X1.2656 Y0.9691 I-0.4688 J0.0
G2 Y1.7809 I0.2344 J0.4059
G2 X1.9688 Y1.375 I0.2344 J-0.4059
G1 F10.0 Z0.45
G2 F30.0 X1.2656 Y0.9691 I-0.4688 J0.0
G2 Y1.7809 I0.2344 J0.4059
G2 X1.9688 Y1.375 I0.2344 J-0.4059
G1 F10.0 Z0.4
G2 F30.0 X1.2656 Y0.9691 I-0.4688 J0.0
G2 Y1.7809 I0.2344 J0.4059
G2 X1.9688 Y1.375 I0.2344 J-0.4059
G1 F10.0 Z0.35
G2 F30.0 X1.2656 Y0.9691 I-0.4688 J0.0
G2 Y1.7809 I0.2344 J0.4059
G2 X1.9688 Y1.375 I0.2344 J-0.4059
G1 F10.0 Z0.3
G2 F30.0 X1.2656 Y0.9691 I-0.4688 J0.0
G2 Y1.7809 I0.2344 J0.4059
G2 X1.9688 Y1.375 I0.2344 J-0.4059
G1 F10.0 Z0.25
G2 F30.0 X1.2656 Y0.9691 I-0.4688 J0.0
G2 Y1.7809 I0.2344 J0.4059
G2 X1.9688 Y1.375 I0.2344 J-0.4059
G1 F10.0 Z0.2
G2 F30.0 X1.2656 Y0.9691 I-0.4688 J0.0
G2 Y1.7809 I0.2344 J0.4059
G2 X1.9688 Y1.375 I0.2344 J-0.4059
G1 F10.0 Z0.15
G2 F30.0 X1.2656 Y0.9691 I-0.4688 J0.0
G2 Y1.7809 I0.2344 J0.4059
G2 X1.9688 Y1.375 I0.2344 J-0.4059
G1 F10.0 Z0.1
G2 F30.0 X1.2656 Y0.9691 I-0.4688 J0.0
G2 Y1.7809 I0.2344 J0.4059
G2 X1.9688 Y1.375 I0.2344 J-0.4059
G1 F10.0 Z0.05
G2 F30.0 X1.2656 Y0.9691 I-0.4688 J0.0
G2 Y1.7809 I0.2344 J0.4059
G2 X1.9688 Y1.375 I0.2344 J-0.4059
G1 F10.0 Z0.0
G2 F30.0 X1.2656 Y0.9691 I-0.4688 J0.0
G2 Y1.7809 I0.2344 J0.4059
G2 X1.9688 Y1.375 I0.2344 J-0.4059
( Profile2 )
S1000
G0 Z1.0
G0 X18.4688
G1 F10.0 Z0.7
G2 F30.0 X17.7656 Y0.9691 I-0.4688 J0.0
G2 Y1.7809 I0.2344 J0.4059
G2 X18.4688 Y1.375 I0.2344 J-0.4059
G1 F10.0 Z0.65
G2 F30.0 X17.7656 Y0.9691 I-0.4688 J0.0
G2 Y1.7809 I0.2344 J0.4059
G2 X18.4688 Y1.375 I0.2344 J-0.4059
G1 F10.0 Z0.6
G2 F30.0 X17.7656 Y0.9691 I-0.4688 J0.0
G2 Y1.7809 I0.2344 J0.4059
G2 X18.4688 Y1.375 I0.2344 J-0.4059
G1 F10.0 Z0.55
G2 F30.0 X17.7656 Y0.9691 I-0.4688 J0.0
G2 Y1.7809 I0.2344 J0.4059
G2 X18.4688 Y1.375 I0.2344 J-0.4059
G1 F10.0 Z0.5
G2 F30.0 X17.7656 Y0.9691 I-0.4688 J0.0
G2 Y1.7809 I0.2344 J0.4059
G2 X18.4688 Y1.375 I0.2344 J-0.4059
G1 F10.0 Z0.45
G2 F30.0 X17.7656 Y0.9691 I-0.4688 J0.0
G2 Y1.7809 I0.2344 J0.4059
G2 X18.4688 Y1.375 I0.2344 J-0.4059
G1 F10.0 Z0.4
G2 F30.0 X17.7656 Y0.9691 I-0.4688 J0.0
G2 Y1.7809 I0.2344 J0.4059
G2 X18.4688 Y1.375 I0.2344 J-0.4059
G1 F10.0 Z0.35
G2 F30.0 X17.7656 Y0.9691 I-0.4688 J0.0
G2 Y1.7809 I0.2344 J0.4059
G2 X18.4688 Y1.375 I0.2344 J-0.4059
G1 F10.0 Z0.3
G2 F30.0 X17.7656 Y0.9691 I-0.4688 J0.0
G2 Y1.7809 I0.2344 J0.4059
G2 X18.4688 Y1.375 I0.2344 J-0.4059
G1 F10.0 Z0.25
G2 F30.0 X17.7656 Y0.9691 I-0.4688 J0.0
G2 Y1.7809 I0.2344 J0.4059
G2 X18.4688 Y1.375 I0.2344 J-0.4059
G1 F10.0 Z0.2
G2 F30.0 X17.7656 Y0.9691 I-0.4688 J0.0
G2 Y1.7809 I0.2344 J0.4059
G2 X18.4688 Y1.375 I0.2344 J-0.4059
G1 F10.0 Z0.15
G2 F30.0 X17.7656 Y0.9691 I-0.4688 J0.0
G2 Y1.7809 I0.2344 J0.4059
G2 X18.4688 Y1.375 I0.2344 J-0.4059
G1 F10.0 Z0.1
G2 F30.0 X17.7656 Y0.9691 I-0.4688 J0.0
G2 Y1.7809 I0.2344 J0.4059
G2 X18.4688 Y1.375 I0.2344 J-0.4059
G1 F10.0 Z0.05
G2 F30.0 X17.7656 Y0.9691 I-0.4688 J0.0
G2 Y1.7809 I0.2344 J0.4059
G2 X18.4688 Y1.375 I0.2344 J-0.4059
G1 F10.0 Z0.0
G2 F30.0 X17.7656 Y0.9691 I-0.4688 J0.0
G2 Y1.7809 I0.2344 J0.4059
G2 X18.4688 Y1.375 I0.2344 J-0.4059
G0 Z2.0
G0 Y0
G0 X0
M30
