( Made using CamBam - http://www.cambam.co.uk )
( gunrack_side2 1/9/2013 10:51:09 AM )
( T0 : 0.5625 )
G20 G90 G64 G40
G0 Z1.0
( T0 : 0.5625 )
T0 M6
( Profile1 )
G0 X4.0525 Y9.0128
G1 F10.0 Z0.75
G1 F150.0 X1.0145 Z0.7485
G3 X0.7332 Y8.7315 Z0.7483 I0.0 J-0.2813
G1 Y0.7315 Z0.7444
G3 X1.0145 Y0.4503 Z0.7442 I0.2813 J0.0
G1 X31.0145 Z0.7297
G3 X31.2763 Y0.8341 Z0.7294 I0.0 J0.2813
G3 X31.2687 Y0.8534 I-6.6193 J-2.5935
G3 X25.8068 Y5.3601 Z0.7254 I-4.4164 J0.2107
G3 X25.6608 Y5.271 Z0.7253 I0.0665 J-0.2733
G1 X24.4822 Y3.9116 Z0.7244
G2 X22.765 Y3.6599 Z0.7235 I-1.0177 J0.9599
G2 Y6.0831 Z0.7221 I0.6995 J1.2116
G2 X23.5033 Y6.2699 Z0.7217 I0.6995 J-1.2116
G3 X23.5758 Y6.2774 I0.0078 J0.2811
G3 X23.2712 Y9.0127 Z0.7198 I-0.3188 J1.3491
G3 X22.9496 Y8.9838 Z0.7196 I-0.0568 J-1.1714
G3 X22.7856 Y8.8751 Z0.7195 I0.0635 J-0.274
G1 X18.4822 Y3.9116 Z0.7163
G2 X16.765 Y3.6599 Z0.7154 I-1.0177 J0.9599
G2 Y6.0831 Z0.714 I0.6995 J1.2116
G2 X17.5033 Y6.2699 Z0.7136 I0.6995 J-1.2116
G3 X17.5758 Y6.2774 I0.0078 J0.2811
G3 X17.273 Y9.0127 Z0.7116 I-0.3188 J1.3491
G3 X16.9509 Y8.9838 Z0.7115 I-0.0572 J-1.1713
G3 X16.802 Y8.894 Z0.7114 I0.0635 J-0.274
G1 X12.4822 Y3.9116 Z0.7082
G2 X10.765 Y3.6599 Z0.7073 I-1.0177 J0.9599
G2 Y6.0831 Z0.7059 I0.6995 J1.2116
G2 X11.5033 Y6.2699 Z0.7055 I0.6995 J-1.2116
G3 X11.5758 Y6.2774 I0.0078 J0.2811
G3 X11.2663 Y9.0127 Z0.7035 I-0.3188 J1.3491
G3 X11.2645 Y9.0128 I-0.0019 J-0.2812
G1 X7.6885 Z0.7018
G1 X4.0525 Z0.7
G1 X1.0145 Z0.6985
G3 X0.7332 Y8.7315 Z0.6983 I0.0 J-0.2813
G1 Y0.7315 Z0.6944
G3 X1.0145 Y0.4503 Z0.6942 I0.2813 J0.0
G1 X31.0145 Z0.6797
G3 X31.2763 Y0.8341 Z0.6794 I0.0 J0.2813
G3 X31.2687 Y0.8534 I-6.6193 J-2.5935
G3 X25.8068 Y5.3601 Z0.6754 I-4.4164 J0.2107
G3 X25.6608 Y5.271 Z0.6753 I0.0665 J-0.2733
G1 X24.4822 Y3.9116 Z0.6744
G2 X22.765 Y3.6599 Z0.6735 I-1.0177 J0.9599
G2 Y6.0831 Z0.6721 I0.6995 J1.2116
G2 X23.5033 Y6.2699 Z0.6717 I0.6995 J-1.2116
G3 X23.5758 Y6.2774 I0.0078 J0.2811
G3 X23.2712 Y9.0127 Z0.6698 I-0.3188 J1.3491
G3 X22.9496 Y8.9838 Z0.6696 I-0.0568 J-1.1714
G3 X22.7856 Y8.8751 Z0.6695 I0.0635 J-0.274
G1 X18.4822 Y3.9116 Z0.6663
G2 X16.765 Y3.6599 Z0.6654 I-1.0177 J0.9599
G2 Y6.0831 Z0.664 I0.6995 J1.2116
G2 X17.5033 Y6.2699 Z0.6636 I0.6995 J-1.2116
G3 X17.5758 Y6.2774 I0.0078 J0.2811
G3 X17.273 Y9.0127 Z0.6616 I-0.3188 J1.3491
G3 X16.9509 Y8.9838 Z0.6615 I-0.0572 J-1.1713
G3 X16.802 Y8.894 Z0.6614 I0.0635 J-0.274
G1 X12.4822 Y3.9116 Z0.6582
G2 X10.765 Y3.6599 Z0.6573 I-1.0177 J0.9599
G2 Y6.0831 Z0.6559 I0.6995 J1.2116
G2 X11.5033 Y6.2699 Z0.6555 I0.6995 J-1.2116
G3 X11.5758 Y6.2774 I0.0078 J0.2811
G3 X11.2663 Y9.0127 Z0.6535 I-0.3188 J1.3491
G3 X11.2645 Y9.0128 I-0.0019 J-0.2812
G1 X7.6885 Z0.6518
G1 X4.0525 Z0.65
G1 X1.0145 Z0.6485
G3 X0.7332 Y8.7315 Z0.6483 I0.0 J-0.2813
G1 Y0.7315 Z0.6444
G3 X1.0145 Y0.4503 Z0.6442 I0.2813 J0.0
G1 X31.0145 Z0.6297
G3 X31.2763 Y0.8341 Z0.6294 I0.0 J0.2813
G3 X31.2687 Y0.8534 I-6.6193 J-2.5935
G3 X25.8068 Y5.3601 Z0.6254 I-4.4164 J0.2107
G3 X25.6608 Y5.271 Z0.6253 I0.0665 J-0.2733
G1 X24.4822 Y3.9116 Z0.6244
G2 X22.765 Y3.6599 Z0.6235 I-1.0177 J0.9599
G2 Y6.0831 Z0.6221 I0.6995 J1.2116
G2 X23.5033 Y6.2699 Z0.6217 I0.6995 J-1.2116
G3 X23.5758 Y6.2774 I0.0078 J0.2811
G3 X23.2712 Y9.0127 Z0.6198 I-0.3188 J1.3491
G3 X22.9496 Y8.9838 Z0.6196 I-0.0568 J-1.1714
G3 X22.7856 Y8.8751 Z0.6195 I0.0635 J-0.274
G1 X18.4822 Y3.9116 Z0.6163
G2 X16.765 Y3.6599 Z0.6154 I-1.0177 J0.9599
G2 Y6.0831 Z0.614 I0.6995 J1.2116
G2 X17.5033 Y6.2699 Z0.6136 I0.6995 J-1.2116
G3 X17.5758 Y6.2774 I0.0078 J0.2811
G3 X17.273 Y9.0127 Z0.6116 I-0.3188 J1.3491
G3 X16.9509 Y8.9838 Z0.6115 I-0.0572 J-1.1713
G3 X16.802 Y8.894 Z0.6114 I0.0635 J-0.274
G1 X12.4822 Y3.9116 Z0.6082
G2 X10.765 Y3.6599 Z0.6073 I-1.0177 J0.9599
G2 Y6.0831 Z0.6059 I0.6995 J1.2116
G2 X11.5033 Y6.2699 Z0.6055 I0.6995 J-1.2116
G3 X11.5758 Y6.2774 I0.0078 J0.2811
G3 X11.2663 Y9.0127 Z0.6035 I-0.3188 J1.3491
G3 X11.2645 Y9.0128 I-0.0019 J-0.2812
G1 X7.6885 Z0.6018
G1 X4.0525 Z0.6
G1 X1.0145 Z0.5985
G3 X0.7332 Y8.7315 Z0.5983 I0.0 J-0.2813
G1 Y0.7315 Z0.5944
G3 X1.0145 Y0.4503 Z0.5942 I0.2813 J0.0
G1 X31.0145 Z0.5797
G3 X31.2763 Y0.8341 Z0.5794 I0.0 J0.2813
G3 X31.2687 Y0.8534 I-6.6193 J-2.5935
G3 X25.8068 Y5.3601 Z0.5754 I-4.4164 J0.2107
G3 X25.6608 Y5.271 Z0.5753 I0.0665 J-0.2733
G1 X24.4822 Y3.9116 Z0.5744
G2 X22.765 Y3.6599 Z0.5735 I-1.0177 J0.9599
G2 Y6.0831 Z0.5721 I0.6995 J1.2116
G2 X23.5033 Y6.2699 Z0.5717 I0.6995 J-1.2116
G3 X23.5758 Y6.2774 I0.0078 J0.2811
G3 X23.2712 Y9.0127 Z0.5698 I-0.3188 J1.3491
G3 X22.9496 Y8.9838 Z0.5696 I-0.0568 J-1.1714
G3 X22.7856 Y8.8751 Z0.5695 I0.0635 J-0.274
G1 X18.4822 Y3.9116 Z0.5663
G2 X16.765 Y3.6599 Z0.5654 I-1.0177 J0.9599
G2 Y6.0831 Z0.564 I0.6995 J1.2116
G2 X17.5033 Y6.2699 Z0.5636 I0.6995 J-1.2116
G3 X17.5758 Y6.2774 I0.0078 J0.2811
G3 X17.273 Y9.0127 Z0.5616 I-0.3188 J1.3491
G3 X16.9509 Y8.9838 Z0.5615 I-0.0572 J-1.1713
G3 X16.802 Y8.894 Z0.5614 I0.0635 J-0.274
G1 X12.4822 Y3.9116 Z0.5582
G2 X10.765 Y3.6599 Z0.5573 I-1.0177 J0.9599
G2 Y6.0831 Z0.5559 I0.6995 J1.2116
G2 X11.5033 Y6.2699 Z0.5555 I0.6995 J-1.2116
G3 X11.5758 Y6.2774 I0.0078 J0.2811
G3 X11.2663 Y9.0127 Z0.5535 I-0.3188 J1.3491
G3 X11.2645 Y9.0128 I-0.0019 J-0.2812
G1 X7.6885 Z0.5518
G1 X4.0525 Z0.55
G1 X1.0145 Z0.5485
G3 X0.7332 Y8.7315 Z0.5483 I0.0 J-0.2813
G1 Y0.7315 Z0.5444
G3 X1.0145 Y0.4503 Z0.5442 I0.2813 J0.0
G1 X31.0145 Z0.5297
G3 X31.2763 Y0.8341 Z0.5294 I0.0 J0.2813
G3 X31.2687 Y0.8534 I-6.6193 J-2.5935
G3 X25.8068 Y5.3601 Z0.5254 I-4.4164 J0.2107
G3 X25.6608 Y5.271 Z0.5253 I0.0665 J-0.2733
G1 X24.4822 Y3.9116 Z0.5244
G2 X22.765 Y3.6599 Z0.5235 I-1.0177 J0.9599
G2 Y6.0831 Z0.5221 I0.6995 J1.2116
G2 X23.5033 Y6.2699 Z0.5217 I0.6995 J-1.2116
G3 X23.5758 Y6.2774 I0.0078 J0.2811
G3 X23.2712 Y9.0127 Z0.5198 I-0.3188 J1.3491
G3 X22.9496 Y8.9838 Z0.5196 I-0.0568 J-1.1714
G3 X22.7856 Y8.8751 Z0.5195 I0.0635 J-0.274
G1 X18.4822 Y3.9116 Z0.5163
G2 X16.765 Y3.6599 Z0.5154 I-1.0177 J0.9599
G2 Y6.0831 Z0.514 I0.6995 J1.2116
G2 X17.5033 Y6.2699 Z0.5136 I0.6995 J-1.2116
G3 X17.5758 Y6.2774 I0.0078 J0.2811
G3 X17.273 Y9.0127 Z0.5116 I-0.3188 J1.3491
G3 X16.9509 Y8.9838 Z0.5115 I-0.0572 J-1.1713
G3 X16.802 Y8.894 Z0.5114 I0.0635 J-0.274
G1 X12.4822 Y3.9116 Z0.5082
G2 X10.765 Y3.6599 Z0.5073 I-1.0177 J0.9599
G2 Y6.0831 Z0.5059 I0.6995 J1.2116
G2 X11.5033 Y6.2699 Z0.5055 I0.6995 J-1.2116
G3 X11.5758 Y6.2774 I0.0078 J0.2811
G3 X11.2663 Y9.0127 Z0.5035 I-0.3188 J1.3491
G3 X11.2645 Y9.0128 I-0.0019 J-0.2812
G1 X7.6885 Z0.5018
G1 X4.0525 Z0.5
G1 X1.0145 Z0.4985
G3 X0.7332 Y8.7315 Z0.4983 I0.0 J-0.2813
G1 Y0.7315 Z0.4944
G3 X1.0145 Y0.4503 Z0.4942 I0.2813 J0.0
G1 X31.0145 Z0.4797
G3 X31.2763 Y0.8341 Z0.4794 I0.0 J0.2813
G3 X31.2687 Y0.8534 I-6.6193 J-2.5935
G3 X25.8068 Y5.3601 Z0.4754 I-4.4164 J0.2107
G3 X25.6608 Y5.271 Z0.4753 I0.0665 J-0.2733
G1 X24.4822 Y3.9116 Z0.4744
G2 X22.765 Y3.6599 Z0.4735 I-1.0177 J0.9599
G2 Y6.0831 Z0.4721 I0.6995 J1.2116
G2 X23.5033 Y6.2699 Z0.4717 I0.6995 J-1.2116
G3 X23.5758 Y6.2774 I0.0078 J0.2811
G3 X23.2712 Y9.0127 Z0.4698 I-0.3188 J1.3491
G3 X22.9496 Y8.9838 Z0.4696 I-0.0568 J-1.1714
G3 X22.7856 Y8.8751 Z0.4695 I0.0635 J-0.274
G1 X18.4822 Y3.9116 Z0.4663
G2 X16.765 Y3.6599 Z0.4654 I-1.0177 J0.9599
G2 Y6.0831 Z0.464 I0.6995 J1.2116
G2 X17.5033 Y6.2699 Z0.4636 I0.6995 J-1.2116
G3 X17.5758 Y6.2774 I0.0078 J0.2811
G3 X17.273 Y9.0127 Z0.4616 I-0.3188 J1.3491
G3 X16.9509 Y8.9838 Z0.4615 I-0.0572 J-1.1713
G3 X16.802 Y8.894 Z0.4614 I0.0635 J-0.274
G1 X12.4822 Y3.9116 Z0.4582
G2 X10.765 Y3.6599 Z0.4573 I-1.0177 J0.9599
G2 Y6.0831 Z0.4559 I0.6995 J1.2116
G2 X11.5033 Y6.2699 Z0.4555 I0.6995 J-1.2116
G3 X11.5758 Y6.2774 I0.0078 J0.2811
G3 X11.2663 Y9.0127 Z0.4535 I-0.3188 J1.3491
G3 X11.2645 Y9.0128 I-0.0019 J-0.2812
G1 X7.6885 Z0.4518
G1 X4.0525 Z0.45
G1 X1.0145 Z0.4485
G3 X0.7332 Y8.7315 Z0.4483 I0.0 J-0.2813
G1 Y0.7315 Z0.4444
G3 X1.0145 Y0.4503 Z0.4442 I0.2813 J0.0
G1 X31.0145 Z0.4297
G3 X31.2763 Y0.8341 Z0.4294 I0.0 J0.2813
G3 X31.2687 Y0.8534 I-6.6193 J-2.5935
G3 X25.8068 Y5.3601 Z0.4254 I-4.4164 J0.2107
G3 X25.6608 Y5.271 Z0.4253 I0.0665 J-0.2733
G1 X24.4822 Y3.9116 Z0.4244
G2 X22.765 Y3.6599 Z0.4235 I-1.0177 J0.9599
G2 Y6.0831 Z0.4221 I0.6995 J1.2116
G2 X23.5033 Y6.2699 Z0.4217 I0.6995 J-1.2116
G3 X23.5758 Y6.2774 I0.0078 J0.2811
G3 X23.2712 Y9.0127 Z0.4198 I-0.3188 J1.3491
G3 X22.9496 Y8.9838 Z0.4196 I-0.0568 J-1.1714
G3 X22.7856 Y8.8751 Z0.4195 I0.0635 J-0.274
G1 X18.4822 Y3.9116 Z0.4163
G2 X16.765 Y3.6599 Z0.4154 I-1.0177 J0.9599
G2 Y6.0831 Z0.414 I0.6995 J1.2116
G2 X17.5033 Y6.2699 Z0.4136 I0.6995 J-1.2116
G3 X17.5758 Y6.2774 I0.0078 J0.2811
G3 X17.273 Y9.0127 Z0.4116 I-0.3188 J1.3491
G3 X16.9509 Y8.9838 Z0.4115 I-0.0572 J-1.1713
G3 X16.802 Y8.894 Z0.4114 I0.0635 J-0.274
G1 X12.4822 Y3.9116 Z0.4082
G2 X10.765 Y3.6599 Z0.4073 I-1.0177 J0.9599
G2 Y6.0831 Z0.4059 I0.6995 J1.2116
G2 X11.5033 Y6.2699 Z0.4055 I0.6995 J-1.2116
G3 X11.5758 Y6.2774 I0.0078 J0.2811
G3 X11.2663 Y9.0127 Z0.4035 I-0.3188 J1.3491
G3 X11.2645 Y9.0128 I-0.0019 J-0.2812
G1 X7.6885 Z0.4018
G1 X4.0525 Z0.4
G1 X1.0145 Z0.3985
G3 X0.7332 Y8.7315 Z0.3983 I0.0 J-0.2813
G1 Y0.7315 Z0.3944
G3 X1.0145 Y0.4503 Z0.3942 I0.2813 J0.0
G1 X31.0145 Z0.3797
G3 X31.2763 Y0.8341 Z0.3794 I0.0 J0.2813
G3 X31.2687 Y0.8534 I-6.6193 J-2.5935
G3 X25.8068 Y5.3601 Z0.3754 I-4.4164 J0.2107
G3 X25.6608 Y5.271 Z0.3753 I0.0665 J-0.2733
G1 X24.4822 Y3.9116 Z0.3744
G2 X22.765 Y3.6599 Z0.3735 I-1.0177 J0.9599
G2 Y6.0831 Z0.3721 I0.6995 J1.2116
G2 X23.5033 Y6.2699 Z0.3717 I0.6995 J-1.2116
G3 X23.5758 Y6.2774 I0.0078 J0.2811
G3 X23.2712 Y9.0127 Z0.3698 I-0.3188 J1.3491
G3 X22.9496 Y8.9838 Z0.3696 I-0.0568 J-1.1714
G3 X22.7856 Y8.8751 Z0.3695 I0.0635 J-0.274
G1 X18.4822 Y3.9116 Z0.3663
G2 X16.765 Y3.6599 Z0.3654 I-1.0177 J0.9599
G2 Y6.0831 Z0.364 I0.6995 J1.2116
G2 X17.5033 Y6.2699 Z0.3636 I0.6995 J-1.2116
G3 X17.5758 Y6.2774 I0.0078 J0.2811
G3 X17.273 Y9.0127 Z0.3616 I-0.3188 J1.3491
G3 X16.9509 Y8.9838 Z0.3615 I-0.0572 J-1.1713
G3 X16.802 Y8.894 Z0.3614 I0.0635 J-0.274
G1 X12.4822 Y3.9116 Z0.3582
G2 X10.765 Y3.6599 Z0.3573 I-1.0177 J0.9599
G2 Y6.0831 Z0.3559 I0.6995 J1.2116
G2 X11.5033 Y6.2699 Z0.3555 I0.6995 J-1.2116
G3 X11.5758 Y6.2774 I0.0078 J0.2811
G3 X11.2663 Y9.0127 Z0.3535 I-0.3188 J1.3491
G3 X11.2645 Y9.0128 I-0.0019 J-0.2812
G1 X7.6885 Z0.3518
G1 X4.0525 Z0.35
G1 X1.0145 Z0.3485
G3 X0.7332 Y8.7315 Z0.3483 I0.0 J-0.2813
G1 Y0.7315 Z0.3444
G3 X1.0145 Y0.4503 Z0.3442 I0.2813 J0.0
G1 X31.0145 Z0.3297
G3 X31.2763 Y0.8341 Z0.3294 I0.0 J0.2813
G3 X31.2687 Y0.8534 I-6.6193 J-2.5935
G3 X25.8068 Y5.3601 Z0.3254 I-4.4164 J0.2107
G3 X25.6608 Y5.271 Z0.3253 I0.0665 J-0.2733
G1 X24.4822 Y3.9116 Z0.3244
G2 X22.765 Y3.6599 Z0.3235 I-1.0177 J0.9599
G2 Y6.0831 Z0.3221 I0.6995 J1.2116
G2 X23.5033 Y6.2699 Z0.3217 I0.6995 J-1.2116
G3 X23.5758 Y6.2774 I0.0078 J0.2811
G3 X23.2712 Y9.0127 Z0.3198 I-0.3188 J1.3491
G3 X22.9496 Y8.9838 Z0.3196 I-0.0568 J-1.1714
G3 X22.7856 Y8.8751 Z0.3195 I0.0635 J-0.274
G1 X18.4822 Y3.9116 Z0.3163
G2 X16.765 Y3.6599 Z0.3154 I-1.0177 J0.9599
G2 Y6.0831 Z0.314 I0.6995 J1.2116
G2 X17.5033 Y6.2699 Z0.3136 I0.6995 J-1.2116
G3 X17.5758 Y6.2774 I0.0078 J0.2811
G3 X17.273 Y9.0127 Z0.3116 I-0.3188 J1.3491
G3 X16.9509 Y8.9838 Z0.3115 I-0.0572 J-1.1713
G3 X16.802 Y8.894 Z0.3114 I0.0635 J-0.274
G1 X12.4822 Y3.9116 Z0.3082
G2 X10.765 Y3.6599 Z0.3073 I-1.0177 J0.9599
G2 Y6.0831 Z0.3059 I0.6995 J1.2116
G2 X11.5033 Y6.2699 Z0.3055 I0.6995 J-1.2116
G3 X11.5758 Y6.2774 I0.0078 J0.2811
G3 X11.2663 Y9.0127 Z0.3035 I-0.3188 J1.3491
G3 X11.2645 Y9.0128 I-0.0019 J-0.2812
G1 X7.6885 Z0.3018
G1 X4.0525 Z0.3
G1 X1.0145 Z0.2985
G3 X0.7332 Y8.7315 Z0.2983 I0.0 J-0.2813
G1 Y0.7315 Z0.2944
G3 X1.0145 Y0.4503 Z0.2942 I0.2813 J0.0
G1 X31.0145 Z0.2797
G3 X31.2763 Y0.8341 Z0.2794 I0.0 J0.2813
G3 X31.2687 Y0.8534 I-6.6193 J-2.5935
G3 X25.8068 Y5.3601 Z0.2754 I-4.4164 J0.2107
G3 X25.6608 Y5.271 Z0.2753 I0.0665 J-0.2733
G1 X24.4822 Y3.9116 Z0.2744
G2 X22.765 Y3.6599 Z0.2735 I-1.0177 J0.9599
G2 Y6.0831 Z0.2721 I0.6995 J1.2116
G2 X23.5033 Y6.2699 Z0.2717 I0.6995 J-1.2116
G3 X23.5758 Y6.2774 I0.0078 J0.2811
G3 X23.2712 Y9.0127 Z0.2698 I-0.3188 J1.3491
G3 X22.9496 Y8.9838 Z0.2696 I-0.0568 J-1.1714
G3 X22.7856 Y8.8751 Z0.2695 I0.0635 J-0.274
G1 X18.4822 Y3.9116 Z0.2663
G2 X16.765 Y3.6599 Z0.2654 I-1.0177 J0.9599
G2 Y6.0831 Z0.264 I0.6995 J1.2116
G2 X17.5033 Y6.2699 Z0.2636 I0.6995 J-1.2116
G3 X17.5758 Y6.2774 I0.0078 J0.2811
G3 X17.273 Y9.0127 Z0.2616 I-0.3188 J1.3491
G3 X16.9509 Y8.9838 Z0.2615 I-0.0572 J-1.1713
G3 X16.802 Y8.894 Z0.2614 I0.0635 J-0.274
G1 X12.4822 Y3.9116 Z0.2582
G2 X10.765 Y3.6599 Z0.2573 I-1.0177 J0.9599
G2 Y6.0831 Z0.2559 I0.6995 J1.2116
G2 X11.5033 Y6.2699 Z0.2555 I0.6995 J-1.2116
G3 X11.5758 Y6.2774 I0.0078 J0.2811
G3 X11.2663 Y9.0127 Z0.2535 I-0.3188 J1.3491
G3 X11.2645 Y9.0128 I-0.0019 J-0.2812
G1 X7.6885 Z0.2518
G1 X4.0525 Z0.25
G1 X1.0145 Z0.2485
G3 X0.7332 Y8.7315 Z0.2483 I0.0 J-0.2813
G1 Y0.7315 Z0.2444
G3 X1.0145 Y0.4503 Z0.2442 I0.2813 J0.0
G1 X31.0145 Z0.2297
G3 X31.2763 Y0.8341 Z0.2294 I0.0 J0.2813
G3 X31.2687 Y0.8534 I-6.6193 J-2.5935
G3 X25.8068 Y5.3601 Z0.2254 I-4.4164 J0.2107
G3 X25.6608 Y5.271 Z0.2253 I0.0665 J-0.2733
G1 X24.4822 Y3.9116 Z0.2244
G2 X22.765 Y3.6599 Z0.2235 I-1.0177 J0.9599
G2 Y6.0831 Z0.2221 I0.6995 J1.2116
G2 X23.5033 Y6.2699 Z0.2217 I0.6995 J-1.2116
G3 X23.5758 Y6.2774 I0.0078 J0.2811
G3 X23.2712 Y9.0127 Z0.2198 I-0.3188 J1.3491
G3 X22.9496 Y8.9838 Z0.2196 I-0.0568 J-1.1714
G3 X22.7856 Y8.8751 Z0.2195 I0.0635 J-0.274
G1 X18.4822 Y3.9116 Z0.2163
G2 X16.765 Y3.6599 Z0.2154 I-1.0177 J0.9599
G2 Y6.0831 Z0.214 I0.6995 J1.2116
G2 X17.5033 Y6.2699 Z0.2136 I0.6995 J-1.2116
G3 X17.5758 Y6.2774 I0.0078 J0.2811
G3 X17.273 Y9.0127 Z0.2116 I-0.3188 J1.3491
G3 X16.9509 Y8.9838 Z0.2115 I-0.0572 J-1.1713
G3 X16.802 Y8.894 Z0.2114 I0.0635 J-0.274
G1 X12.4822 Y3.9116 Z0.2082
G2 X10.765 Y3.6599 Z0.2073 I-1.0177 J0.9599
G2 Y6.0831 Z0.2059 I0.6995 J1.2116
G2 X11.5033 Y6.2699 Z0.2055 I0.6995 J-1.2116
G3 X11.5758 Y6.2774 I0.0078 J0.2811
G3 X11.2663 Y9.0127 Z0.2035 I-0.3188 J1.3491
G3 X11.2645 Y9.0128 I-0.0019 J-0.2812
G1 X7.6885 Z0.2018
G1 X4.0525 Z0.2
G1 X1.0145 Z0.1985
G3 X0.7332 Y8.7315 Z0.1983 I0.0 J-0.2813
G1 Y3.6579 Z0.1959
G1 Y2.9954 Z0.1955
G1 Y0.7315 Z0.1944
G3 X1.0145 Y0.4503 Z0.1942 I0.2813 J0.0
G1 X14.9739 Z0.1874
G1 X15.6364 Z0.1871
G1 X31.0145 Z0.1797
G3 X31.2763 Y0.8341 Z0.1794 I0.0 J0.2813
G3 X31.2687 Y0.8534 I-6.6193 J-2.5935
G3 X31.2379 Y1.626 Z0.179 I-4.4164 J0.2107
G3 X31.1047 Y2.275 Z0.1787 I-4.3855 J-0.5619
G3 X25.8068 Y5.3601 Z0.1754 I-4.2523 J-1.2109
G3 X25.6608 Y5.271 Z0.1753 I0.0665 J-0.2733
G1 X24.4822 Y3.9116 Z0.1744
G2 X22.765 Y3.6599 Z0.1735 I-1.0177 J0.9599
G2 Y6.0831 Z0.1721 I0.6995 J1.2116
G2 X23.5033 Y6.2699 Z0.1717 I0.6995 J-1.2116
G3 X23.5758 Y6.2774 I0.0078 J0.2811
G3 X23.2712 Y9.0127 Z0.1698 I-0.3188 J1.3491
G3 X22.9496 Y8.9838 Z0.1696 I-0.0568 J-1.1714
G3 X22.7856 Y8.8751 Z0.1695 I0.0635 J-0.274
G1 X20.7916 Y6.5753 Z0.168
G1 X20.3576 Y6.0748 Z0.1677
G1 X18.4822 Y3.9116 Z0.1663
G2 X16.765 Y3.6599 Z0.1654 I-1.0177 J0.9599
G2 Y6.0831 Z0.164 I0.6995 J1.2116
G2 X17.5033 Y6.2699 Z0.1636 I0.6995 J-1.2116
G3 X17.5758 Y6.2774 I0.0078 J0.2811
G3 X17.273 Y9.0127 Z0.1616 I-0.3188 J1.3491
G3 X16.9509 Y8.9838 Z0.1615 I-0.0572 J-1.1713
G3 X16.802 Y8.894 Z0.1614 I0.0635 J-0.274
G1 X15.6159 Y7.5261 Z0.1605
G1 X15.1819 Y7.0255 Z0.1602
G1 X12.4822 Y3.9116 Z0.1582
G2 X10.765 Y3.6599 Z0.1573 I-1.0177 J0.9599
G2 Y6.0831 Z0.1559 I0.6995 J1.2116
G2 X11.5033 Y6.2699 Z0.1555 I0.6995 J-1.2116
G3 X11.5758 Y6.2774 I0.0078 J0.2811
G3 X11.2663 Y9.0127 Z0.1535 I-0.3188 J1.3491
G3 X11.2645 Y9.0128 I-0.0019 J-0.2812
G1 X9.4555 Z0.1526
G1 X8.793 Z0.1523
G1 X7.6885 Z0.1518
G1 X4.0525 Z0.15
G1 X1.0145 Z0.1485
G3 X0.7332 Y8.7315 Z0.1483 I0.0 J-0.2813
G1 Y3.6579 Z0.1459
G0 Z0.15
G1 Y2.9954
G1 F10.0 Z0.1455
G1 F150.0 Y0.7315 Z0.1444
G3 X1.0145 Y0.4503 Z0.1442 I0.2813 J0.0
G1 X14.9739 Z0.1374
G0 Z0.15
G1 X15.6364
G1 F10.0 Z0.1371
G1 F150.0 X31.0145 Z0.1297
G3 X31.2763 Y0.8341 Z0.1294 I0.0 J0.2813
G3 X31.2687 Y0.8534 I-6.6193 J-2.5935
G3 X31.2379 Y1.626 Z0.129 I-4.4164 J0.2107
G0 Z0.15
G3 X31.1047 Y2.275 I-4.3855 J-0.5619
G1 F10.0 Z0.1287
G3 F150.0 X25.8068 Y5.3601 Z0.1254 I-4.2523 J-1.2109
G3 X25.6608 Y5.271 Z0.1253 I0.0665 J-0.2733
G1 X24.4822 Y3.9116 Z0.1244
G2 X22.765 Y3.6599 Z0.1235 I-1.0177 J0.9599
G2 Y6.0831 Z0.1221 I0.6995 J1.2116
G2 X23.5033 Y6.2699 Z0.1217 I0.6995 J-1.2116
G3 X23.5758 Y6.2774 I0.0078 J0.2811
G3 X23.2712 Y9.0127 Z0.1198 I-0.3188 J1.3491
G3 X22.9496 Y8.9838 Z0.1196 I-0.0568 J-1.1714
G3 X22.7856 Y8.8751 Z0.1195 I0.0635 J-0.274
G1 X20.7916 Y6.5753 Z0.118
G0 Z0.15
G1 X20.3576 Y6.0748
G1 F10.0 Z0.1177
G1 F150.0 X18.4822 Y3.9116 Z0.1163
G2 X16.765 Y3.6599 Z0.1154 I-1.0177 J0.9599
G2 Y6.0831 Z0.114 I0.6995 J1.2116
G2 X17.5033 Y6.2699 Z0.1136 I0.6995 J-1.2116
G3 X17.5758 Y6.2774 I0.0078 J0.2811
G3 X17.273 Y9.0127 Z0.1116 I-0.3188 J1.3491
G3 X16.9509 Y8.9838 Z0.1115 I-0.0572 J-1.1713
G3 X16.802 Y8.894 Z0.1114 I0.0635 J-0.274
G1 X15.6159 Y7.5261 Z0.1105
G0 Z0.15
G1 X15.1819 Y7.0255
G1 F10.0 Z0.1102
G1 F150.0 X12.4822 Y3.9116 Z0.1082
G2 X10.765 Y3.6599 Z0.1073 I-1.0177 J0.9599
G2 Y6.0831 Z0.1059 I0.6995 J1.2116
G2 X11.5033 Y6.2699 Z0.1055 I0.6995 J-1.2116
G3 X11.5758 Y6.2774 I0.0078 J0.2811
G3 X11.2663 Y9.0127 Z0.1035 I-0.3188 J1.3491
G3 X11.2645 Y9.0128 I-0.0019 J-0.2812
G1 X9.4555 Z0.1026
G0 Z0.15
G1 X8.793
G1 F10.0 Z0.1023
G1 F150.0 X7.6885 Z0.1018
G1 X4.0525 Z0.1
G1 X1.0145 Z0.0985
G3 X0.7332 Y8.7315 Z0.0983 I0.0 J-0.2813
G1 Y3.6579 Z0.0959
G0 Z0.15
G1 Y2.9954
G1 F10.0 Z0.0955
G1 F150.0 Y0.7315 Z0.0944
G3 X1.0145 Y0.4503 Z0.0942 I0.2813 J0.0
G1 X14.9739 Z0.0874
G0 Z0.15
G1 X15.6364
G1 F10.0 Z0.0871
G1 F150.0 X31.0145 Z0.0797
G3 X31.2763 Y0.8341 Z0.0794 I0.0 J0.2813
G3 X31.2687 Y0.8534 I-6.6193 J-2.5935
G3 X31.2379 Y1.626 Z0.079 I-4.4164 J0.2107
G0 Z0.15
G3 X31.1047 Y2.275 I-4.3855 J-0.5619
G1 F10.0 Z0.0787
G3 F150.0 X25.8068 Y5.3601 Z0.0754 I-4.2523 J-1.2109
G3 X25.6608 Y5.271 Z0.0753 I0.0665 J-0.2733
G1 X24.4822 Y3.9116 Z0.0744
G2 X22.765 Y3.6599 Z0.0735 I-1.0177 J0.9599
G2 Y6.0831 Z0.0721 I0.6995 J1.2116
G2 X23.5033 Y6.2699 Z0.0717 I0.6995 J-1.2116
G3 X23.5758 Y6.2774 I0.0078 J0.2811
G3 X23.2712 Y9.0127 Z0.0698 I-0.3188 J1.3491
G3 X22.9496 Y8.9838 Z0.0696 I-0.0568 J-1.1714
G3 X22.7856 Y8.8751 Z0.0695 I0.0635 J-0.274
G1 X20.7916 Y6.5753 Z0.068
G0 Z0.15
G1 X20.3576 Y6.0748
G1 F10.0 Z0.0677
G1 F150.0 X18.4822 Y3.9116 Z0.0663
G2 X16.765 Y3.6599 Z0.0654 I-1.0177 J0.9599
G2 Y6.0831 Z0.064 I0.6995 J1.2116
G2 X17.5033 Y6.2699 Z0.0636 I0.6995 J-1.2116
G3 X17.5758 Y6.2774 I0.0078 J0.2811
G3 X17.273 Y9.0127 Z0.0616 I-0.3188 J1.3491
G3 X16.9509 Y8.9838 Z0.0615 I-0.0572 J-1.1713
G3 X16.802 Y8.894 Z0.0614 I0.0635 J-0.274
G1 X15.6159 Y7.5261 Z0.0605
G0 Z0.15
G1 X15.1819 Y7.0255
G1 F10.0 Z0.0602
G1 F150.0 X12.4822 Y3.9116 Z0.0582
G2 X10.765 Y3.6599 Z0.0573 I-1.0177 J0.9599
G2 Y6.0831 Z0.0559 I0.6995 J1.2116
G2 X11.5033 Y6.2699 Z0.0555 I0.6995 J-1.2116
G3 X11.5758 Y6.2774 I0.0078 J0.2811
G3 X11.2663 Y9.0127 Z0.0535 I-0.3188 J1.3491
G3 X11.2645 Y9.0128 I-0.0019 J-0.2812
G1 X9.4555 Z0.0526
G0 Z0.15
G1 X8.793
G1 F10.0 Z0.0523
G1 F150.0 X7.6885 Z0.0518
G1 X4.0525 Z0.05
G1 X1.0145
G3 X0.7332 Y8.7315 I0.0 J-0.2813
G1 Y3.6579
G0 Z0.15
G1 Y2.9954
G1 F10.0 Z0.05
G1 F150.0 Y0.7315
G3 X1.0145 Y0.4503 I0.2813 J0.0
G1 X14.9739
G0 Z0.15
G1 X15.6364
G1 F10.0 Z0.05
G1 F150.0 X31.0145
G3 X31.2763 Y0.8341 I0.0 J0.2813
G3 X31.2687 Y0.8534 I-6.6193 J-2.5935
G3 X31.2379 Y1.626 I-4.4164 J0.2107
G0 Z0.15
G3 X31.1047 Y2.275 I-4.3855 J-0.5619
G1 F10.0 Z0.05
G3 F150.0 X25.8068 Y5.3601 I-4.2523 J-1.2109
G3 X25.6608 Y5.271 I0.0665 J-0.2733
G1 X24.4822 Y3.9116
G2 X22.765 Y3.6599 I-1.0177 J0.9599
G2 Y6.0831 I0.6995 J1.2116
G2 X23.5033 Y6.2699 I0.6995 J-1.2116
G3 X23.5758 Y6.2774 I0.0078 J0.2811
G3 X23.2712 Y9.0127 I-0.3188 J1.3491
G3 X22.9496 Y8.9838 I-0.0568 J-1.1714
G3 X22.7856 Y8.8751 I0.0635 J-0.274
G1 X20.7916 Y6.5753
G0 Z0.15
G1 X20.3576 Y6.0748
G1 F10.0 Z0.05
G1 F150.0 X18.4822 Y3.9116
G2 X16.765 Y3.6599 I-1.0177 J0.9599
G2 Y6.0831 I0.6995 J1.2116
G2 X17.5033 Y6.2699 I0.6995 J-1.2116
G3 X17.5758 Y6.2774 I0.0078 J0.2811
G3 X17.273 Y9.0127 I-0.3188 J1.3491
G3 X16.9509 Y8.9838 I-0.0572 J-1.1713
G3 X16.802 Y8.894 I0.0635 J-0.274
G1 X15.6159 Y7.5261
G0 Z0.15
G1 X15.1819 Y7.0255
G1 F10.0 Z0.05
G1 F150.0 X12.4822 Y3.9116
G2 X10.765 Y3.6599 I-1.0177 J0.9599
G2 Y6.0831 I0.6995 J1.2116
G2 X11.5033 Y6.2699 I0.6995 J-1.2116
G3 X11.5758 Y6.2774 I0.0078 J0.2811
G3 X11.2663 Y9.0127 I-0.3188 J1.3491
G3 X11.2645 Y9.0128 I-0.0019 J-0.2812
G1 X9.4555
G0 Z0.15
G1 X8.793
G1 F10.0 Z0.05
G1 F150.0 X7.6885
G1 X4.0525
G0 Z1.0
M30
