( Made using CamBam - http://www.cambam.co.uk )
( gunrack_side1 1/9/2013 10:50:30 AM )
( T0 : 0.5625 )
G20 G90 G64 G40
G0 Z1.0
( T0 : 0.5625 )
( Profile1 )
G0 X15.7568 Y8.8049
G1 F10.0 Z0.7
G1 F150.0 X11.437 Y3.8225
G2 X9.7198 Y3.5708 I-1.0177 J0.9599
G2 Y5.9939 I0.6995 J1.2116
G2 X10.4582 Y6.1808 I0.6995 J-1.2116
G3 X10.5307 Y6.1883 I0.0078 J0.2811
G3 X10.2212 Y8.9236 I-0.3188 J1.3491
G3 X10.2193 I-0.0019 J-0.2812
G1 X0.9693
G3 X0.6881 Y8.6424 I0.0 J-0.2813
G1 Y0.6424
G3 X0.9693 Y0.3611 I0.2813 J0.0
G1 X30.9693
G3 X31.2312 Y0.745 I0.0 J0.2812
G3 X24.9465 Y5.2528 I-6.6193 J-2.5935
G3 X24.6157 Y5.1819 I-0.1183 J-0.2552
G1 X23.437 Y3.8225
G2 X21.7198 Y3.5708 I-1.0177 J0.9599
G2 Y5.9939 I0.6995 J1.2116
G2 X22.4582 Y6.1808 I0.6995 J-1.2116
G3 X22.5307 Y6.1883 I0.0078 J0.2811
G3 X22.2261 Y8.9236 I-0.3188 J1.3491
G3 X21.9044 Y8.8946 I-0.0568 J-1.1714
G3 X21.7404 Y8.786 I0.0635 J-0.274
G1 X17.437 Y3.8225
G2 X15.7198 Y3.5708 I-1.0177 J0.9599
G2 Y5.9939 I0.6995 J1.2116
G2 X16.4582 Y6.1808 I0.6995 J-1.2116
G3 X16.5307 Y6.1883 I0.0078 J0.2811
G3 X16.2278 Y8.9236 I-0.3188 J1.3491
G3 X15.9058 Y8.8946 I-0.0572 J-1.1713
G3 X15.7568 Y8.8049 I0.0635 J-0.274
G1 F10.0 Z0.65
G1 F150.0 X11.437 Y3.8225
G2 X9.7198 Y3.5708 I-1.0177 J0.9599
G2 Y5.9939 I0.6995 J1.2116
G2 X10.4582 Y6.1808 I0.6995 J-1.2116
G3 X10.5307 Y6.1883 I0.0078 J0.2811
G3 X10.2212 Y8.9236 I-0.3188 J1.3491
G3 X10.2193 I-0.0019 J-0.2812
G1 X0.9693
G3 X0.6881 Y8.6424 I0.0 J-0.2813
G1 Y0.6424
G3 X0.9693 Y0.3611 I0.2813 J0.0
G1 X30.9693
G3 X31.2312 Y0.745 I0.0 J0.2812
G3 X24.9465 Y5.2528 I-6.6193 J-2.5935
G3 X24.6157 Y5.1819 I-0.1183 J-0.2552
G1 X23.437 Y3.8225
G2 X21.7198 Y3.5708 I-1.0177 J0.9599
G2 Y5.9939 I0.6995 J1.2116
G2 X22.4582 Y6.1808 I0.6995 J-1.2116
G3 X22.5307 Y6.1883 I0.0078 J0.2811
G3 X22.2261 Y8.9236 I-0.3188 J1.3491
G3 X21.9044 Y8.8946 I-0.0568 J-1.1714
G3 X21.7404 Y8.786 I0.0635 J-0.274
G1 X17.437 Y3.8225
G2 X15.7198 Y3.5708 I-1.0177 J0.9599
G2 Y5.9939 I0.6995 J1.2116
G2 X16.4582 Y6.1808 I0.6995 J-1.2116
G3 X16.5307 Y6.1883 I0.0078 J0.2811
G3 X16.2278 Y8.9236 I-0.3188 J1.3491
G3 X15.9058 Y8.8946 I-0.0572 J-1.1713
G3 X15.7568 Y8.8049 I0.0635 J-0.274
G1 F10.0 Z0.6
G1 F150.0 X11.437 Y3.8225
G2 X9.7198 Y3.5708 I-1.0177 J0.9599
G2 Y5.9939 I0.6995 J1.2116
G2 X10.4582 Y6.1808 I0.6995 J-1.2116
G3 X10.5307 Y6.1883 I0.0078 J0.2811
G3 X10.2212 Y8.9236 I-0.3188 J1.3491
G3 X10.2193 I-0.0019 J-0.2812
G1 X0.9693
G3 X0.6881 Y8.6424 I0.0 J-0.2813
G1 Y0.6424
G3 X0.9693 Y0.3611 I0.2813 J0.0
G1 X30.9693
G3 X31.2312 Y0.745 I0.0 J0.2812
G3 X24.9465 Y5.2528 I-6.6193 J-2.5935
G3 X24.6157 Y5.1819 I-0.1183 J-0.2552
G1 X23.437 Y3.8225
G2 X21.7198 Y3.5708 I-1.0177 J0.9599
G2 Y5.9939 I0.6995 J1.2116
G2 X22.4582 Y6.1808 I0.6995 J-1.2116
G3 X22.5307 Y6.1883 I0.0078 J0.2811
G3 X22.2261 Y8.9236 I-0.3188 J1.3491
G3 X21.9044 Y8.8946 I-0.0568 J-1.1714
G3 X21.7404 Y8.786 I0.0635 J-0.274
G1 X17.437 Y3.8225
G2 X15.7198 Y3.5708 I-1.0177 J0.9599
G2 Y5.9939 I0.6995 J1.2116
G2 X16.4582 Y6.1808 I0.6995 J-1.2116
G3 X16.5307 Y6.1883 I0.0078 J0.2811
G3 X16.2278 Y8.9236 I-0.3188 J1.3491
G3 X15.9058 Y8.8946 I-0.0572 J-1.1713
G3 X15.7568 Y8.8049 I0.0635 J-0.274
G1 F10.0 Z0.55
G1 F150.0 X11.437 Y3.8225
G2 X9.7198 Y3.5708 I-1.0177 J0.9599
G2 Y5.9939 I0.6995 J1.2116
G2 X10.4582 Y6.1808 I0.6995 J-1.2116
G3 X10.5307 Y6.1883 I0.0078 J0.2811
G3 X10.2212 Y8.9236 I-0.3188 J1.3491
G3 X10.2193 I-0.0019 J-0.2812
G1 X0.9693
G3 X0.6881 Y8.6424 I0.0 J-0.2813
G1 Y0.6424
G3 X0.9693 Y0.3611 I0.2813 J0.0
G1 X30.9693
G3 X31.2312 Y0.745 I0.0 J0.2812
G3 X24.9465 Y5.2528 I-6.6193 J-2.5935
G3 X24.6157 Y5.1819 I-0.1183 J-0.2552
G1 X23.437 Y3.8225
G2 X21.7198 Y3.5708 I-1.0177 J0.9599
G2 Y5.9939 I0.6995 J1.2116
G2 X22.4582 Y6.1808 I0.6995 J-1.2116
G3 X22.5307 Y6.1883 I0.0078 J0.2811
G3 X22.2261 Y8.9236 I-0.3188 J1.3491
G3 X21.9044 Y8.8946 I-0.0568 J-1.1714
G3 X21.7404 Y8.786 I0.0635 J-0.274
G1 X17.437 Y3.8225
G2 X15.7198 Y3.5708 I-1.0177 J0.9599
G2 Y5.9939 I0.6995 J1.2116
G2 X16.4582 Y6.1808 I0.6995 J-1.2116
G3 X16.5307 Y6.1883 I0.0078 J0.2811
G3 X16.2278 Y8.9236 I-0.3188 J1.3491
G3 X15.9058 Y8.8946 I-0.0572 J-1.1713
G3 X15.7568 Y8.8049 I0.0635 J-0.274
G1 F10.0 Z0.5
G1 F150.0 X11.437 Y3.8225
G2 X9.7198 Y3.5708 I-1.0177 J0.9599
G2 Y5.9939 I0.6995 J1.2116
G2 X10.4582 Y6.1808 I0.6995 J-1.2116
G3 X10.5307 Y6.1883 I0.0078 J0.2811
G3 X10.2212 Y8.9236 I-0.3188 J1.3491
G3 X10.2193 I-0.0019 J-0.2812
G1 X0.9693
G3 X0.6881 Y8.6424 I0.0 J-0.2813
G1 Y0.6424
G3 X0.9693 Y0.3611 I0.2813 J0.0
G1 X30.9693
G3 X31.2312 Y0.745 I0.0 J0.2812
G3 X24.9465 Y5.2528 I-6.6193 J-2.5935
G3 X24.6157 Y5.1819 I-0.1183 J-0.2552
G1 X23.437 Y3.8225
G2 X21.7198 Y3.5708 I-1.0177 J0.9599
G2 Y5.9939 I0.6995 J1.2116
G2 X22.4582 Y6.1808 I0.6995 J-1.2116
G3 X22.5307 Y6.1883 I0.0078 J0.2811
G3 X22.2261 Y8.9236 I-0.3188 J1.3491
G3 X21.9044 Y8.8946 I-0.0568 J-1.1714
G3 X21.7404 Y8.786 I0.0635 J-0.274
G1 X17.437 Y3.8225
G2 X15.7198 Y3.5708 I-1.0177 J0.9599
G2 Y5.9939 I0.6995 J1.2116
G2 X16.4582 Y6.1808 I0.6995 J-1.2116
G3 X16.5307 Y6.1883 I0.0078 J0.2811
G3 X16.2278 Y8.9236 I-0.3188 J1.3491
G3 X15.9058 Y8.8946 I-0.0572 J-1.1713
G3 X15.7568 Y8.8049 I0.0635 J-0.274
G1 F10.0 Z0.45
G1 F150.0 X11.437 Y3.8225
G2 X9.7198 Y3.5708 I-1.0177 J0.9599
G2 Y5.9939 I0.6995 J1.2116
G2 X10.4582 Y6.1808 I0.6995 J-1.2116
G3 X10.5307 Y6.1883 I0.0078 J0.2811
G3 X10.2212 Y8.9236 I-0.3188 J1.3491
G3 X10.2193 I-0.0019 J-0.2812
G1 X0.9693
G3 X0.6881 Y8.6424 I0.0 J-0.2813
G1 Y0.6424
G3 X0.9693 Y0.3611 I0.2813 J0.0
G1 X30.9693
G3 X31.2312 Y0.745 I0.0 J0.2812
G3 X24.9465 Y5.2528 I-6.6193 J-2.5935
G3 X24.6157 Y5.1819 I-0.1183 J-0.2552
G1 X23.437 Y3.8225
G2 X21.7198 Y3.5708 I-1.0177 J0.9599
G2 Y5.9939 I0.6995 J1.2116
G2 X22.4582 Y6.1808 I0.6995 J-1.2116
G3 X22.5307 Y6.1883 I0.0078 J0.2811
G3 X22.2261 Y8.9236 I-0.3188 J1.3491
G3 X21.9044 Y8.8946 I-0.0568 J-1.1714
G3 X21.7404 Y8.786 I0.0635 J-0.274
G1 X17.437 Y3.8225
G2 X15.7198 Y3.5708 I-1.0177 J0.9599
G2 Y5.9939 I0.6995 J1.2116
G2 X16.4582 Y6.1808 I0.6995 J-1.2116
G3 X16.5307 Y6.1883 I0.0078 J0.2811
G3 X16.2278 Y8.9236 I-0.3188 J1.3491
G3 X15.9058 Y8.8946 I-0.0572 J-1.1713
G3 X15.7568 Y8.8049 I0.0635 J-0.274
G1 F10.0 Z0.4
G1 F150.0 X11.437 Y3.8225
G2 X9.7198 Y3.5708 I-1.0177 J0.9599
G2 Y5.9939 I0.6995 J1.2116
G2 X10.4582 Y6.1808 I0.6995 J-1.2116
G3 X10.5307 Y6.1883 I0.0078 J0.2811
G3 X10.2212 Y8.9236 I-0.3188 J1.3491
G3 X10.2193 I-0.0019 J-0.2812
G1 X0.9693
G3 X0.6881 Y8.6424 I0.0 J-0.2813
G1 Y0.6424
G3 X0.9693 Y0.3611 I0.2813 J0.0
G1 X30.9693
G3 X31.2312 Y0.745 I0.0 J0.2812
G3 X24.9465 Y5.2528 I-6.6193 J-2.5935
G3 X24.6157 Y5.1819 I-0.1183 J-0.2552
G1 X23.437 Y3.8225
G2 X21.7198 Y3.5708 I-1.0177 J0.9599
G2 Y5.9939 I0.6995 J1.2116
G2 X22.4582 Y6.1808 I0.6995 J-1.2116
G3 X22.5307 Y6.1883 I0.0078 J0.2811
G3 X22.2261 Y8.9236 I-0.3188 J1.3491
G3 X21.9044 Y8.8946 I-0.0568 J-1.1714
G3 X21.7404 Y8.786 I0.0635 J-0.274
G1 X17.437 Y3.8225
G2 X15.7198 Y3.5708 I-1.0177 J0.9599
G2 Y5.9939 I0.6995 J1.2116
G2 X16.4582 Y6.1808 I0.6995 J-1.2116
G3 X16.5307 Y6.1883 I0.0078 J0.2811
G3 X16.2278 Y8.9236 I-0.3188 J1.3491
G3 X15.9058 Y8.8946 I-0.0572 J-1.1713
G3 X15.7568 Y8.8049 I0.0635 J-0.274
G1 F10.0 Z0.35
G1 F150.0 X11.437 Y3.8225
G2 X9.7198 Y3.5708 I-1.0177 J0.9599
G2 Y5.9939 I0.6995 J1.2116
G2 X10.4582 Y6.1808 I0.6995 J-1.2116
G3 X10.5307 Y6.1883 I0.0078 J0.2811
G3 X10.2212 Y8.9236 I-0.3188 J1.3491
G3 X10.2193 I-0.0019 J-0.2812
G1 X0.9693
G3 X0.6881 Y8.6424 I0.0 J-0.2813
G1 Y0.6424
G3 X0.9693 Y0.3611 I0.2813 J0.0
G1 X30.9693
G3 X31.2312 Y0.745 I0.0 J0.2812
G3 X24.9465 Y5.2528 I-6.6193 J-2.5935
G3 X24.6157 Y5.1819 I-0.1183 J-0.2552
G1 X23.437 Y3.8225
G2 X21.7198 Y3.5708 I-1.0177 J0.9599
G2 Y5.9939 I0.6995 J1.2116
G2 X22.4582 Y6.1808 I0.6995 J-1.2116
G3 X22.5307 Y6.1883 I0.0078 J0.2811
G3 X22.2261 Y8.9236 I-0.3188 J1.3491
G3 X21.9044 Y8.8946 I-0.0568 J-1.1714
G3 X21.7404 Y8.786 I0.0635 J-0.274
G1 X17.437 Y3.8225
G2 X15.7198 Y3.5708 I-1.0177 J0.9599
G2 Y5.9939 I0.6995 J1.2116
G2 X16.4582 Y6.1808 I0.6995 J-1.2116
G3 X16.5307 Y6.1883 I0.0078 J0.2811
G3 X16.2278 Y8.9236 I-0.3188 J1.3491
G3 X15.9058 Y8.8946 I-0.0572 J-1.1713
G3 X15.7568 Y8.8049 I0.0635 J-0.274
G1 F10.0 Z0.3
G1 F150.0 X11.437 Y3.8225
G2 X9.7198 Y3.5708 I-1.0177 J0.9599
G2 Y5.9939 I0.6995 J1.2116
G2 X10.4582 Y6.1808 I0.6995 J-1.2116
G3 X10.5307 Y6.1883 I0.0078 J0.2811
G3 X10.2212 Y8.9236 I-0.3188 J1.3491
G3 X10.2193 I-0.0019 J-0.2812
G1 X0.9693
G3 X0.6881 Y8.6424 I0.0 J-0.2813
G1 Y0.6424
G3 X0.9693 Y0.3611 I0.2813 J0.0
G1 X30.9693
G3 X31.2312 Y0.745 I0.0 J0.2812
G3 X24.9465 Y5.2528 I-6.6193 J-2.5935
G3 X24.6157 Y5.1819 I-0.1183 J-0.2552
G1 X23.437 Y3.8225
G2 X21.7198 Y3.5708 I-1.0177 J0.9599
G2 Y5.9939 I0.6995 J1.2116
G2 X22.4582 Y6.1808 I0.6995 J-1.2116
G3 X22.5307 Y6.1883 I0.0078 J0.2811
G3 X22.2261 Y8.9236 I-0.3188 J1.3491
G3 X21.9044 Y8.8946 I-0.0568 J-1.1714
G3 X21.7404 Y8.786 I0.0635 J-0.274
G1 X17.437 Y3.8225
G2 X15.7198 Y3.5708 I-1.0177 J0.9599
G2 Y5.9939 I0.6995 J1.2116
G2 X16.4582 Y6.1808 I0.6995 J-1.2116
G3 X16.5307 Y6.1883 I0.0078 J0.2811
G3 X16.2278 Y8.9236 I-0.3188 J1.3491
G3 X15.9058 Y8.8946 I-0.0572 J-1.1713
G3 X15.7568 Y8.8049 I0.0635 J-0.274
G1 F10.0 Z0.25
G1 F150.0 X11.437 Y3.8225
G2 X9.7198 Y3.5708 I-1.0177 J0.9599
G2 Y5.9939 I0.6995 J1.2116
G2 X10.4582 Y6.1808 I0.6995 J-1.2116
G3 X10.5307 Y6.1883 I0.0078 J0.2811
G3 X10.2212 Y8.9236 I-0.3188 J1.3491
G3 X10.2193 I-0.0019 J-0.2812
G1 X0.9693
G3 X0.6881 Y8.6424 I0.0 J-0.2813
G1 Y0.6424
G3 X0.9693 Y0.3611 I0.2813 J0.0
G1 X30.9693
G3 X31.2312 Y0.745 I0.0 J0.2812
G3 X24.9465 Y5.2528 I-6.6193 J-2.5935
G3 X24.6157 Y5.1819 I-0.1183 J-0.2552
G1 X23.437 Y3.8225
G2 X21.7198 Y3.5708 I-1.0177 J0.9599
G2 Y5.9939 I0.6995 J1.2116
G2 X22.4582 Y6.1808 I0.6995 J-1.2116
G3 X22.5307 Y6.1883 I0.0078 J0.2811
G3 X22.2261 Y8.9236 I-0.3188 J1.3491
G3 X21.9044 Y8.8946 I-0.0568 J-1.1714
G3 X21.7404 Y8.786 I0.0635 J-0.274
G1 X17.437 Y3.8225
G2 X15.7198 Y3.5708 I-1.0177 J0.9599
G2 Y5.9939 I0.6995 J1.2116
G2 X16.4582 Y6.1808 I0.6995 J-1.2116
G3 X16.5307 Y6.1883 I0.0078 J0.2811
G3 X16.2278 Y8.9236 I-0.3188 J1.3491
G3 X15.9058 Y8.8946 I-0.0572 J-1.1713
G3 X15.7568 Y8.8049 I0.0635 J-0.274
G1 F10.0 Z0.2
G1 F150.0 X11.437 Y3.8225
G2 X9.7198 Y3.5708 I-1.0177 J0.9599
G2 Y5.9939 I0.6995 J1.2116
G2 X10.4582 Y6.1808 I0.6995 J-1.2116
G3 X10.5307 Y6.1883 I0.0078 J0.2811
G3 X10.2212 Y8.9236 I-0.3188 J1.3491
G3 X10.2193 I-0.0019 J-0.2812
G1 X0.9693
G3 X0.6881 Y8.6424 I0.0 J-0.2813
G1 Y0.6424
G3 X0.9693 Y0.3611 I0.2813 J0.0
G1 X30.9693
G3 X31.2312 Y0.745 I0.0 J0.2812
G3 X24.9465 Y5.2528 I-6.6193 J-2.5935
G3 X24.6157 Y5.1819 I-0.1183 J-0.2552
G1 X23.437 Y3.8225
G2 X21.7198 Y3.5708 I-1.0177 J0.9599
G2 Y5.9939 I0.6995 J1.2116
G2 X22.4582 Y6.1808 I0.6995 J-1.2116
G3 X22.5307 Y6.1883 I0.0078 J0.2811
G3 X22.2261 Y8.9236 I-0.3188 J1.3491
G3 X21.9044 Y8.8946 I-0.0568 J-1.1714
G3 X21.7404 Y8.786 I0.0635 J-0.274
G1 X17.437 Y3.8225
G2 X15.7198 Y3.5708 I-1.0177 J0.9599
G2 Y5.9939 I0.6995 J1.2116
G2 X16.4582 Y6.1808 I0.6995 J-1.2116
G3 X16.5307 Y6.1883 I0.0078 J0.2811
G3 X16.2278 Y8.9236 I-0.3188 J1.3491
G3 X15.9058 Y8.8946 I-0.0572 J-1.1713
G3 X15.7568 Y8.8049 I0.0635 J-0.274
G1 F10.0 Z0.15
G1 F150.0 X11.437 Y3.8225
G2 X9.7198 Y3.5708 I-1.0177 J0.9599
G2 Y5.9939 I0.6995 J1.2116
G2 X10.4582 Y6.1808 I0.6995 J-1.2116
G3 X10.5307 Y6.1883 I0.0078 J0.2811
G3 X10.2212 Y8.9236 I-0.3188 J1.3491
G3 X10.2193 I-0.0019 J-0.2812
G1 X0.9693
G3 X0.6881 Y8.6424 I0.0 J-0.2813
G1 Y0.6424
G3 X0.9693 Y0.3611 I0.2813 J0.0
G1 X30.9693
G3 X31.2312 Y0.745 I0.0 J0.2812
G3 X24.9465 Y5.2528 I-6.6193 J-2.5935
G3 X24.6157 Y5.1819 I-0.1183 J-0.2552
G1 X23.437 Y3.8225
G2 X21.7198 Y3.5708 I-1.0177 J0.9599
G2 Y5.9939 I0.6995 J1.2116
G2 X22.4582 Y6.1808 I0.6995 J-1.2116
G3 X22.5307 Y6.1883 I0.0078 J0.2811
G3 X22.2261 Y8.9236 I-0.3188 J1.3491
G3 X21.9044 Y8.8946 I-0.0568 J-1.1714
G3 X21.7404 Y8.786 I0.0635 J-0.274
G1 X17.437 Y3.8225
G2 X15.7198 Y3.5708 I-1.0177 J0.9599
G2 Y5.9939 I0.6995 J1.2116
G2 X16.4582 Y6.1808 I0.6995 J-1.2116
G3 X16.5307 Y6.1883 I0.0078 J0.2811
G3 X16.2278 Y8.9236 I-0.3188 J1.3491
G3 X15.9058 Y8.8946 I-0.0572 J-1.1713
G3 X15.7568 Y8.8049 I0.0635 J-0.274
G1 F10.0 Z0.05
G1 F150.0 X13.3681 Y6.0498
G0 Z0.15
G1 X12.9341 Y5.5492
G1 F10.0 Z0.05
G1 F150.0 X11.437 Y3.8225
G2 X9.7198 Y3.5708 I-1.0177 J0.9599
G2 Y5.9939 I0.6995 J1.2116
G2 X10.4582 Y6.1808 I0.6995 J-1.2116
G3 X10.5307 Y6.1883 I0.0078 J0.2811
G3 X10.2212 Y8.9236 I-0.3188 J1.3491
G3 X10.2193 I-0.0019 J-0.2812
G1 X4.5722
G0 Z0.15
G1 X3.9097
G1 F10.0 Z0.05
G1 F150.0 X0.9693
G3 X0.6881 Y8.6424 I0.0 J-0.2813
G1 Y0.6424
G3 X0.9693 Y0.3611 I0.2813 J0.0
G1 X8.7409
G0 Z0.15
G1 X9.4034
G1 F10.0 Z0.05
G1 F150.0 X25.4852
G0 Z0.15
G1 X26.1477
G1 F10.0 Z0.05
G1 F150.0 X30.9693
G3 X31.2312 Y0.745 I0.0 J0.2812
G3 X26.4238 Y5.0259 I-6.6193 J-2.5935
G0 Z0.15
G3 X25.776 Y5.1648 I-1.8119 J-6.8744
G1 F10.0 Z0.05
G3 F150.0 X24.9465 Y5.2528 I-1.1641 J-7.0132
G3 X24.6157 Y5.1819 I-0.1183 J-0.2552
G1 X23.437 Y3.8225
G2 X21.7198 Y3.5708 I-1.0177 J0.9599
G2 Y5.9939 I0.6995 J1.2116
G2 X22.4582 Y6.1808 I0.6995 J-1.2116
G3 X22.5307 Y6.1883 I0.0078 J0.2811
G3 X22.2261 Y8.9236 I-0.3188 J1.3491
G3 X21.9044 Y8.8946 I-0.0568 J-1.1714
G3 X21.7404 Y8.786 I0.0635 J-0.274
G1 X19.6669 Y6.3944
G0 Z0.15
G1 X19.2329 Y5.8938
G1 F10.0 Z0.05
G1 F150.0 X17.437 Y3.8225
G2 X15.7198 Y3.5708 I-1.0177 J0.9599
G2 Y5.9939 I0.6995 J1.2116
G2 X16.4582 Y6.1808 I0.6995 J-1.2116
G3 X16.5307 Y6.1883 I0.0078 J0.2811
G3 X16.2278 Y8.9236 I-0.3188 J1.3491
G3 X15.9058 Y8.8946 I-0.0572 J-1.1713
G3 X15.7568 Y8.8049 I0.0635 J-0.274
G0 Z1.0
M30
