( Made using CamBam - http://www.cambam.co.uk )
( wall_tent_stakes 8/2/2011 12:00:44 PM )
( T0 : 0.125 )
G20 G90 G64 G40
G0 Z0.9
G17
G0 X0.25 Y0.5
G1 F10.0 Z0.8
G1 F30.0 X0.75
G3 X0.8116 Y0.5517 I0.0 J0.0625
G1 X1.8116 Y6.2392
G3 X1.8125 Y6.25 I-0.0616 J0.0108
G1 Y11.375
G3 X1.75 Y11.4375 I-0.0625 J0.0
G1 X0.25
G3 X0.1875 Y11.375 I0.0 J-0.0625
G1 Y0.5625
G3 X0.25 Y0.5 I0.0625 J0.0
G1 F10.0 Z0.75
G1 F30.0 X0.75
G3 X0.8116 Y0.5517 I0.0 J0.0625
G1 X1.8116 Y6.2392
G3 X1.8125 Y6.25 I-0.0616 J0.0108
G1 Y11.375
G3 X1.75 Y11.4375 I-0.0625 J0.0
G1 X0.25
G3 X0.1875 Y11.375 I0.0 J-0.0625
G1 Y0.5625
G3 X0.25 Y0.5 I0.0625 J0.0
G1 F10.0 Z0.7
G1 F30.0 X0.75
G3 X0.8116 Y0.5517 I0.0 J0.0625
G1 X1.8116 Y6.2392
G3 X1.8125 Y6.25 I-0.0616 J0.0108
G1 Y11.375
G3 X1.75 Y11.4375 I-0.0625 J0.0
G1 X0.25
G3 X0.1875 Y11.375 I0.0 J-0.0625
G1 Y0.5625
G3 X0.25 Y0.5 I0.0625 J0.0
G1 F10.0 Z0.65
G1 F30.0 X0.75
G3 X0.8116 Y0.5517 I0.0 J0.0625
G1 X1.8116 Y6.2392
G3 X1.8125 Y6.25 I-0.0616 J0.0108
G1 Y11.375
G3 X1.75 Y11.4375 I-0.0625 J0.0
G1 X0.25
G3 X0.1875 Y11.375 I0.0 J-0.0625
G1 Y0.5625
G3 X0.25 Y0.5 I0.0625 J0.0
G1 F10.0 Z0.6
G1 F30.0 X0.75
G3 X0.8116 Y0.5517 I0.0 J0.0625
G1 X1.8116 Y6.2392
G3 X1.8125 Y6.25 I-0.0616 J0.0108
G1 Y11.375
G3 X1.75 Y11.4375 I-0.0625 J0.0
G1 X0.25
G3 X0.1875 Y11.375 I0.0 J-0.0625
G1 Y0.5625
G3 X0.25 Y0.5 I0.0625 J0.0
G1 F10.0 Z0.55
G1 F30.0 X0.75
G3 X0.8116 Y0.5517 I0.0 J0.0625
G1 X1.8116 Y6.2392
G3 X1.8125 Y6.25 I-0.0616 J0.0108
G1 Y11.375
G3 X1.75 Y11.4375 I-0.0625 J0.0
G1 X0.25
G3 X0.1875 Y11.375 I0.0 J-0.0625
G1 Y0.5625
G3 X0.25 Y0.5 I0.0625 J0.0
G1 F10.0 Z0.5
G1 F30.0 X0.75
G3 X0.8116 Y0.5517 I0.0 J0.0625
G1 X1.8116 Y6.2392
G3 X1.8125 Y6.25 I-0.0616 J0.0108
G1 Y11.375
G3 X1.75 Y11.4375 I-0.0625 J0.0
G1 X0.25
G3 X0.1875 Y11.375 I0.0 J-0.0625
G1 Y0.5625
G3 X0.25 Y0.5 I0.0625 J0.0
G0 Z0.9
G0 X2.0 Y0.5603
G1 F10.0 Z0.8
G3 F30.0 X2.0625 Y0.5 I0.0625 J0.0022
G1 X2.5625
G3 X2.6241 Y0.5517 I0.0 J0.0625
G1 X3.6241 Y6.2392
G3 X3.625 Y6.25 I-0.0616 J0.0108
G1 Y11.375
G3 X3.5625 Y11.4375 I-0.0625 J0.0
G1 X2.0625
G3 X2.0 Y11.375 I0.0 J-0.0625
G1 Y0.5625
G3 Y0.5603 I0.0625 J0.0
G1 F10.0 Z0.75
G3 F30.0 X2.0625 Y0.5 I0.0625 J0.0022
G1 X2.5625
G3 X2.6241 Y0.5517 I0.0 J0.0625
G1 X3.6241 Y6.2392
G3 X3.625 Y6.25 I-0.0616 J0.0108
G1 Y11.375
G3 X3.5625 Y11.4375 I-0.0625 J0.0
G1 X2.0625
G3 X2.0 Y11.375 I0.0 J-0.0625
G1 Y0.5625
G3 Y0.5603 I0.0625 J0.0
G1 F10.0 Z0.7
G3 F30.0 X2.0625 Y0.5 I0.0625 J0.0022
G1 X2.5625
G3 X2.6241 Y0.5517 I0.0 J0.0625
G1 X3.6241 Y6.2392
G3 X3.625 Y6.25 I-0.0616 J0.0108
G1 Y11.375
G3 X3.5625 Y11.4375 I-0.0625 J0.0
G1 X2.0625
G3 X2.0 Y11.375 I0.0 J-0.0625
G1 Y0.5625
G3 Y0.5603 I0.0625 J0.0
G1 F10.0 Z0.65
G3 F30.0 X2.0625 Y0.5 I0.0625 J0.0022
G1 X2.5625
G3 X2.6241 Y0.5517 I0.0 J0.0625
G1 X3.6241 Y6.2392
G3 X3.625 Y6.25 I-0.0616 J0.0108
G1 Y11.375
G3 X3.5625 Y11.4375 I-0.0625 J0.0
G1 X2.0625
G3 X2.0 Y11.375 I0.0 J-0.0625
G1 Y0.5625
G3 Y0.5603 I0.0625 J0.0
G1 F10.0 Z0.6
G3 F30.0 X2.0625 Y0.5 I0.0625 J0.0022
G1 X2.5625
G3 X2.6241 Y0.5517 I0.0 J0.0625
G1 X3.6241 Y6.2392
G3 X3.625 Y6.25 I-0.0616 J0.0108
G1 Y11.375
G3 X3.5625 Y11.4375 I-0.0625 J0.0
G1 X2.0625
G3 X2.0 Y11.375 I0.0 J-0.0625
G1 Y0.5625
G3 Y0.5603 I0.0625 J0.0
G1 F10.0 Z0.55
G3 F30.0 X2.0625 Y0.5 I0.0625 J0.0022
G1 X2.5625
G3 X2.6241 Y0.5517 I0.0 J0.0625
G1 X3.6241 Y6.2392
G3 X3.625 Y6.25 I-0.0616 J0.0108
G1 Y11.375
G3 X3.5625 Y11.4375 I-0.0625 J0.0
G1 X2.0625
G3 X2.0 Y11.375 I0.0 J-0.0625
G1 Y0.5625
G3 Y0.5603 I0.0625 J0.0
G1 F10.0 Z0.5
G3 F30.0 X2.0625 Y0.5 I0.0625 J0.0022
G1 X2.5625
G3 X2.6241 Y0.5517 I0.0 J0.0625
G1 X3.6241 Y6.2392
G3 X3.625 Y6.25 I-0.0616 J0.0108
G1 Y11.375
G3 X3.5625 Y11.4375 I-0.0625 J0.0
G1 X2.0625
G3 X2.0 Y11.375 I0.0 J-0.0625
G1 Y0.5625
G3 Y0.5603 I0.0625 J0.0
G0 Z0.9
G0 X3.8125 Y0.5624
G1 F10.0 Z0.8
G3 F30.0 X3.875 Y0.5 I0.0625 J0.0001
G1 X4.375
G3 X4.4366 Y0.5517 I0.0 J0.0625
G1 X5.4366 Y6.2392
G3 X5.4375 Y6.25 I-0.0616 J0.0108
G1 Y11.375
G3 X5.375 Y11.4375 I-0.0625 J0.0
G1 X3.875
G3 X3.8125 Y11.375 I0.0 J-0.0625
G1 Y0.5625
G1 Y0.5624
G1 F10.0 Z0.75
G3 F30.0 X3.875 Y0.5 I0.0625 J0.0001
G1 X4.375
G3 X4.4366 Y0.5517 I0.0 J0.0625
G1 X5.4366 Y6.2392
G3 X5.4375 Y6.25 I-0.0616 J0.0108
G1 Y11.375
G3 X5.375 Y11.4375 I-0.0625 J0.0
G1 X3.875
G3 X3.8125 Y11.375 I0.0 J-0.0625
G1 Y0.5625
G1 Y0.5624
G1 F10.0 Z0.7
G3 F30.0 X3.875 Y0.5 I0.0625 J0.0001
G1 X4.375
G3 X4.4366 Y0.5517 I0.0 J0.0625
G1 X5.4366 Y6.2392
G3 X5.4375 Y6.25 I-0.0616 J0.0108
G1 Y11.375
G3 X5.375 Y11.4375 I-0.0625 J0.0
G1 X3.875
G3 X3.8125 Y11.375 I0.0 J-0.0625
G1 Y0.5625
G1 Y0.5624
G1 F10.0 Z0.65
G3 F30.0 X3.875 Y0.5 I0.0625 J0.0001
G1 X4.375
G3 X4.4366 Y0.5517 I0.0 J0.0625
G1 X5.4366 Y6.2392
G3 X5.4375 Y6.25 I-0.0616 J0.0108
G1 Y11.375
G3 X5.375 Y11.4375 I-0.0625 J0.0
G1 X3.875
G3 X3.8125 Y11.375 I0.0 J-0.0625
G1 Y0.5625
G1 Y0.5624
G1 F10.0 Z0.6
G3 F30.0 X3.875 Y0.5 I0.0625 J0.0001
G1 X4.375
G3 X4.4366 Y0.5517 I0.0 J0.0625
G1 X5.4366 Y6.2392
G3 X5.4375 Y6.25 I-0.0616 J0.0108
G1 Y11.375
G3 X5.375 Y11.4375 I-0.0625 J0.0
G1 X3.875
G3 X3.8125 Y11.375 I0.0 J-0.0625
G1 Y0.5625
G1 Y0.5624
G1 F10.0 Z0.55
G3 F30.0 X3.875 Y0.5 I0.0625 J0.0001
G1 X4.375
G3 X4.4366 Y0.5517 I0.0 J0.0625
G1 X5.4366 Y6.2392
G3 X5.4375 Y6.25 I-0.0616 J0.0108
G1 Y11.375
G3 X5.375 Y11.4375 I-0.0625 J0.0
G1 X3.875
G3 X3.8125 Y11.375 I0.0 J-0.0625
G1 Y0.5625
G1 Y0.5624
G1 F10.0 Z0.5
G3 F30.0 X3.875 Y0.5 I0.0625 J0.0001
G1 X4.375
G3 X4.4366 Y0.5517 I0.0 J0.0625
G1 X5.4366 Y6.2392
G3 X5.4375 Y6.25 I-0.0616 J0.0108
G1 Y11.375
G3 X5.375 Y11.4375 I-0.0625 J0.0
G1 X3.875
G3 X3.8125 Y11.375 I0.0 J-0.0625
G1 Y0.5625
G1 Y0.5624
G0 Z0.9
G0 X5.625 Y0.5625
G1 F10.0 Z0.8
G3 F30.0 X5.6875 Y0.5 I0.0625 J0.0
G1 X6.1875
G3 X6.2491 Y0.5517 I0.0 J0.0625
G1 X7.2491 Y6.2392
G3 X7.25 Y6.25 I-0.0616 J0.0108
G1 Y11.375
G3 X7.1875 Y11.4375 I-0.0625 J0.0
G1 X5.6875
G3 X5.625 Y11.375 I0.0 J-0.0625
G1 Y0.5625
G1 F10.0 Z0.75
G3 F30.0 X5.6875 Y0.5 I0.0625 J0.0
G1 X6.1875
G3 X6.2491 Y0.5517 I0.0 J0.0625
G1 X7.2491 Y6.2392
G3 X7.25 Y6.25 I-0.0616 J0.0108
G1 Y11.375
G3 X7.1875 Y11.4375 I-0.0625 J0.0
G1 X5.6875
G3 X5.625 Y11.375 I0.0 J-0.0625
G1 Y0.5625
G1 F10.0 Z0.7
G3 F30.0 X5.6875 Y0.5 I0.0625 J0.0
G1 X6.1875
G3 X6.2491 Y0.5517 I0.0 J0.0625
G1 X7.2491 Y6.2392
G3 X7.25 Y6.25 I-0.0616 J0.0108
G1 Y11.375
G3 X7.1875 Y11.4375 I-0.0625 J0.0
G1 X5.6875
G3 X5.625 Y11.375 I0.0 J-0.0625
G1 Y0.5625
G1 F10.0 Z0.65
G3 F30.0 X5.6875 Y0.5 I0.0625 J0.0
G1 X6.1875
G3 X6.2491 Y0.5517 I0.0 J0.0625
G1 X7.2491 Y6.2392
G3 X7.25 Y6.25 I-0.0616 J0.0108
G1 Y11.375
G3 X7.1875 Y11.4375 I-0.0625 J0.0
G1 X5.6875
G3 X5.625 Y11.375 I0.0 J-0.0625
G1 Y0.5625
G1 F10.0 Z0.6
G3 F30.0 X5.6875 Y0.5 I0.0625 J0.0
G1 X6.1875
G3 X6.2491 Y0.5517 I0.0 J0.0625
G1 X7.2491 Y6.2392
G3 X7.25 Y6.25 I-0.0616 J0.0108
G1 Y11.375
G3 X7.1875 Y11.4375 I-0.0625 J0.0
G1 X5.6875
G3 X5.625 Y11.375 I0.0 J-0.0625
G1 Y0.5625
G1 F10.0 Z0.55
G3 F30.0 X5.6875 Y0.5 I0.0625 J0.0
G1 X6.1875
G3 X6.2491 Y0.5517 I0.0 J0.0625
G1 X7.2491 Y6.2392
G3 X7.25 Y6.25 I-0.0616 J0.0108
G1 Y11.375
G3 X7.1875 Y11.4375 I-0.0625 J0.0
G1 X5.6875
G3 X5.625 Y11.375 I0.0 J-0.0625
G1 Y0.5625
G1 F10.0 Z0.5
G3 F30.0 X5.6875 Y0.5 I0.0625 J0.0
G1 X6.1875
G3 X6.2491 Y0.5517 I0.0 J0.0625
G1 X7.2491 Y6.2392
G3 X7.25 Y6.25 I-0.0616 J0.0108
G1 Y11.375
G3 X7.1875 Y11.4375 I-0.0625 J0.0
G1 X5.6875
G3 X5.625 Y11.375 I0.0 J-0.0625
G1 Y0.5625
G0 Z0.9
G0 X7.375
G1 F10.0 Z0.8
G3 F30.0 X7.4375 Y0.5 I0.0625 J0.0
G1 X7.9375
G3 X7.9991 Y0.5517 I0.0 J0.0625
G1 X8.9991 Y6.2392
G3 X9.0 Y6.25 I-0.0616 J0.0108
G1 Y11.375
G3 X8.9375 Y11.4375 I-0.0625 J0.0
G1 X7.4375
G3 X7.375 Y11.375 I0.0 J-0.0625
G1 Y0.5625
G1 F10.0 Z0.75
G3 F30.0 X7.4375 Y0.5 I0.0625 J0.0
G1 X7.9375
G3 X7.9991 Y0.5517 I0.0 J0.0625
G1 X8.9991 Y6.2392
G3 X9.0 Y6.25 I-0.0616 J0.0108
G1 Y11.375
G3 X8.9375 Y11.4375 I-0.0625 J0.0
G1 X7.4375
G3 X7.375 Y11.375 I0.0 J-0.0625
G1 Y0.5625
G1 F10.0 Z0.7
G3 F30.0 X7.4375 Y0.5 I0.0625 J0.0
G1 X7.9375
G3 X7.9991 Y0.5517 I0.0 J0.0625
G1 X8.9991 Y6.2392
G3 X9.0 Y6.25 I-0.0616 J0.0108
G1 Y11.375
G3 X8.9375 Y11.4375 I-0.0625 J0.0
G1 X7.4375
G3 X7.375 Y11.375 I0.0 J-0.0625
G1 Y0.5625
G1 F10.0 Z0.65
G3 F30.0 X7.4375 Y0.5 I0.0625 J0.0
G1 X7.9375
G3 X7.9991 Y0.5517 I0.0 J0.0625
G1 X8.9991 Y6.2392
G3 X9.0 Y6.25 I-0.0616 J0.0108
G1 Y11.375
G3 X8.9375 Y11.4375 I-0.0625 J0.0
G1 X7.4375
G3 X7.375 Y11.375 I0.0 J-0.0625
G1 Y0.5625
G1 F10.0 Z0.6
G3 F30.0 X7.4375 Y0.5 I0.0625 J0.0
G1 X7.9375
G3 X7.9991 Y0.5517 I0.0 J0.0625
G1 X8.9991 Y6.2392
G3 X9.0 Y6.25 I-0.0616 J0.0108
G1 Y11.375
G3 X8.9375 Y11.4375 I-0.0625 J0.0
G1 X7.4375
G3 X7.375 Y11.375 I0.0 J-0.0625
G1 Y0.5625
G1 F10.0 Z0.55
G3 F30.0 X7.4375 Y0.5 I0.0625 J0.0
G1 X7.9375
G3 X7.9991 Y0.5517 I0.0 J0.0625
G1 X8.9991 Y6.2392
G3 X9.0 Y6.25 I-0.0616 J0.0108
G1 Y11.375
G3 X8.9375 Y11.4375 I-0.0625 J0.0
G1 X7.4375
G3 X7.375 Y11.375 I0.0 J-0.0625
G1 Y0.5625
G1 F10.0 Z0.5
G3 F30.0 X7.4375 Y0.5 I0.0625 J0.0
G1 X7.9375
G3 X7.9991 Y0.5517 I0.0 J0.0625
G1 X8.9991 Y6.2392
G3 X9.0 Y6.25 I-0.0616 J0.0108
G1 Y11.375
G3 X8.9375 Y11.4375 I-0.0625 J0.0
G1 X7.4375
G3 X7.375 Y11.375 I0.0 J-0.0625
G1 Y0.5625
G0 Z2.0
G0 X0
G0 Y0
M2
