( This file was created automatically using CamBam )
( http://www.brusselsprout.org/CAMBAM )
( 7/3/2008 8:46:49 PM )
( T0 : 0.125 )
G20
G90
G64
G00 Z0.25
( MOPPocket_2 )
( T0 : 0.125 )
G00 X0.866378 Y0.7236
G01 F10 Z-0.063
G02 F50 X0.432765 Y0.473254 I-0.289075 J0
G02 Y0.973946 I0.144537 J0.250346
G02 X0.866378 Y0.7236 I0.144537 J-0.250346
G01 X0.916378
G02 X0.407765 Y0.429952 I-0.339075 J0
G02 Y1.017247 I0.169537 J0.293647
G02 X0.916378 Y0.7236 I0.169537 J-0.293647
G01 X0.866378
G01 F10 Z-0.12
G02 F50 X0.432765 Y0.473254 I-0.289075 J0
G02 Y0.973946 I0.144537 J0.250346
G02 X0.866378 Y0.7236 I0.144537 J-0.250346
G01 X0.916378
G02 X0.407765 Y0.429952 I-0.339075 J0
G02 Y1.017247 I0.169537 J0.293647
G02 X0.916378 Y0.7236 I0.169537 J-0.293647
( MOPProfile_3 )
G00 Z-0.063
G01 F25 X0.832716
G03 X0.449596 Y0.944794 I-0.255413 J0
G03 Y0.502405 I0.127707 J-0.221194
G03 X0.832716 Y0.7236 I0.127707 J0.221194
G01 F10 Z-0.12
G03 F25 X0.449596 Y0.944794 I-0.255413 J0
G03 Y0.502405 I0.127707 J-0.221194
G03 X0.832716 Y0.7236 I0.127707 J0.221194
( MOPPocket_4 )
G00 Z0.25
G00 X2.244331
G01 F10 Z-0.063
G02 F50 X1.810718 Y0.473254 I-0.289075 J0
G02 Y0.973946 I0.144537 J0.250346
G02 X2.244331 Y0.7236 I0.144537 J-0.250346
G01 X2.294331
G02 X1.785718 Y0.429952 I-0.339075 J0
G02 Y1.017247 I0.169537 J0.293647
G02 X2.294331 Y0.7236 I0.169537 J-0.293647
G01 X2.244331
G01 F10 Z-0.12
G02 F50 X1.810718 Y0.473254 I-0.289075 J0
G02 Y0.973946 I0.144537 J0.250346
G02 X2.244331 Y0.7236 I0.144537 J-0.250346
G01 X2.294331
G02 X1.785718 Y0.429952 I-0.339075 J0
G02 Y1.017247 I0.169537 J0.293647
G02 X2.294331 Y0.7236 I0.169537 J-0.293647
( MOPProfile_5 )
G00 Z-0.063
G01 F25 X2.210669
G03 X1.827549 Y0.944794 I-0.255413 J0
G03 Y0.502405 I0.127707 J-0.221194
G03 X2.210669 Y0.7236 I0.127707 J0.221194
G01 F10 Z-0.12
G03 F25 X1.827549 Y0.944794 I-0.255413 J0
G03 Y0.502405 I0.127707 J-0.221194
G03 X2.210669 Y0.7236 I0.127707 J0.221194
( MOPProfile_6 )
G00 Z0.25
G00 X1.093194 Y0.211789
G01 F10 Z-0.063
G01 F50 Y0.329899
G02 X1.102052 I0.004429 J0
G03 X1.164552 Y0.267399 I0.0625 J0
G01 X1.368007
G03 X1.430507 Y0.329899 I0 J0.0625
G02 X1.439366 I0.00443 J0
G01 Y0.211789
G03 X1.501866 Y0.149289 I0.0625 J0
G01 X1.788959
G03 X1.8484 Y0.192475 I0 J0.0625
G01 X1.875053 Y0.274504
G03 X1.955256 Y1.179801 I0.080203 J0.449095
G01 X1.715099 Y1.1798
G03 X1.652599 Y1.1173 I0 J-0.0625
G02 X1.64374 I-0.00443 J0
G01 Y1.235411
G03 X1.58124 Y1.297911 I-0.0625 J0
G01 X0.951319
G03 X0.888819 Y1.235411 I0 J-0.0625
G01 Y1.1173
G02 X0.879961 I-0.004429 J0
G03 X0.817461 Y1.1798 I-0.0625 J0
G01 X0.577303
G03 X0.657507 Y0.274504 I0 J-0.4562
G01 X0.68416 Y0.192475
G03 X0.743601 Y0.149289 I0.059441 J0.019314
G01 X1.030694
G03 X1.093194 Y0.211789 I0 J0.0625
G01 F10 Z-0.126
G01 F50 Y0.329899
G02 X1.102052 I0.004429 J0
G03 X1.164552 Y0.267399 I0.0625 J0
G01 X1.368007
G03 X1.430507 Y0.329899 I0 J0.0625
G02 X1.439366 I0.00443 J0
G01 Y0.211789
G03 X1.501866 Y0.149289 I0.0625 J0
G01 X1.532
G01 Z-0.125
G01 X1.718
G01 Z-0.126
G01 X1.788959
G03 X1.8484 Y0.192475 I0 J0.0625
G01 X1.875053 Y0.274504
G03 X1.955256 Y1.179801 I0.080203 J0.449095
G01 X1.715099 Y1.1798
G03 X1.652599 Y1.1173 I0 J-0.0625
G02 X1.64374 I-0.00443 J0
G01 Y1.235411
G03 X1.58124 Y1.297911 I-0.0625 J0
G01 X1.343
G01 Z-0.125
G01 X1.157
G01 Z-0.126
G01 X0.951319
G03 X0.888819 Y1.235411 I0 J-0.0625
G01 Y1.1173
G02 X0.879961 I-0.004429 J0
G03 X0.817461 Y1.1798 I-0.0625 J0
G01 X0.577303
G03 X0.657507 Y0.274504 I0 J-0.4562
G01 X0.68416 Y0.192475
G03 X0.743601 Y0.149289 I0.059441 J0.019314
G01 X0.782
G01 Z-0.125
G01 X0.968
G01 Z-0.126
G01 X1.030694
G03 X1.093194 Y0.211789 I0 J0.0625
G01 F10 Z-0.189
G01 F50 Y0.329899
G02 X1.102052 I0.004429 J0
G03 X1.164552 Y0.267399 I0.0625 J0
G01 X1.368007
G03 X1.430507 Y0.329899 I0 J0.0625
G02 X1.439366 I0.00443 J0
G01 Y0.211789
G03 X1.501866 Y0.149289 I0.0625 J0
G01 X1.532
G01 Z-0.125
G01 X1.718
G01 Z-0.189
G01 X1.788959
G03 X1.8484 Y0.192475 I0 J0.0625
G01 X1.875053 Y0.274504
G03 X1.955256 Y1.179801 I0.080203 J0.449095
G01 X1.715099 Y1.1798
G03 X1.652599 Y1.1173 I0 J-0.0625
G02 X1.64374 I-0.00443 J0
G01 Y1.235411
G03 X1.58124 Y1.297911 I-0.0625 J0
G01 X1.343
G01 Z-0.125
G01 X1.157
G01 Z-0.189
G01 X0.951319
G03 X0.888819 Y1.235411 I0 J-0.0625
G01 Y1.1173
G02 X0.879961 I-0.004429 J0
G03 X0.817461 Y1.1798 I-0.0625 J0
G01 X0.577303
G03 X0.657507 Y0.274504 I0 J-0.4562
G01 X0.68416 Y0.192475
G03 X0.743601 Y0.149289 I0.059441 J0.019314
G01 X0.782
G01 Z-0.125
G01 X0.968
G01 Z-0.189
G01 X1.030694
G03 X1.093194 Y0.211789 I0 J0.0625
G01 F10 Z-0.25
G01 F50 Y0.329899
G02 X1.102052 I0.004429 J0
G03 X1.164552 Y0.267399 I0.0625 J0
G01 X1.368007
G03 X1.430507 Y0.329899 I0 J0.0625
G02 X1.439366 I0.00443 J0
G01 Y0.211789
G03 X1.501866 Y0.149289 I0.0625 J0
G01 X1.532
G01 Z-0.125
G01 X1.718
G01 Z-0.25
G01 X1.788959
G03 X1.8484 Y0.192475 I0 J0.0625
G01 X1.875053 Y0.274504
G03 X1.955256 Y1.179801 I0.080203 J0.449095
G01 X1.715099 Y1.1798
G03 X1.652599 Y1.1173 I0 J-0.0625
G02 X1.64374 I-0.00443 J0
G01 Y1.235411
G03 X1.58124 Y1.297911 I-0.0625 J0
G01 X1.343
G01 Z-0.125
G01 X1.157
G01 Z-0.25
G01 X0.951319
G03 X0.888819 Y1.235411 I0 J-0.0625
G01 Y1.1173
G02 X0.879961 I-0.004429 J0
G03 X0.817461 Y1.1798 I-0.0625 J0
G01 X0.577303
G03 X0.657507 Y0.274504 I0 J-0.4562
G01 X0.68416 Y0.192475
G03 X0.743601 Y0.149289 I0.059441 J0.019314
G01 X0.782
G01 Z-0.125
G01 X0.968
G01 Z-0.25
G01 X1.030694
G03 X1.093194 Y0.211789 I0 J0.0625
( MOPPocket_7 )
G00 Z0.25
G00 X2.941924 Y0.7236
G01 F10 Z-0.06
G02 F50 X2.920811 Y0.711411 I-0.014075 J0
G02 Y0.735789 I0.007037 J0.012189
G02 X2.941924 Y0.7236 I0.007037 J-0.012189
G01 X2.966924
G02 X2.908311 Y0.68976 I-0.039075 J0
G02 Y0.75744 I0.019537 J0.03384
G02 X2.966924 Y0.7236 I0.019537 J-0.03384
G01 X3.016924
G02 X2.883311 Y0.646459 I-0.089075 J0
G02 Y0.800741 I0.044537 J0.077141
G02 X3.016924 Y0.7236 I0.044537 J-0.077141
G01 X3.066924
G02 X2.858311 Y0.603157 I-0.139075 J0
G02 Y0.844042 I0.069537 J0.120442
G02 X3.066924 Y0.7236 I0.069537 J-0.120442
G01 X3.116924
G02 X2.833311 Y0.559856 I-0.189075 J0
G02 Y0.887343 I0.094537 J0.163744
G02 X3.116924 Y0.7236 I0.094537 J-0.163744
G01 X3.166924
G02 X2.808311 Y0.516555 I-0.239075 J0
G02 Y0.930645 I0.119537 J0.207045
G02 X3.166924 Y0.7236 I0.119537 J-0.207045
G01 X3.216924
G02 X2.783311 Y0.473254 I-0.289075 J0
G02 Y0.973946 I0.144537 J0.250346
G02 X3.216924 Y0.7236 I0.144537 J-0.250346
G01 X3.266924
G02 X2.758311 Y0.429952 I-0.339075 J0
G02 Y1.017247 I0.169537 J0.293647
G02 X3.266924 Y0.7236 I0.169537 J-0.293647
G00 Z0.25
G00 X2.941924
G01 F10 Z-0.12
G02 F50 X2.920811 Y0.711411 I-0.014075 J0
G02 Y0.735789 I0.007037 J0.012189
G02 X2.941924 Y0.7236 I0.007037 J-0.012189
G01 X2.966924
G02 X2.908311 Y0.68976 I-0.039075 J0
G02 Y0.75744 I0.019537 J0.03384
G02 X2.966924 Y0.7236 I0.019537 J-0.03384
G01 X3.016924
G02 X2.883311 Y0.646459 I-0.089075 J0
G02 Y0.800741 I0.044537 J0.077141
G02 X3.016924 Y0.7236 I0.044537 J-0.077141
G01 X3.066924
G02 X2.858311 Y0.603157 I-0.139075 J0
G02 Y0.844042 I0.069537 J0.120442
G02 X3.066924 Y0.7236 I0.069537 J-0.120442
G01 X3.116924
G02 X2.833311 Y0.559856 I-0.189075 J0
G02 Y0.887343 I0.094537 J0.163744
G02 X3.116924 Y0.7236 I0.094537 J-0.163744
G01 X3.166924
G02 X2.808311 Y0.516555 I-0.239075 J0
G02 Y0.930645 I0.119537 J0.207045
G02 X3.166924 Y0.7236 I0.119537 J-0.207045
G01 X3.216924
G02 X2.783311 Y0.473254 I-0.289075 J0
G02 Y0.973946 I0.144537 J0.250346
G02 X3.216924 Y0.7236 I0.144537 J-0.250346
G01 X3.266924
G02 X2.758311 Y0.429952 I-0.339075 J0
G02 Y1.017247 I0.169537 J0.293647
G02 X3.266924 Y0.7236 I0.169537 J-0.293647
( MOPPocket_8 )
G00 Z0.25
G00 X2.937249
G01 F10 Z-0.18
G02 F35 X2.923149 Y0.715459 I-0.0094 J0
G02 Y0.73174 I0.0047 J0.008141
G02 X2.937249 Y0.7236 I0.0047 J-0.008141
G01 X2.962249
G02 X2.910649 Y0.693808 I-0.0344 J0
G02 Y0.753391 I0.0172 J0.029791
G02 X2.962249 Y0.7236 I0.0172 J-0.029791
G01 X3.012249
G02 X2.885649 Y0.650507 I-0.0844 J0
G02 Y0.796692 I0.0422 J0.073093
G02 X3.012249 Y0.7236 I0.0422 J-0.073093
G01 X3.062249
G02 X2.860649 Y0.607206 I-0.1344 J0
G02 Y0.839994 I0.0672 J0.116394
G02 X3.062249 Y0.7236 I0.0672 J-0.116394
G01 X2.937249
G01 F10 Z-0.24
G02 F35 X2.923149 Y0.715459 I-0.0094 J0
G02 Y0.73174 I0.0047 J0.008141
G02 X2.937249 Y0.7236 I0.0047 J-0.008141
G01 X2.962249
G02 X2.910649 Y0.693808 I-0.0344 J0
G02 Y0.753391 I0.0172 J0.029791
G02 X2.962249 Y0.7236 I0.0172 J-0.029791
G01 X3.012249
G02 X2.885649 Y0.650507 I-0.0844 J0
G02 Y0.796692 I0.0422 J0.073093
G02 X3.012249 Y0.7236 I0.0422 J-0.073093
G01 X3.062249
G02 X2.860649 Y0.607206 I-0.1344 J0
G02 Y0.839994 I0.0672 J0.116394
G02 X3.062249 Y0.7236 I0.0672 J-0.116394
G01 X2.937249
G01 F10 Z-0.25
G02 F35 X2.923149 Y0.715459 I-0.0094 J0
G02 Y0.73174 I0.0047 J0.008141
G02 X2.937249 Y0.7236 I0.0047 J-0.008141
G01 X2.962249
G02 X2.910649 Y0.693808 I-0.0344 J0
G02 Y0.753391 I0.0172 J0.029791
G02 X2.962249 Y0.7236 I0.0172 J-0.029791
G01 X3.012249
G02 X2.885649 Y0.650507 I-0.0844 J0
G02 Y0.796692 I0.0422 J0.073093
G02 X3.012249 Y0.7236 I0.0422 J-0.073093
G01 X3.062249
G02 X2.860649 Y0.607206 I-0.1344 J0
G02 Y0.839994 I0.0672 J0.116394
G02 X3.062249 Y0.7236 I0.0672 J-0.116394
( MOPPocket_9 )
G00 Z0.25
G00 X4.319876
G01 F10 Z-0.06
G02 F50 X4.298763 Y0.711411 I-0.014075 J0
G02 Y0.735789 I0.007037 J0.012189
G02 X4.319876 Y0.7236 I0.007037 J-0.012189
G01 X4.344876
G02 X4.286263 Y0.68976 I-0.039075 J0
G02 Y0.75744 I0.019537 J0.03384
G02 X4.344876 Y0.7236 I0.019537 J-0.03384
G01 X4.394876
G02 X4.261263 Y0.646459 I-0.089075 J0
G02 Y0.800741 I0.044537 J0.077141
G02 X4.394876 Y0.7236 I0.044537 J-0.077141
G01 X4.444876
G02 X4.236263 Y0.603157 I-0.139075 J0
G02 Y0.844042 I0.069537 J0.120442
G02 X4.444876 Y0.7236 I0.069537 J-0.120442
G01 X4.494876
G02 X4.211263 Y0.559856 I-0.189075 J0
G02 Y0.887343 I0.094537 J0.163744
G02 X4.494876 Y0.7236 I0.094537 J-0.163744
G01 X4.544876
G02 X4.186263 Y0.516555 I-0.239075 J0
G02 Y0.930645 I0.119537 J0.207045
G02 X4.544876 Y0.7236 I0.119537 J-0.207045
G01 X4.594876
G02 X4.161263 Y0.473254 I-0.289075 J0
G02 Y0.973946 I0.144537 J0.250346
G02 X4.594876 Y0.7236 I0.144537 J-0.250346
G01 X4.644876
G02 X4.136263 Y0.429952 I-0.339075 J0
G02 Y1.017247 I0.169537 J0.293647
G02 X4.644876 Y0.7236 I0.169537 J-0.293647
G00 Z0.25
G00 X4.319876
G01 F10 Z-0.12
G02 F50 X4.298763 Y0.711411 I-0.014075 J0
G02 Y0.735789 I0.007037 J0.012189
G02 X4.319876 Y0.7236 I0.007037 J-0.012189
G01 X4.344876
G02 X4.286263 Y0.68976 I-0.039075 J0
G02 Y0.75744 I0.019537 J0.03384
G02 X4.344876 Y0.7236 I0.019537 J-0.03384
G01 X4.394876
G02 X4.261263 Y0.646459 I-0.089075 J0
G02 Y0.800741 I0.044537 J0.077141
G02 X4.394876 Y0.7236 I0.044537 J-0.077141
G01 X4.444876
G02 X4.236263 Y0.603157 I-0.139075 J0
G02 Y0.844042 I0.069537 J0.120442
G02 X4.444876 Y0.7236 I0.069537 J-0.120442
G01 X4.494876
G02 X4.211263 Y0.559856 I-0.189075 J0
G02 Y0.887343 I0.094537 J0.163744
G02 X4.494876 Y0.7236 I0.094537 J-0.163744
G01 X4.544876
G02 X4.186263 Y0.516555 I-0.239075 J0
G02 Y0.930645 I0.119537 J0.207045
G02 X4.544876 Y0.7236 I0.119537 J-0.207045
G01 X4.594876
G02 X4.161263 Y0.473254 I-0.289075 J0
G02 Y0.973946 I0.144537 J0.250346
G02 X4.594876 Y0.7236 I0.144537 J-0.250346
G01 X4.644876
G02 X4.136263 Y0.429952 I-0.339075 J0
G02 Y1.017247 I0.169537 J0.293647
G02 X4.644876 Y0.7236 I0.169537 J-0.293647
( MOPPocket_10 )
G00 Z0.25
G00 X4.315201
G01 F10 Z-0.18
G02 F35 X4.301101 Y0.715459 I-0.0094 J0
G02 Y0.73174 I0.0047 J0.008141
G02 X4.315201 Y0.7236 I0.0047 J-0.008141
G01 X4.340201
G02 X4.288601 Y0.693808 I-0.0344 J0
G02 Y0.753391 I0.0172 J0.029791
G02 X4.340201 Y0.7236 I0.0172 J-0.029791
G01 X4.390201
G02 X4.263601 Y0.650507 I-0.0844 J0
G02 Y0.796692 I0.0422 J0.073093
G02 X4.390201 Y0.7236 I0.0422 J-0.073093
G01 X4.440201
G02 X4.238601 Y0.607206 I-0.1344 J0
G02 Y0.839994 I0.0672 J0.116394
G02 X4.440201 Y0.7236 I0.0672 J-0.116394
G01 X4.315201
G01 F10 Z-0.24
G02 F35 X4.301101 Y0.715459 I-0.0094 J0
G02 Y0.73174 I0.0047 J0.008141
G02 X4.315201 Y0.7236 I0.0047 J-0.008141
G01 X4.340201
G02 X4.288601 Y0.693808 I-0.0344 J0
G02 Y0.753391 I0.0172 J0.029791
G02 X4.340201 Y0.7236 I0.0172 J-0.029791
G01 X4.390201
G02 X4.263601 Y0.650507 I-0.0844 J0
G02 Y0.796692 I0.0422 J0.073093
G02 X4.390201 Y0.7236 I0.0422 J-0.073093
G01 X4.440201
G02 X4.238601 Y0.607206 I-0.1344 J0
G02 Y0.839994 I0.0672 J0.116394
G02 X4.440201 Y0.7236 I0.0672 J-0.116394
G01 X4.315201
G01 F10 Z-0.25
G02 F35 X4.301101 Y0.715459 I-0.0094 J0
G02 Y0.73174 I0.0047 J0.008141
G02 X4.315201 Y0.7236 I0.0047 J-0.008141
G01 X4.340201
G02 X4.288601 Y0.693808 I-0.0344 J0
G02 Y0.753391 I0.0172 J0.029791
G02 X4.340201 Y0.7236 I0.0172 J-0.029791
G01 X4.390201
G02 X4.263601 Y0.650507 I-0.0844 J0
G02 Y0.796692 I0.0422 J0.073093
G02 X4.390201 Y0.7236 I0.0422 J-0.073093
G01 X4.440201
G02 X4.238601 Y0.607206 I-0.1344 J0
G02 Y0.839994 I0.0672 J0.116394
G02 X4.440201 Y0.7236 I0.0672 J-0.116394
( MOPProfile_11 )
G00 Z0.25
G00 X3.443738 Y0.211789
G01 F10 Z-0.063
G01 F50 Y0.329899
G02 X3.452596 I0.004429 J0
G03 X3.515096 Y0.267399 I0.0625 J0
G01 X3.718552
G03 X3.781052 Y0.329899 I0 J0.0625
G02 X3.78991 I0.004429 J0
G01 Y0.211789
G03 X3.85241 Y0.149289 I0.0625 J0
G01 X4.139503
G03 X4.198944 Y0.192475 I0 J0.0625
G01 X4.225597 Y0.274504
G03 X4.3058 Y1.179801 I0.080203 J0.449095
G01 X4.065643 Y1.1798
G03 X4.003143 Y1.1173 I0 J-0.0625
G02 X3.994285 I-0.004429 J0
G01 Y1.235411
G03 X3.931785 Y1.297911 I-0.0625 J0
G01 X3.301863
G03 X3.239363 Y1.235411 I0 J-0.0625
G01 Y1.1173
G02 X3.230505 I-0.004429 J0
G03 X3.168005 Y1.1798 I-0.0625 J0
G01 X2.927848
G03 X3.008052 Y0.274504 I0 J-0.4562
G01 X3.034704 Y0.192475
G03 X3.094145 Y0.149289 I0.059441 J0.019313
G01 X3.381238
G03 X3.443738 Y0.211789 I0 J0.0625
G01 F10 Z-0.126
G01 F50 Y0.329899
G02 X3.452596 I0.004429 J0
G03 X3.515096 Y0.267399 I0.0625 J0
G01 X3.718552
G03 X3.781052 Y0.329899 I0 J0.0625
G02 X3.78991 I0.004429 J0
G01 Y0.211789
G03 X3.85241 Y0.149289 I0.0625 J0
G01 X3.907
G01 Z-0.125
G01 X4.093
G01 Z-0.126
G01 X4.139503
G03 X4.198944 Y0.192475 I0 J0.0625
G01 X4.225597 Y0.274504
G03 X4.3058 Y1.179801 I0.080203 J0.449095
G01 X4.065643 Y1.1798
G03 X4.003143 Y1.1173 I0 J-0.0625
G02 X3.994285 I-0.004429 J0
G01 Y1.235411
G03 X3.931785 Y1.297911 I-0.0625 J0
G01 X3.718
G01 Z-0.125
G01 X3.532
G01 Z-0.126
G01 X3.301863
G03 X3.239363 Y1.235411 I0 J-0.0625
G01 Y1.1173
G02 X3.230505 I-0.004429 J0
G03 X3.168005 Y1.1798 I-0.0625 J0
G01 X2.927848
G03 X3.008052 Y0.274504 I0 J-0.4562
G01 X3.034704 Y0.192475
G03 X3.094145 Y0.149289 I0.059441 J0.019313
G01 X3.157
G01 Z-0.125
G01 X3.343
G01 Z-0.126
G01 X3.381238
G03 X3.443738 Y0.211789 I0 J0.0625
G01 F10 Z-0.189
G01 F50 Y0.329899
G02 X3.452596 I0.004429 J0
G03 X3.515096 Y0.267399 I0.0625 J0
G01 X3.718552
G03 X3.781052 Y0.329899 I0 J0.0625
G02 X3.78991 I0.004429 J0
G01 Y0.211789
G03 X3.85241 Y0.149289 I0.0625 J0
G01 X3.907
G01 Z-0.125
G01 X4.093
G01 Z-0.189
G01 X4.139503
G03 X4.198944 Y0.192475 I0 J0.0625
G01 X4.225597 Y0.274504
G03 X4.3058 Y1.179801 I0.080203 J0.449095
G01 X4.065643 Y1.1798
G03 X4.003143 Y1.1173 I0 J-0.0625
G02 X3.994285 I-0.004429 J0
G01 Y1.235411
G03 X3.931785 Y1.297911 I-0.0625 J0
G01 X3.718
G01 Z-0.125
G01 X3.532
G01 Z-0.189
G01 X3.301863
G03 X3.239363 Y1.235411 I0 J-0.0625
G01 Y1.1173
G02 X3.230505 I-0.004429 J0
G03 X3.168005 Y1.1798 I-0.0625 J0
G01 X2.927848
G03 X3.008052 Y0.274504 I0 J-0.4562
G01 X3.034704 Y0.192475
G03 X3.094145 Y0.149289 I0.059441 J0.019313
G01 X3.157
G01 Z-0.125
G01 X3.343
G01 Z-0.189
G01 X3.381238
G03 X3.443738 Y0.211789 I0 J0.0625
G01 F10 Z-0.25
G01 F50 Y0.329899
G02 X3.452596 I0.004429 J0
G03 X3.515096 Y0.267399 I0.0625 J0
G01 X3.718552
G03 X3.781052 Y0.329899 I0 J0.0625
G02 X3.78991 I0.004429 J0
G01 Y0.211789
G03 X3.85241 Y0.149289 I0.0625 J0
G01 X3.907
G01 Z-0.125
G01 X4.093
G01 Z-0.25
G01 X4.139503
G03 X4.198944 Y0.192475 I0 J0.0625
G01 X4.225597 Y0.274504
G03 X4.3058 Y1.179801 I0.080203 J0.449095
G01 X4.065643 Y1.1798
G03 X4.003143 Y1.1173 I0 J-0.0625
G02 X3.994285 I-0.004429 J0
G01 Y1.235411
G03 X3.931785 Y1.297911 I-0.0625 J0
G01 X3.718
G01 Z-0.125
G01 X3.532
G01 Z-0.25
G01 X3.301863
G03 X3.239363 Y1.235411 I0 J-0.0625
G01 Y1.1173
G02 X3.230505 I-0.004429 J0
G03 X3.168005 Y1.1798 I-0.0625 J0
G01 X2.927848
G03 X3.008052 Y0.274504 I0 J-0.4562
G01 X3.034704 Y0.192475
G03 X3.094145 Y0.149289 I0.059441 J0.019313
G01 X3.157
G01 Z-0.125
G01 X3.343
G01 Z-0.25
G01 X3.381238
G03 X3.443738 Y0.211789 I0 J0.0625
G00 Z0.25
M05
M30
