( Made using CamBam - http://www.cambam.co.uk )
( cable chain top and bottom.dxf 8/28/2008 6:45:28 PM )
( T0 : 0.125 )
G20 G90 G64 G40
G0 Z0.1
( T0 : 0.125 )
T0 M6
( MOPProfile_1 )
G17
M3 S0
G0 X2.7871 Y1.3835
G1 F25.0 Z-0.065
G3 F80.0 X2.7246 Y1.321 I0.0 J-0.0625
G2 X2.7157 I-0.0044 J0.0
G1 Y1.5572
G3 X2.6532 Y1.6197 I-0.0625 J0.0
G1 X2.169
G3 X2.1065 Y1.5572 I0.0 J-0.0625
G1 Y1.321
G2 X2.0977 I-0.0044 J0.0
G3 X2.0352 Y1.3835 I-0.0625 J0.0
G1 X1.8819
G3 X1.8194 Y1.321 I0.0 J-0.0625
G1 Y0.4185
G3 X1.8819 Y0.356 I0.0625 J0.0
G1 X2.0352
G3 X2.0977 Y0.4185 I0.0 J0.0625
G2 X2.1065 I0.0044 J0.0
G1 Y0.1822
G3 X2.169 Y0.1197 I0.0625 J0.0
G1 X2.6532
G3 X2.7157 Y0.1822 I0.0 J0.0625
G1 Y0.4185
G2 X2.7246 I0.0044 J0.0
G3 X2.7871 Y0.356 I0.0625 J0.0
G1 X2.9403
G3 X3.0028 Y0.4185 I0.0 J0.0625
G1 Y1.321
G3 X2.9403 Y1.3835 I-0.0625 J0.0
G1 X2.7871
G1 F25.0 Z-0.13
G3 F80.0 X2.7246 Y1.321 I0.0 J-0.0625
G2 X2.7157 I-0.0044 J0.0
G1 Y1.5572
G3 X2.6532 Y1.6197 I-0.0625 J0.0
G1 X2.169
G3 X2.1065 Y1.5572 I0.0 J-0.0625
G1 Y1.321
G2 X2.0977 I-0.0044 J0.0
G3 X2.0352 Y1.3835 I-0.0625 J0.0
G1 X1.8819
G3 X1.8194 Y1.321 I0.0 J-0.0625
G1 Y0.9375
G1 Z-0.067
G1 Y0.6875
G1 F25.0 Z-0.13
G1 F80.0 Y0.4185
G3 X1.8819 Y0.356 I0.0625 J0.0
G1 X2.0352
G3 X2.0977 Y0.4185 I0.0 J0.0625
G2 X2.1065 I0.0044 J0.0
G1 Y0.1822
G3 X2.169 Y0.1197 I0.0625 J0.0
G1 X2.6532
G3 X2.7157 Y0.1822 I0.0 J0.0625
G1 Y0.4185
G2 X2.7246 I0.0044 J0.0
G3 X2.7871 Y0.356 I0.0625 J0.0
G1 X2.9403
G3 X3.0028 Y0.4185 I0.0 J0.0625
G1 Y0.6875
G1 Z-0.067
G1 Y0.9375
G1 F25.0 Z-0.13
G1 F80.0 Y1.321
G3 X2.9403 Y1.3835 I-0.0625 J0.0
G1 X2.7871
G0 Z0.1
G0 X1.595 Y1.8762
G1 F25.0 Z-0.065
G3 F80.0 X1.6575 Y1.9387 I0.0 J0.0625
G1 Y3.3137
G3 X1.595 Y3.3762 I-0.0625 J0.0
G1 X1.2312
G3 X1.1687 Y3.3137 I0.0 J-0.0625
G1 Y3.0775
G2 X1.1598 I-0.0044 J0.0
G3 X1.0973 Y3.14 I-0.0625 J0.0
G1 X0.7481
G3 X0.6856 Y3.0775 I0.0 J-0.0625
G2 X0.6768 I-0.0044 J0.0
G1 Y3.3137
G3 X0.6143 Y3.3762 I-0.0625 J0.0
G1 X0.23
G3 X0.1675 Y3.3137 I0.0 J-0.0625
G1 Y1.9387
G3 X0.23 Y1.8762 I0.0625 J0.0
G1 X0.6143
G3 X0.6768 Y1.9387 I0.0 J0.0625
G1 Y2.175
G2 X0.6856 I0.0044 J0.0
G3 X0.7481 Y2.1125 I0.0625 J0.0
G1 X1.0973
G3 X1.1598 Y2.175 I0.0 J0.0625
G2 X1.1687 I0.0044 J0.0
G1 Y1.9387
G3 X1.2312 Y1.8762 I0.0625 J0.0
G1 X1.595
G1 F25.0 Z-0.13
G3 F80.0 X1.6575 Y1.9387 I0.0 J0.0625
G1 Y2.4375
G1 Z-0.067
G1 Y2.6875
G1 F25.0 Z-0.13
G1 F80.0 Y3.3137
G3 X1.595 Y3.3762 I-0.0625 J0.0
G1 X1.2312
G3 X1.1687 Y3.3137 I0.0 J-0.0625
G1 Y3.0775
G2 X1.1598 I-0.0044 J0.0
G3 X1.0973 Y3.14 I-0.0625 J0.0
G1 X0.7481
G3 X0.6856 Y3.0775 I0.0 J-0.0625
G2 X0.6768 I-0.0044 J0.0
G1 Y3.3137
G3 X0.6143 Y3.3762 I-0.0625 J0.0
G1 X0.23
G3 X0.1675 Y3.3137 I0.0 J-0.0625
G1 Y2.6875
G1 Z-0.067
G1 Y2.4375
G1 F25.0 Z-0.13
G1 F80.0 Y1.9387
G3 X0.23 Y1.8762 I0.0625 J0.0
G1 X0.6143
G3 X0.6768 Y1.9387 I0.0 J0.0625
G1 Y2.175
G2 X0.6856 I0.0044 J0.0
G3 X0.7481 Y2.1125 I0.0625 J0.0
G1 X1.0973
G3 X1.1598 Y2.175 I0.0 J0.0625
G2 X1.1687 I0.0044 J0.0
G1 Y1.9387
G3 X1.2312 Y1.8762 I0.0625 J0.0
G1 X1.595
G0 Z0.1
G0 X2.7871 Y3.1335
G1 F25.0 Z-0.065
G3 F80.0 X2.7246 Y3.071 I0.0 J-0.0625
G2 X2.7157 I-0.0044 J0.0
G1 Y3.3072
G3 X2.6532 Y3.3697 I-0.0625 J0.0
G1 X2.169
G3 X2.1065 Y3.3072 I0.0 J-0.0625
G1 Y3.071
G2 X2.0977 I-0.0044 J0.0
G3 X2.0352 Y3.1335 I-0.0625 J0.0
G1 X1.8819
G3 X1.8194 Y3.071 I0.0 J-0.0625
G1 Y2.1685
G3 X1.8819 Y2.106 I0.0625 J0.0
G1 X2.0352
G3 X2.0977 Y2.1685 I0.0 J0.0625
G2 X2.1065 I0.0044 J0.0
G1 Y1.9322
G3 X2.169 Y1.8697 I0.0625 J0.0
G1 X2.6532
G3 X2.7157 Y1.9322 I0.0 J0.0625
G1 Y2.1685
G2 X2.7246 I0.0044 J0.0
G3 X2.7871 Y2.106 I0.0625 J0.0
G1 X2.9403
G3 X3.0028 Y2.1685 I0.0 J0.0625
G1 Y3.071
G3 X2.9403 Y3.1335 I-0.0625 J0.0
G1 X2.7871
G1 F25.0 Z-0.13
G3 F80.0 X2.7246 Y3.071 I0.0 J-0.0625
G2 X2.7157 I-0.0044 J0.0
G1 Y3.3072
G3 X2.6532 Y3.3697 I-0.0625 J0.0
G1 X2.169
G3 X2.1065 Y3.3072 I0.0 J-0.0625
G1 Y3.071
G2 X2.0977 I-0.0044 J0.0
G3 X2.0352 Y3.1335 I-0.0625 J0.0
G1 X1.8819
G3 X1.8194 Y3.071 I0.0 J-0.0625
G1 Y2.6875
G1 Z-0.067
G1 Y2.4375
G1 F25.0 Z-0.13
G1 F80.0 Y2.1685
G3 X1.8819 Y2.106 I0.0625 J0.0
G1 X2.0352
G3 X2.0977 Y2.1685 I0.0 J0.0625
G2 X2.1065 I0.0044 J0.0
G1 Y1.9322
G3 X2.169 Y1.8697 I0.0625 J0.0
G1 X2.6532
G3 X2.7157 Y1.9322 I0.0 J0.0625
G1 Y2.1685
G2 X2.7246 I0.0044 J0.0
G3 X2.7871 Y2.106 I0.0625 J0.0
G1 X2.9403
G3 X3.0028 Y2.1685 I0.0 J0.0625
G1 Y2.4375
G1 Z-0.067
G1 Y2.6875
G1 F25.0 Z-0.13
G1 F80.0 Y3.071
G3 X2.9403 Y3.1335 I-0.0625 J0.0
G1 X2.7871
G0 Z0.1
G0 X1.595 Y3.6262
G1 F25.0 Z-0.065
G3 F80.0 X1.6575 Y3.6887 I0.0 J0.0625
G1 Y5.0637
G3 X1.595 Y5.1262 I-0.0625 J0.0
G1 X1.2312
G3 X1.1687 Y5.0637 I0.0 J-0.0625
G1 Y4.8275
G2 X1.1598 I-0.0044 J0.0
G3 X1.0973 Y4.89 I-0.0625 J0.0
G1 X0.7481
G3 X0.6856 Y4.8275 I0.0 J-0.0625
G2 X0.6768 I-0.0044 J0.0
G1 Y5.0637
G3 X0.6143 Y5.1262 I-0.0625 J0.0
G1 X0.23
G3 X0.1675 Y5.0637 I0.0 J-0.0625
G1 Y3.6887
G3 X0.23 Y3.6262 I0.0625 J0.0
G1 X0.6143
G3 X0.6768 Y3.6887 I0.0 J0.0625
G1 Y3.925
G2 X0.6856 I0.0044 J0.0
G3 X0.7481 Y3.8625 I0.0625 J0.0
G1 X1.0973
G3 X1.1598 Y3.925 I0.0 J0.0625
G2 X1.1687 I0.0044 J0.0
G1 Y3.6887
G3 X1.2312 Y3.6262 I0.0625 J0.0
G1 X1.595
G1 F25.0 Z-0.13
G3 F80.0 X1.6575 Y3.6887 I0.0 J0.0625
G1 Y4.1875
G1 Z-0.067
G1 Y4.4375
G1 F25.0 Z-0.13
G1 F80.0 Y5.0637
G3 X1.595 Y5.1262 I-0.0625 J0.0
G1 X1.2312
G3 X1.1687 Y5.0637 I0.0 J-0.0625
G1 Y4.8275
G2 X1.1598 I-0.0044 J0.0
G3 X1.0973 Y4.89 I-0.0625 J0.0
G1 X0.7481
G3 X0.6856 Y4.8275 I0.0 J-0.0625
G2 X0.6768 I-0.0044 J0.0
G1 Y5.0637
G3 X0.6143 Y5.1262 I-0.0625 J0.0
G1 X0.23
G3 X0.1675 Y5.0637 I0.0 J-0.0625
G1 Y4.4375
G1 Z-0.067
G1 Y4.1875
G1 F25.0 Z-0.13
G1 F80.0 Y3.6887
G3 X0.23 Y3.6262 I0.0625 J0.0
G1 X0.6143
G3 X0.6768 Y3.6887 I0.0 J0.0625
G1 Y3.925
G2 X0.6856 I0.0044 J0.0
G3 X0.7481 Y3.8625 I0.0625 J0.0
G1 X1.0973
G3 X1.1598 Y3.925 I0.0 J0.0625
G2 X1.1687 I0.0044 J0.0
G1 Y3.6887
G3 X1.2312 Y3.6262 I0.0625 J0.0
G1 X1.595
G0 Z0.1
G0 X2.7871 Y4.8835
G1 F25.0 Z-0.065
G3 F80.0 X2.7246 Y4.821 I0.0 J-0.0625
G2 X2.7157 I-0.0044 J0.0
G1 Y5.0572
G3 X2.6532 Y5.1197 I-0.0625 J0.0
G1 X2.169
G3 X2.1065 Y5.0572 I0.0 J-0.0625
G1 Y4.821
G2 X2.0977 I-0.0044 J0.0
G3 X2.0352 Y4.8835 I-0.0625 J0.0
G1 X1.8819
G3 X1.8194 Y4.821 I0.0 J-0.0625
G1 Y3.9185
G3 X1.8819 Y3.856 I0.0625 J0.0
G1 X2.0352
G3 X2.0977 Y3.9185 I0.0 J0.0625
G2 X2.1065 I0.0044 J0.0
G1 Y3.6822
G3 X2.169 Y3.6197 I0.0625 J0.0
G1 X2.6532
G3 X2.7157 Y3.6822 I0.0 J0.0625
G1 Y3.9185
G2 X2.7246 I0.0044 J0.0
G3 X2.7871 Y3.856 I0.0625 J0.0
G1 X2.9403
G3 X3.0028 Y3.9185 I0.0 J0.0625
G1 Y4.821
G3 X2.9403 Y4.8835 I-0.0625 J0.0
G1 X2.7871
G1 F25.0 Z-0.13
G3 F80.0 X2.7246 Y4.821 I0.0 J-0.0625
G2 X2.7157 I-0.0044 J0.0
G1 Y5.0572
G3 X2.6532 Y5.1197 I-0.0625 J0.0
G1 X2.169
G3 X2.1065 Y5.0572 I0.0 J-0.0625
G1 Y4.821
G2 X2.0977 I-0.0044 J0.0
G3 X2.0352 Y4.8835 I-0.0625 J0.0
G1 X1.8819
G3 X1.8194 Y4.821 I0.0 J-0.0625
G1 Y4.4375
G1 Z-0.067
G1 Y4.1875
G1 F25.0 Z-0.13
G1 F80.0 Y3.9185
G3 X1.8819 Y3.856 I0.0625 J0.0
G1 X2.0352
G3 X2.0977 Y3.9185 I0.0 J0.0625
G2 X2.1065 I0.0044 J0.0
G1 Y3.6822
G3 X2.169 Y3.6197 I0.0625 J0.0
G1 X2.6532
G3 X2.7157 Y3.6822 I0.0 J0.0625
G1 Y3.9185
G2 X2.7246 I0.0044 J0.0
G3 X2.7871 Y3.856 I0.0625 J0.0
G1 X2.9403
G3 X3.0028 Y3.9185 I0.0 J0.0625
G1 Y4.1875
G1 Z-0.067
G1 Y4.4375
G1 F25.0 Z-0.13
G1 F80.0 Y4.821
G3 X2.9403 Y4.8835 I-0.0625 J0.0
G1 X2.7871
G0 Z0.1
G0 X4.525 Y3.6262
G1 F25.0 Z-0.065
G3 F80.0 X4.5875 Y3.6887 I0.0 J0.0625
G1 Y5.0637
G3 X4.525 Y5.1262 I-0.0625 J0.0
G1 X4.1612
G3 X4.0987 Y5.0637 I0.0 J-0.0625
G1 Y4.8275
G2 X4.0898 I-0.0044 J0.0
G3 X4.0273 Y4.89 I-0.0625 J0.0
G1 X3.6781
G3 X3.6156 Y4.8275 I0.0 J-0.0625
G2 X3.6068 I-0.0044 J0.0
G1 Y5.0637
G3 X3.5443 Y5.1262 I-0.0625 J0.0
G1 X3.16
G3 X3.0975 Y5.0637 I0.0 J-0.0625
G1 Y3.6887
G3 X3.16 Y3.6262 I0.0625 J0.0
G1 X3.5443
G3 X3.6068 Y3.6887 I0.0 J0.0625
G1 Y3.925
G2 X3.6156 I0.0044 J0.0
G3 X3.6781 Y3.8625 I0.0625 J0.0
G1 X4.0273
G3 X4.0898 Y3.925 I0.0 J0.0625
G2 X4.0987 I0.0044 J0.0
G1 Y3.6887
G3 X4.1612 Y3.6262 I0.0625 J0.0
G1 X4.525
G1 F25.0 Z-0.13
G3 F80.0 X4.5875 Y3.6887 I0.0 J0.0625
G1 Y4.1875
G1 Z-0.067
G1 Y4.4375
G1 F25.0 Z-0.13
G1 F80.0 Y5.0637
G3 X4.525 Y5.1262 I-0.0625 J0.0
G1 X4.1612
G3 X4.0987 Y5.0637 I0.0 J-0.0625
G1 Y4.8275
G2 X4.0898 I-0.0044 J0.0
G3 X4.0273 Y4.89 I-0.0625 J0.0
G1 X3.6781
G3 X3.6156 Y4.8275 I0.0 J-0.0625
G2 X3.6068 I-0.0044 J0.0
G1 Y5.0637
G3 X3.5443 Y5.1262 I-0.0625 J0.0
G1 X3.16
G3 X3.0975 Y5.0637 I0.0 J-0.0625
G1 Y4.4375
G1 Z-0.067
G1 Y4.1875
G1 F25.0 Z-0.13
G1 F80.0 Y3.6887
G3 X3.16 Y3.6262 I0.0625 J0.0
G1 X3.5443
G3 X3.6068 Y3.6887 I0.0 J0.0625
G1 Y3.925
G2 X3.6156 I0.0044 J0.0
G3 X3.6781 Y3.8625 I0.0625 J0.0
G1 X4.0273
G3 X4.0898 Y3.925 I0.0 J0.0625
G2 X4.0987 I0.0044 J0.0
G1 Y3.6887
G3 X4.1612 Y3.6262 I0.0625 J0.0
G1 X4.525
G0 Z0.1
G0 X5.7171 Y3.1335
G1 F25.0 Z-0.065
G3 F80.0 X5.6546 Y3.071 I0.0 J-0.0625
G2 X5.6457 I-0.0044 J0.0
G1 Y3.3072
G3 X5.5832 Y3.3697 I-0.0625 J0.0
G1 X5.099
G3 X5.0365 Y3.3072 I0.0 J-0.0625
G1 Y3.071
G2 X5.0277 I-0.0044 J0.0
G3 X4.9652 Y3.1335 I-0.0625 J0.0
G1 X4.8119
G3 X4.7494 Y3.071 I0.0 J-0.0625
G1 Y2.1685
G3 X4.8119 Y2.106 I0.0625 J0.0
G1 X4.9652
G3 X5.0277 Y2.1685 I0.0 J0.0625
G2 X5.0365 I0.0044 J0.0
G1 Y1.9322
G3 X5.099 Y1.8697 I0.0625 J0.0
G1 X5.5832
G3 X5.6457 Y1.9322 I0.0 J0.0625
G1 Y2.1685
G2 X5.6546 I0.0044 J0.0
G3 X5.7171 Y2.106 I0.0625 J0.0
G1 X5.8703
G3 X5.9328 Y2.1685 I0.0 J0.0625
G1 Y3.071
G3 X5.8703 Y3.1335 I-0.0625 J0.0
G1 X5.7171
G1 F25.0 Z-0.13
G3 F80.0 X5.6546 Y3.071 I0.0 J-0.0625
G2 X5.6457 I-0.0044 J0.0
G1 Y3.3072
G3 X5.5832 Y3.3697 I-0.0625 J0.0
G1 X5.099
G3 X5.0365 Y3.3072 I0.0 J-0.0625
G1 Y3.071
G2 X5.0277 I-0.0044 J0.0
G3 X4.9652 Y3.1335 I-0.0625 J0.0
G1 X4.8119
G3 X4.7494 Y3.071 I0.0 J-0.0625
G1 Y2.6875
G1 Z-0.067
G1 Y2.4375
G1 F25.0 Z-0.13
G1 F80.0 Y2.1685
G3 X4.8119 Y2.106 I0.0625 J0.0
G1 X4.9652
G3 X5.0277 Y2.1685 I0.0 J0.0625
G2 X5.0365 I0.0044 J0.0
G1 Y1.9322
G3 X5.099 Y1.8697 I0.0625 J0.0
G1 X5.5832
G3 X5.6457 Y1.9322 I0.0 J0.0625
G1 Y2.1685
G2 X5.6546 I0.0044 J0.0
G3 X5.7171 Y2.106 I0.0625 J0.0
G1 X5.8703
G3 X5.9328 Y2.1685 I0.0 J0.0625
G1 Y2.4375
G1 Z-0.067
G1 Y2.6875
G1 F25.0 Z-0.13
G1 F80.0 Y3.071
G3 X5.8703 Y3.1335 I-0.0625 J0.0
G1 X5.7171
G0 Z0.1
G0 X4.525 Y1.8762
G1 F25.0 Z-0.065
G3 F80.0 X4.5875 Y1.9387 I0.0 J0.0625
G1 Y3.3137
G3 X4.525 Y3.3762 I-0.0625 J0.0
G1 X4.1612
G3 X4.0987 Y3.3137 I0.0 J-0.0625
G1 Y3.0775
G2 X4.0898 I-0.0044 J0.0
G3 X4.0273 Y3.14 I-0.0625 J0.0
G1 X3.6781
G3 X3.6156 Y3.0775 I0.0 J-0.0625
G2 X3.6068 I-0.0044 J0.0
G1 Y3.3137
G3 X3.5443 Y3.3762 I-0.0625 J0.0
G1 X3.16
G3 X3.0975 Y3.3137 I0.0 J-0.0625
G1 Y1.9387
G3 X3.16 Y1.8762 I0.0625 J0.0
G1 X3.5443
G3 X3.6068 Y1.9387 I0.0 J0.0625
G1 Y2.175
G2 X3.6156 I0.0044 J0.0
G3 X3.6781 Y2.1125 I0.0625 J0.0
G1 X4.0273
G3 X4.0898 Y2.175 I0.0 J0.0625
G2 X4.0987 I0.0044 J0.0
G1 Y1.9387
G3 X4.1612 Y1.8762 I0.0625 J0.0
G1 X4.525
G1 F25.0 Z-0.13
G3 F80.0 X4.5875 Y1.9387 I0.0 J0.0625
G1 Y2.4375
G1 Z-0.067
G1 Y2.6875
G1 F25.0 Z-0.13
G1 F80.0 Y3.3137
G3 X4.525 Y3.3762 I-0.0625 J0.0
G1 X4.1612
G3 X4.0987 Y3.3137 I0.0 J-0.0625
G1 Y3.0775
G2 X4.0898 I-0.0044 J0.0
G3 X4.0273 Y3.14 I-0.0625 J0.0
G1 X3.6781
G3 X3.6156 Y3.0775 I0.0 J-0.0625
G2 X3.6068 I-0.0044 J0.0
G1 Y3.3137
G3 X3.5443 Y3.3762 I-0.0625 J0.0
G1 X3.16
G3 X3.0975 Y3.3137 I0.0 J-0.0625
G1 Y2.6875
G1 Z-0.067
G1 Y2.4375
G1 F25.0 Z-0.13
G1 F80.0 Y1.9387
G3 X3.16 Y1.8762 I0.0625 J0.0
G1 X3.5443
G3 X3.6068 Y1.9387 I0.0 J0.0625
G1 Y2.175
G2 X3.6156 I0.0044 J0.0
G3 X3.6781 Y2.1125 I0.0625 J0.0
G1 X4.0273
G3 X4.0898 Y2.175 I0.0 J0.0625
G2 X4.0987 I0.0044 J0.0
G1 Y1.9387
G3 X4.1612 Y1.8762 I0.0625 J0.0
G1 X4.525
G0 Z0.1
G0 X5.7171 Y1.3835
G1 F25.0 Z-0.065
G3 F80.0 X5.6546 Y1.321 I0.0 J-0.0625
G2 X5.6457 I-0.0044 J0.0
G1 Y1.5572
G3 X5.5832 Y1.6197 I-0.0625 J0.0
G1 X5.099
G3 X5.0365 Y1.5572 I0.0 J-0.0625
G1 Y1.321
G2 X5.0277 I-0.0044 J0.0
G3 X4.9652 Y1.3835 I-0.0625 J0.0
G1 X4.8119
G3 X4.7494 Y1.321 I0.0 J-0.0625
G1 Y0.4185
G3 X4.8119 Y0.356 I0.0625 J0.0
G1 X4.9652
G3 X5.0277 Y0.4185 I0.0 J0.0625
G2 X5.0365 I0.0044 J0.0
G1 Y0.1822
G3 X5.099 Y0.1197 I0.0625 J0.0
G1 X5.5832
G3 X5.6457 Y0.1822 I0.0 J0.0625
G1 Y0.4185
G2 X5.6546 I0.0044 J0.0
G3 X5.7171 Y0.356 I0.0625 J0.0
G1 X5.8703
G3 X5.9328 Y0.4185 I0.0 J0.0625
G1 Y1.321
G3 X5.8703 Y1.3835 I-0.0625 J0.0
G1 X5.7171
G1 F25.0 Z-0.13
G3 F80.0 X5.6546 Y1.321 I0.0 J-0.0625
G2 X5.6457 I-0.0044 J0.0
G1 Y1.5572
G3 X5.5832 Y1.6197 I-0.0625 J0.0
G1 X5.099
G3 X5.0365 Y1.5572 I0.0 J-0.0625
G1 Y1.321
G2 X5.0277 I-0.0044 J0.0
G3 X4.9652 Y1.3835 I-0.0625 J0.0
G1 X4.8119
G3 X4.7494 Y1.321 I0.0 J-0.0625
G1 Y0.9375
G1 Z-0.067
G1 Y0.6875
G1 F25.0 Z-0.13
G1 F80.0 Y0.4185
G3 X4.8119 Y0.356 I0.0625 J0.0
G1 X4.9652
G3 X5.0277 Y0.4185 I0.0 J0.0625
G2 X5.0365 I0.0044 J0.0
G1 Y0.1822
G3 X5.099 Y0.1197 I0.0625 J0.0
G1 X5.5832
G3 X5.6457 Y0.1822 I0.0 J0.0625
G1 Y0.4185
G2 X5.6546 I0.0044 J0.0
G3 X5.7171 Y0.356 I0.0625 J0.0
G1 X5.8703
G3 X5.9328 Y0.4185 I0.0 J0.0625
G1 Y0.6875
G1 Z-0.067
G1 Y0.9375
G1 F25.0 Z-0.13
G1 F80.0 Y1.321
G3 X5.8703 Y1.3835 I-0.0625 J0.0
G1 X5.7171
G0 Z0.1
G0 X4.525 Y0.1262
G1 F25.0 Z-0.065
G3 F80.0 X4.5875 Y0.1887 I0.0 J0.0625
G1 Y1.5637
G3 X4.525 Y1.6262 I-0.0625 J0.0
G1 X4.1612
G3 X4.0987 Y1.5637 I0.0 J-0.0625
G1 Y1.3275
G2 X4.0898 I-0.0044 J0.0
G3 X4.0273 Y1.39 I-0.0625 J0.0
G1 X3.6781
G3 X3.6156 Y1.3275 I0.0 J-0.0625
G2 X3.6068 I-0.0044 J0.0
G1 Y1.5637
G3 X3.5443 Y1.6262 I-0.0625 J0.0
G1 X3.16
G3 X3.0975 Y1.5637 I0.0 J-0.0625
G1 Y0.1887
G3 X3.16 Y0.1262 I0.0625 J0.0
G1 X3.5443
G3 X3.6068 Y0.1887 I0.0 J0.0625
G1 Y0.425
G2 X3.6156 I0.0044 J0.0
G3 X3.6781 Y0.3625 I0.0625 J0.0
G1 X4.0273
G3 X4.0898 Y0.425 I0.0 J0.0625
G2 X4.0987 I0.0044 J0.0
G1 Y0.1887
G3 X4.1612 Y0.1262 I0.0625 J0.0
G1 X4.525
G1 F25.0 Z-0.13
G3 F80.0 X4.5875 Y0.1887 I0.0 J0.0625
G1 Y0.6875
G1 Z-0.067
G1 Y0.9375
G1 F25.0 Z-0.13
G1 F80.0 Y1.5637
G3 X4.525 Y1.6262 I-0.0625 J0.0
G1 X4.1612
G3 X4.0987 Y1.5637 I0.0 J-0.0625
G1 Y1.3275
G2 X4.0898 I-0.0044 J0.0
G3 X4.0273 Y1.39 I-0.0625 J0.0
G1 X3.6781
G3 X3.6156 Y1.3275 I0.0 J-0.0625
G2 X3.6068 I-0.0044 J0.0
G1 Y1.5637
G3 X3.5443 Y1.6262 I-0.0625 J0.0
G1 X3.16
G3 X3.0975 Y1.5637 I0.0 J-0.0625
G1 Y0.9375
G1 Z-0.067
G1 Y0.6875
G1 F25.0 Z-0.13
G1 F80.0 Y0.1887
G3 X3.16 Y0.1262 I0.0625 J0.0
G1 X3.5443
G3 X3.6068 Y0.1887 I0.0 J0.0625
G1 Y0.425
G2 X3.6156 I0.0044 J0.0
G3 X3.6781 Y0.3625 I0.0625 J0.0
G1 X4.0273
G3 X4.0898 Y0.425 I0.0 J0.0625
G2 X4.0987 I0.0044 J0.0
G1 Y0.1887
G3 X4.1612 Y0.1262 I0.0625 J0.0
G1 X4.525
G0 Z0.1
G0 X7.455
G1 F25.0 Z-0.065
G3 F80.0 X7.5175 Y0.1887 I0.0 J0.0625
G1 Y1.5637
G3 X7.455 Y1.6262 I-0.0625 J0.0
G1 X7.0912
G3 X7.0287 Y1.5637 I0.0 J-0.0625
G1 Y1.3275
G2 X7.0198 I-0.0044 J0.0
G3 X6.9573 Y1.39 I-0.0625 J0.0
G1 X6.6081
G3 X6.5456 Y1.3275 I0.0 J-0.0625
G2 X6.5368 I-0.0044 J0.0
G1 Y1.5637
G3 X6.4743 Y1.6262 I-0.0625 J0.0
G1 X6.09
G3 X6.0275 Y1.5637 I0.0 J-0.0625
G1 Y0.1887
G3 X6.09 Y0.1262 I0.0625 J0.0
G1 X6.4743
G3 X6.5368 Y0.1887 I0.0 J0.0625
G1 Y0.425
G2 X6.5456 I0.0044 J0.0
G3 X6.6081 Y0.3625 I0.0625 J0.0
G1 X6.9573
G3 X7.0198 Y0.425 I0.0 J0.0625
G2 X7.0287 I0.0044 J0.0
G1 Y0.1887
G3 X7.0912 Y0.1262 I0.0625 J0.0
G1 X7.455
G1 F25.0 Z-0.13
G3 F80.0 X7.5175 Y0.1887 I0.0 J0.0625
G1 Y0.6875
G1 Z-0.067
G1 Y0.9375
G1 F25.0 Z-0.13
G1 F80.0 Y1.5637
G3 X7.455 Y1.6262 I-0.0625 J0.0
G1 X7.0912
G3 X7.0287 Y1.5637 I0.0 J-0.0625
G1 Y1.3275
G2 X7.0198 I-0.0044 J0.0
G3 X6.9573 Y1.39 I-0.0625 J0.0
G1 X6.6081
G3 X6.5456 Y1.3275 I0.0 J-0.0625
G2 X6.5368 I-0.0044 J0.0
G1 Y1.5637
G3 X6.4743 Y1.6262 I-0.0625 J0.0
G1 X6.09
G3 X6.0275 Y1.5637 I0.0 J-0.0625
G1 Y0.9375
G1 Z-0.067
G1 Y0.6875
G1 F25.0 Z-0.13
G1 F80.0 Y0.1887
G3 X6.09 Y0.1262 I0.0625 J0.0
G1 X6.4743
G3 X6.5368 Y0.1887 I0.0 J0.0625
G1 Y0.425
G2 X6.5456 I0.0044 J0.0
G3 X6.6081 Y0.3625 I0.0625 J0.0
G1 X6.9573
G3 X7.0198 Y0.425 I0.0 J0.0625
G2 X7.0287 I0.0044 J0.0
G1 Y0.1887
G3 X7.0912 Y0.1262 I0.0625 J0.0
G1 X7.455
G0 Z0.1
G0 X8.6471 Y1.3835
G1 F25.0 Z-0.065
G3 F80.0 X8.5846 Y1.321 I0.0 J-0.0625
G2 X8.5757 I-0.0044 J0.0
G1 Y1.5572
G3 X8.5132 Y1.6197 I-0.0625 J0.0
G1 X8.029
G3 X7.9665 Y1.5572 I0.0 J-0.0625
G1 Y1.321
G2 X7.9577 I-0.0044 J0.0
G3 X7.8952 Y1.3835 I-0.0625 J0.0
G1 X7.7419
G3 X7.6794 Y1.321 I0.0 J-0.0625
G1 Y0.4185
G3 X7.7419 Y0.356 I0.0625 J0.0
G1 X7.8952
G3 X7.9577 Y0.4185 I0.0 J0.0625
G2 X7.9665 I0.0044 J0.0
G1 Y0.1822
G3 X8.029 Y0.1197 I0.0625 J0.0
G1 X8.5132
G3 X8.5757 Y0.1822 I0.0 J0.0625
G1 Y0.4185
G2 X8.5846 I0.0044 J0.0
G3 X8.6471 Y0.356 I0.0625 J0.0
G1 X8.8003
G3 X8.8628 Y0.4185 I0.0 J0.0625
G1 Y1.321
G3 X8.8003 Y1.3835 I-0.0625 J0.0
G1 X8.6471
G1 F25.0 Z-0.13
G3 F80.0 X8.5846 Y1.321 I0.0 J-0.0625
G2 X8.5757 I-0.0044 J0.0
G1 Y1.5572
G3 X8.5132 Y1.6197 I-0.0625 J0.0
G1 X8.029
G3 X7.9665 Y1.5572 I0.0 J-0.0625
G1 Y1.321
G2 X7.9577 I-0.0044 J0.0
G3 X7.8952 Y1.3835 I-0.0625 J0.0
G1 X7.7419
G3 X7.6794 Y1.321 I0.0 J-0.0625
G1 Y0.9375
G1 Z-0.067
G1 Y0.6875
G1 F25.0 Z-0.13
G1 F80.0 Y0.4185
G3 X7.7419 Y0.356 I0.0625 J0.0
G1 X7.8952
G3 X7.9577 Y0.4185 I0.0 J0.0625
G2 X7.9665 I0.0044 J0.0
G1 Y0.1822
G3 X8.029 Y0.1197 I0.0625 J0.0
G1 X8.5132
G3 X8.5757 Y0.1822 I0.0 J0.0625
G1 Y0.4185
G2 X8.5846 I0.0044 J0.0
G3 X8.6471 Y0.356 I0.0625 J0.0
G1 X8.8003
G3 X8.8628 Y0.4185 I0.0 J0.0625
G1 Y0.6875
G1 Z-0.067
G1 Y0.9375
G1 F25.0 Z-0.13
G1 F80.0 Y1.321
G3 X8.8003 Y1.3835 I-0.0625 J0.0
G1 X8.6471
G0 Z0.1
G0 X7.455 Y1.8762
G1 F25.0 Z-0.065
G3 F80.0 X7.5175 Y1.9387 I0.0 J0.0625
G1 Y3.3137
G3 X7.455 Y3.3762 I-0.0625 J0.0
G1 X7.0912
G3 X7.0287 Y3.3137 I0.0 J-0.0625
G1 Y3.0775
G2 X7.0198 I-0.0044 J0.0
G3 X6.9573 Y3.14 I-0.0625 J0.0
G1 X6.6081
G3 X6.5456 Y3.0775 I0.0 J-0.0625
G2 X6.5368 I-0.0044 J0.0
G1 Y3.3137
G3 X6.4743 Y3.3762 I-0.0625 J0.0
G1 X6.09
G3 X6.0275 Y3.3137 I0.0 J-0.0625
G1 Y1.9387
G3 X6.09 Y1.8762 I0.0625 J0.0
G1 X6.4743
G3 X6.5368 Y1.9387 I0.0 J0.0625
G1 Y2.175
G2 X6.5456 I0.0044 J0.0
G3 X6.6081 Y2.1125 I0.0625 J0.0
G1 X6.9573
G3 X7.0198 Y2.175 I0.0 J0.0625
G2 X7.0287 I0.0044 J0.0
G1 Y1.9387
G3 X7.0912 Y1.8762 I0.0625 J0.0
G1 X7.455
G1 F25.0 Z-0.13
G3 F80.0 X7.5175 Y1.9387 I0.0 J0.0625
G1 Y2.5
G1 Z-0.067
G1 Y2.75
G1 F25.0 Z-0.13
G1 F80.0 Y3.3137
G3 X7.455 Y3.3762 I-0.0625 J0.0
G1 X7.0912
G3 X7.0287 Y3.3137 I0.0 J-0.0625
G1 Y3.0775
G2 X7.0198 I-0.0044 J0.0
G3 X6.9573 Y3.14 I-0.0625 J0.0
G1 X6.6081
G3 X6.5456 Y3.0775 I0.0 J-0.0625
G2 X6.5368 I-0.0044 J0.0
G1 Y3.3137
G3 X6.4743 Y3.3762 I-0.0625 J0.0
G1 X6.09
G3 X6.0275 Y3.3137 I0.0 J-0.0625
G1 Y2.6875
G1 Z-0.067
G1 Y2.4375
G1 F25.0 Z-0.13
G1 F80.0 Y1.9387
G3 X6.09 Y1.8762 I0.0625 J0.0
G1 X6.4743
G3 X6.5368 Y1.9387 I0.0 J0.0625
G1 Y2.175
G2 X6.5456 I0.0044 J0.0
G3 X6.6081 Y2.1125 I0.0625 J0.0
G1 X6.9573
G3 X7.0198 Y2.175 I0.0 J0.0625
G2 X7.0287 I0.0044 J0.0
G1 Y1.9387
G3 X7.0912 Y1.8762 I0.0625 J0.0
G1 X7.455
G0 Z0.1
G0 X8.6471 Y3.1335
G1 F25.0 Z-0.065
G3 F80.0 X8.5846 Y3.071 I0.0 J-0.0625
G2 X8.5757 I-0.0044 J0.0
G1 Y3.3072
G3 X8.5132 Y3.3697 I-0.0625 J0.0
G1 X8.029
G3 X7.9665 Y3.3072 I0.0 J-0.0625
G1 Y3.071
G2 X7.9577 I-0.0044 J0.0
G3 X7.8952 Y3.1335 I-0.0625 J0.0
G1 X7.7419
G3 X7.6794 Y3.071 I0.0 J-0.0625
G1 Y2.1685
G3 X7.7419 Y2.106 I0.0625 J0.0
G1 X7.8952
G3 X7.9577 Y2.1685 I0.0 J0.0625
G2 X7.9665 I0.0044 J0.0
G1 Y1.9322
G3 X8.029 Y1.8697 I0.0625 J0.0
G1 X8.5132
G3 X8.5757 Y1.9322 I0.0 J0.0625
G1 Y2.1685
G2 X8.5846 I0.0044 J0.0
G3 X8.6471 Y2.106 I0.0625 J0.0
G1 X8.8003
G3 X8.8628 Y2.1685 I0.0 J0.0625
G1 Y3.071
G3 X8.8003 Y3.1335 I-0.0625 J0.0
G1 X8.6471
G1 F25.0 Z-0.13
G3 F80.0 X8.5846 Y3.071 I0.0 J-0.0625
G2 X8.5757 I-0.0044 J0.0
G1 Y3.3072
G3 X8.5132 Y3.3697 I-0.0625 J0.0
G1 X8.029
G3 X7.9665 Y3.3072 I0.0 J-0.0625
G1 Y3.071
G2 X7.9577 I-0.0044 J0.0
G3 X7.8952 Y3.1335 I-0.0625 J0.0
G1 X7.7419
G3 X7.6794 Y3.071 I0.0 J-0.0625
G1 Y2.75
G1 Z-0.067
G1 Y2.5
G1 F25.0 Z-0.13
G1 F80.0 Y2.1685
G3 X7.7419 Y2.106 I0.0625 J0.0
G1 X7.8952
G3 X7.9577 Y2.1685 I0.0 J0.0625
G2 X7.9665 I0.0044 J0.0
G1 Y1.9322
G3 X8.029 Y1.8697 I0.0625 J0.0
G1 X8.5132
G3 X8.5757 Y1.9322 I0.0 J0.0625
G1 Y2.1685
G2 X8.5846 I0.0044 J0.0
G3 X8.6471 Y2.106 I0.0625 J0.0
G1 X8.8003
G3 X8.8628 Y2.1685 I0.0 J0.0625
G1 Y2.5
G1 Z-0.067
G1 Y2.75
G1 F25.0 Z-0.13
G1 F80.0 Y3.071
G3 X8.8003 Y3.1335 I-0.0625 J0.0
G1 X8.6471
G0 Z0.1
G0 X7.455 Y3.6262
G1 F25.0 Z-0.065
G3 F80.0 X7.5175 Y3.6887 I0.0 J0.0625
G1 Y5.0637
G3 X7.455 Y5.1262 I-0.0625 J0.0
G1 X7.0912
G3 X7.0287 Y5.0637 I0.0 J-0.0625
G1 Y4.8275
G2 X7.0198 I-0.0044 J0.0
G3 X6.9573 Y4.89 I-0.0625 J0.0
G1 X6.6081
G3 X6.5456 Y4.8275 I0.0 J-0.0625
G2 X6.5368 I-0.0044 J0.0
G1 Y5.0637
G3 X6.4743 Y5.1262 I-0.0625 J0.0
G1 X6.09
G3 X6.0275 Y5.0637 I0.0 J-0.0625
G1 Y3.6887
G3 X6.09 Y3.6262 I0.0625 J0.0
G1 X6.4743
G3 X6.5368 Y3.6887 I0.0 J0.0625
G1 Y3.925
G2 X6.5456 I0.0044 J0.0
G3 X6.6081 Y3.8625 I0.0625 J0.0
G1 X6.9573
G3 X7.0198 Y3.925 I0.0 J0.0625
G2 X7.0287 I0.0044 J0.0
G1 Y3.6887
G3 X7.0912 Y3.6262 I0.0625 J0.0
G1 X7.455
G1 F25.0 Z-0.13
G3 F80.0 X7.5175 Y3.6887 I0.0 J0.0625
G1 Y4.25
G1 Z-0.067
G1 Y4.5
G1 F25.0 Z-0.13
G1 F80.0 Y5.0637
G3 X7.455 Y5.1262 I-0.0625 J0.0
G1 X7.0912
G3 X7.0287 Y5.0637 I0.0 J-0.0625
G1 Y4.8275
G2 X7.0198 I-0.0044 J0.0
G3 X6.9573 Y4.89 I-0.0625 J0.0
G1 X6.6081
G3 X6.5456 Y4.8275 I0.0 J-0.0625
G2 X6.5368 I-0.0044 J0.0
G1 Y5.0637
G3 X6.4743 Y5.1262 I-0.0625 J0.0
G1 X6.09
G3 X6.0275 Y5.0637 I0.0 J-0.0625
G1 Y4.4375
G1 Z-0.067
G1 Y4.1875
G1 F25.0 Z-0.13
G1 F80.0 Y3.6887
G3 X6.09 Y3.6262 I0.0625 J0.0
G1 X6.4743
G3 X6.5368 Y3.6887 I0.0 J0.0625
G1 Y3.925
G2 X6.5456 I0.0044 J0.0
G3 X6.6081 Y3.8625 I0.0625 J0.0
G1 X6.9573
G3 X7.0198 Y3.925 I0.0 J0.0625
G2 X7.0287 I0.0044 J0.0
G1 Y3.6887
G3 X7.0912 Y3.6262 I0.0625 J0.0
G1 X7.455
G0 Z0.1
G0 X8.6471 Y4.8835
G1 F25.0 Z-0.065
G3 F80.0 X8.5846 Y4.821 I0.0 J-0.0625
G2 X8.5757 I-0.0044 J0.0
G1 Y5.0572
G3 X8.5132 Y5.1197 I-0.0625 J0.0
G1 X8.029
G3 X7.9665 Y5.0572 I0.0 J-0.0625
G1 Y4.821
G2 X7.9577 I-0.0044 J0.0
G3 X7.8952 Y4.8835 I-0.0625 J0.0
G1 X7.7419
G3 X7.6794 Y4.821 I0.0 J-0.0625
G1 Y3.9185
G3 X7.7419 Y3.856 I0.0625 J0.0
G1 X7.8952
G3 X7.9577 Y3.9185 I0.0 J0.0625
G2 X7.9665 I0.0044 J0.0
G1 Y3.6822
G3 X8.029 Y3.6197 I0.0625 J0.0
G1 X8.5132
G3 X8.5757 Y3.6822 I0.0 J0.0625
G1 Y3.9185
G2 X8.5846 I0.0044 J0.0
G3 X8.6471 Y3.856 I0.0625 J0.0
G1 X8.8003
G3 X8.8628 Y3.9185 I0.0 J0.0625
G1 Y4.821
G3 X8.8003 Y4.8835 I-0.0625 J0.0
G1 X8.6471
G1 F25.0 Z-0.13
G3 F80.0 X8.5846 Y4.821 I0.0 J-0.0625
G2 X8.5757 I-0.0044 J0.0
G1 Y5.0572
G3 X8.5132 Y5.1197 I-0.0625 J0.0
G1 X8.029
G3 X7.9665 Y5.0572 I0.0 J-0.0625
G1 Y4.821
G2 X7.9577 I-0.0044 J0.0
G3 X7.8952 Y4.8835 I-0.0625 J0.0
G1 X7.7419
G3 X7.6794 Y4.821 I0.0 J-0.0625
G1 Y4.5
G1 Z-0.067
G1 Y4.25
G1 F25.0 Z-0.13
G1 F80.0 Y3.9185
G3 X7.7419 Y3.856 I0.0625 J0.0
G1 X7.8952
G3 X7.9577 Y3.9185 I0.0 J0.0625
G2 X7.9665 I0.0044 J0.0
G1 Y3.6822
G3 X8.029 Y3.6197 I0.0625 J0.0
G1 X8.5132
G3 X8.5757 Y3.6822 I0.0 J0.0625
G1 Y3.9185
G2 X8.5846 I0.0044 J0.0
G3 X8.6471 Y3.856 I0.0625 J0.0
G1 X8.8003
G3 X8.8628 Y3.9185 I0.0 J0.0625
G1 Y4.25
G1 Z-0.067
G1 Y4.5
G1 F25.0 Z-0.13
G1 F80.0 Y4.821
G3 X8.8003 Y4.8835 I-0.0625 J0.0
G1 X8.6471
G0 Z0.1
G0 X5.7171
G1 F25.0 Z-0.065
G3 F80.0 X5.6546 Y4.821 I0.0 J-0.0625
G2 X5.6457 I-0.0044 J0.0
G1 Y5.0572
G3 X5.5832 Y5.1197 I-0.0625 J0.0
G1 X5.099
G3 X5.0365 Y5.0572 I0.0 J-0.0625
G1 Y4.821
G2 X5.0277 I-0.0044 J0.0
G3 X4.9652 Y4.8835 I-0.0625 J0.0
G1 X4.8119
G3 X4.7494 Y4.821 I0.0 J-0.0625
G1 Y3.9185
G3 X4.8119 Y3.856 I0.0625 J0.0
G1 X4.9652
G3 X5.0277 Y3.9185 I0.0 J0.0625
G2 X5.0365 I0.0044 J0.0
G1 Y3.6822
G3 X5.099 Y3.6197 I0.0625 J0.0
G1 X5.5832
G3 X5.6457 Y3.6822 I0.0 J0.0625
G1 Y3.9185
G2 X5.6546 I0.0044 J0.0
G3 X5.7171 Y3.856 I0.0625 J0.0
G1 X5.8703
G3 X5.9328 Y3.9185 I0.0 J0.0625
G1 Y4.821
G3 X5.8703 Y4.8835 I-0.0625 J0.0
G1 X5.7171
G1 F25.0 Z-0.13
G3 F80.0 X5.6546 Y4.821 I0.0 J-0.0625
G2 X5.6457 I-0.0044 J0.0
G1 Y5.0572
G3 X5.5832 Y5.1197 I-0.0625 J0.0
G1 X5.099
G3 X5.0365 Y5.0572 I0.0 J-0.0625
G1 Y4.821
G2 X5.0277 I-0.0044 J0.0
G3 X4.9652 Y4.8835 I-0.0625 J0.0
G1 X4.8119
G3 X4.7494 Y4.821 I0.0 J-0.0625
G1 Y4.4375
G1 Z-0.067
G1 Y4.1875
G1 F25.0 Z-0.13
G1 F80.0 Y3.9185
G3 X4.8119 Y3.856 I0.0625 J0.0
G1 X4.9652
G3 X5.0277 Y3.9185 I0.0 J0.0625
G2 X5.0365 I0.0044 J0.0
G1 Y3.6822
G3 X5.099 Y3.6197 I0.0625 J0.0
G1 X5.5832
G3 X5.6457 Y3.6822 I0.0 J0.0625
G1 Y3.9185
G2 X5.6546 I0.0044 J0.0
G3 X5.7171 Y3.856 I0.0625 J0.0
G1 X5.8703
G3 X5.9328 Y3.9185 I0.0 J0.0625
G1 Y4.1875
G1 Z-0.067
G1 Y4.4375
G1 F25.0 Z-0.13
G1 F80.0 Y4.821
G3 X5.8703 Y4.8835 I-0.0625 J0.0
G1 X5.7171
G0 Z0.1
G0 X1.595 Y0.1262
G1 F25.0 Z-0.065
G3 F80.0 X1.6575 Y0.1887 I0.0 J0.0625
G1 Y1.5637
G3 X1.595 Y1.6262 I-0.0625 J0.0
G1 X1.2312
G3 X1.1687 Y1.5637 I0.0 J-0.0625
G1 Y1.3275
G2 X1.1598 I-0.0044 J0.0
G3 X1.0973 Y1.39 I-0.0625 J0.0
G1 X0.7481
G3 X0.6856 Y1.3275 I0.0 J-0.0625
G2 X0.6768 I-0.0044 J0.0
G1 Y1.5637
G3 X0.6143 Y1.6262 I-0.0625 J0.0
G1 X0.23
G3 X0.1675 Y1.5637 I0.0 J-0.0625
G1 Y0.1887
G3 X0.23 Y0.1262 I0.0625 J0.0
G1 X0.6143
G3 X0.6768 Y0.1887 I0.0 J0.0625
G1 Y0.425
G2 X0.6856 I0.0044 J0.0
G3 X0.7481 Y0.3625 I0.0625 J0.0
G1 X1.0973
G3 X1.1598 Y0.425 I0.0 J0.0625
G2 X1.1687 I0.0044 J0.0
G1 Y0.1887
G3 X1.2312 Y0.1262 I0.0625 J0.0
G1 X1.595
G1 F25.0 Z-0.13
G3 F80.0 X1.6575 Y0.1887 I0.0 J0.0625
G1 Y0.6875
G1 Z-0.067
G1 Y0.9375
G1 F25.0 Z-0.13
G1 F80.0 Y1.5637
G3 X1.595 Y1.6262 I-0.0625 J0.0
G1 X1.2312
G3 X1.1687 Y1.5637 I0.0 J-0.0625
G1 Y1.3275
G2 X1.1598 I-0.0044 J0.0
G3 X1.0973 Y1.39 I-0.0625 J0.0
G1 X0.7481
G3 X0.6856 Y1.3275 I0.0 J-0.0625
G2 X0.6768 I-0.0044 J0.0
G1 Y1.5637
G3 X0.6143 Y1.6262 I-0.0625 J0.0
G1 X0.23
G3 X0.1675 Y1.5637 I0.0 J-0.0625
G1 Y0.9375
G1 Z-0.067
G1 Y0.6875
G1 F25.0 Z-0.13
G1 F80.0 Y0.1887
G3 X0.23 Y0.1262 I0.0625 J0.0
G1 X0.6143
G3 X0.6768 Y0.1887 I0.0 J0.0625
G1 Y0.425
G2 X0.6856 I0.0044 J0.0
G3 X0.7481 Y0.3625 I0.0625 J0.0
G1 X1.0973
G3 X1.1598 Y0.425 I0.0 J0.0625
G2 X1.1687 I0.0044 J0.0
G1 Y0.1887
G3 X1.2312 Y0.1262 I0.0625 J0.0
G1 X1.595
G0 Z0.1
M5
M30
