( Made using CamBam - http://www.cambam.co.uk )
( cable chain2.dxf 8/24/2008 3:40:38 PM )
( T0 : 0.125 )
G20 G90 G64 G40
G0 Z0.25
( T0 : 0.125 )
T0 M6
( MOPPocket_1 )
G17
M3 S0
G0 X0.4328 Y0.9739
G1 F10.0 Z-0.063
G2 F80.0 X0.8664 Y0.7236 I0.1445 J-0.2503
G2 X0.4328 Y0.4733 I-0.2891 J0.0
G2 Y0.9739 I0.1445 J0.2503
G1 X0.4078 Y1.0172
G2 X0.9164 Y0.7236 I0.1695 J-0.2936
G2 X0.4078 Y0.43 I-0.3391 J0.0
G2 Y1.0172 I0.1695 J0.2936
G1 X0.4328 Y0.9739
G1 F10.0 Z-0.12
G2 F80.0 X0.8664 Y0.7236 I0.1445 J-0.2503
G2 X0.4328 Y0.4733 I-0.2891 J0.0
G2 Y0.9739 I0.1445 J0.2503
G1 X0.4078 Y1.0172
G2 X0.9164 Y0.7236 I0.1695 J-0.2936
G2 X0.4078 Y0.43 I-0.3391 J0.0
G2 Y1.0172 I0.1695 J0.2936
( MOPProfile_2 )
S0
G0 Z0.25
G0 X0.4496 Y0.5024
G1 F10.0 Z-0.12
G3 F80.0 X0.8327 Y0.7236 I0.1277 J0.2212
G3 X0.4496 Y0.9448 I-0.2554 J0.0
G3 Y0.5024 I0.1277 J-0.2212
( MOPProfile_3 )
S0
G0 Z0.25
G0 X1.0932 Y0.2118
G1 F10.0 Z-0.063
G1 F80.0 Y0.3299
G2 X1.1021 I0.0044 J0.0
G3 X1.1646 Y0.2674 I0.0625 J0.0
G1 X1.368
G3 X1.4305 Y0.3299 I0.0 J0.0625
G2 X1.4394 I0.0044 J0.0
G1 Y0.2118
G3 X1.5019 Y0.1493 I0.0625 J0.0
G1 X1.526
G1 Z-0.062
G1 X1.776
G1 F10.0 Z-0.063
G1 F80.0 X1.789
G3 X1.8484 Y0.1925 I0.0 J0.0625
G1 X1.8855 Y0.3067
G1 X3.2262 Y1.0623
G3 X3.1956 Y1.1793 I-0.0307 J0.0544
G1 X1.7151 Y1.1798
G3 X1.6526 Y1.1173 I0.0 J-0.0625
G2 X1.6437 I-0.0044 J0.0
G1 Y1.2354
G3 X1.5812 Y1.2979 I-0.0625 J0.0
G1 X1.3333
G1 Z-0.062
G1 X1.0833
G1 F10.0 Z-0.063
G1 F80.0 X0.9513
G3 X0.8888 Y1.2354 I0.0 J-0.0625
G1 Y1.1173
G2 X0.88 I-0.0044 J0.0
G3 X0.8175 Y1.1798 I-0.0625 J0.0
G1 X0.5773
G3 X0.6575 Y0.2745 I0.0 J-0.4562
G1 X0.6842 Y0.1925
G3 X0.7436 Y0.1493 I0.0594 J0.0193
G1 X1.0307
G3 X1.0932 Y0.2118 I0.0 J0.0625
G1 F10.0 Z-0.126
G1 F80.0 Y0.3299
G2 X1.1021 I0.0044 J0.0
G3 X1.1646 Y0.2674 I0.0625 J0.0
G1 X1.368
G3 X1.4305 Y0.3299 I0.0 J0.0625
G2 X1.4394 I0.0044 J0.0
G1 Y0.2118
G3 X1.5019 Y0.1493 I0.0625 J0.0
G1 X1.526
G1 Z-0.062
G1 X1.776
G1 F10.0 Z-0.126
G1 F80.0 X1.789
G3 X1.8484 Y0.1925 I0.0 J0.0625
G1 X1.8855 Y0.3067
G1 X3.2262 Y1.0623
G3 X3.1956 Y1.1793 I-0.0307 J0.0544
G1 X1.7151 Y1.1798
G3 X1.6526 Y1.1173 I0.0 J-0.0625
G2 X1.6437 I-0.0044 J0.0
G1 Y1.2354
G3 X1.5812 Y1.2979 I-0.0625 J0.0
G1 X1.3333
G1 Z-0.062
G1 X1.0833
G1 F10.0 Z-0.126
G1 F80.0 X0.9513
G3 X0.8888 Y1.2354 I0.0 J-0.0625
G1 Y1.1173
G2 X0.88 I-0.0044 J0.0
G3 X0.8175 Y1.1798 I-0.0625 J0.0
G1 X0.5773
G3 X0.6575 Y0.2745 I0.0 J-0.4562
G1 X0.6842 Y0.1925
G3 X0.7436 Y0.1493 I0.0594 J0.0193
G1 X1.0307
G3 X1.0932 Y0.2118 I0.0 J0.0625
G1 F10.0 Z-0.189
G1 F80.0 Y0.3299
G2 X1.1021 I0.0044 J0.0
G3 X1.1646 Y0.2674 I0.0625 J0.0
G1 X1.368
G3 X1.4305 Y0.3299 I0.0 J0.0625
G2 X1.4394 I0.0044 J0.0
G1 Y0.2118
G3 X1.5019 Y0.1493 I0.0625 J0.0
G1 X1.526
G1 Z-0.062
G1 X1.776
G1 F10.0 Z-0.189
G1 F80.0 X1.789
G3 X1.8484 Y0.1925 I0.0 J0.0625
G1 X1.8855 Y0.3067
G1 X3.2262 Y1.0623
G3 X3.1956 Y1.1793 I-0.0307 J0.0544
G1 X1.7151 Y1.1798
G3 X1.6526 Y1.1173 I0.0 J-0.0625
G2 X1.6437 I-0.0044 J0.0
G1 Y1.2354
G3 X1.5812 Y1.2979 I-0.0625 J0.0
G1 X1.3333
G1 Z-0.062
G1 X1.0833
G1 F10.0 Z-0.189
G1 F80.0 X0.9513
G3 X0.8888 Y1.2354 I0.0 J-0.0625
G1 Y1.1173
G2 X0.88 I-0.0044 J0.0
G3 X0.8175 Y1.1798 I-0.0625 J0.0
G1 X0.5773
G3 X0.6575 Y0.2745 I0.0 J-0.4562
G1 X0.6842 Y0.1925
G3 X0.7436 Y0.1493 I0.0594 J0.0193
G1 X1.0307
G3 X1.0932 Y0.2118 I0.0 J0.0625
G1 F10.0 Z-0.25
G1 F80.0 Y0.3299
G2 X1.1021 I0.0044 J0.0
G3 X1.1646 Y0.2674 I0.0625 J0.0
G1 X1.368
G3 X1.4305 Y0.3299 I0.0 J0.0625
G2 X1.4394 I0.0044 J0.0
G1 Y0.2118
G3 X1.5019 Y0.1493 I0.0625 J0.0
G1 X1.526
G1 Z-0.062
G1 X1.776
G1 F10.0 Z-0.25
G1 F80.0 X1.789
G3 X1.8484 Y0.1925 I0.0 J0.0625
G1 X1.8855 Y0.3067
G1 X3.2262 Y1.0623
G3 X3.1956 Y1.1793 I-0.0307 J0.0544
G1 X1.7151 Y1.1798
G3 X1.6526 Y1.1173 I0.0 J-0.0625
G2 X1.6437 I-0.0044 J0.0
G1 Y1.2354
G3 X1.5812 Y1.2979 I-0.0625 J0.0
G1 X1.3333
G1 Z-0.062
G1 X1.0833
G1 F10.0 Z-0.25
G1 F80.0 X0.9513
G3 X0.8888 Y1.2354 I0.0 J-0.0625
G1 Y1.1173
G2 X0.88 I-0.0044 J0.0
G3 X0.8175 Y1.1798 I-0.0625 J0.0
G1 X0.5773
G3 X0.6575 Y0.2745 I0.0 J-0.4562
G1 X0.6842 Y0.1925
G3 X0.7436 Y0.1493 I0.0594 J0.0193
G1 X1.0307
G3 X1.0932 Y0.2118 I0.0 J0.0625
( MOPPocket_4 )
S0
G0 Z0.25
G0 X0.4152 Y2.4927
G1 F10.0 Z-0.063
G2 F80.0 X0.8488 Y2.2423 I0.1445 J-0.2503
G2 X0.4152 Y1.992 I-0.2891 J0.0
G2 Y2.4927 I0.1445 J0.2503
G1 X0.3902 Y2.536
G2 X0.8988 Y2.2423 I0.1695 J-0.2936
G2 X0.3902 Y1.9487 I-0.3391 J0.0
G2 Y2.536 I0.1695 J0.2936
G1 X0.4152 Y2.4927
G1 F10.0 Z-0.12
G2 F80.0 X0.8488 Y2.2423 I0.1445 J-0.2503
G2 X0.4152 Y1.992 I-0.2891 J0.0
G2 Y2.4927 I0.1445 J0.2503
G1 X0.3902 Y2.536
G2 X0.8988 Y2.2423 I0.1695 J-0.2936
G2 X0.3902 Y1.9487 I-0.3391 J0.0
G2 Y2.536 I0.1695 J0.2936
( MOPProfile_5 )
S0
G0 Z0.25
G0 X0.432 Y2.0211
G1 F10.0 Z-0.12
G3 F80.0 X0.8151 Y2.2423 I0.1277 J0.2212
G3 X0.432 Y2.4635 I-0.2554 J0.0
G3 Y2.0211 I0.1277 J-0.2212
( MOPProfile_6 )
S0
G0 Z0.25
G0 X1.0844 Y2.636
G1 F10.0 Z-0.063
G2 F80.0 X1.0756 I-0.0044 J0.0
G1 Y2.7541
G3 X1.0131 Y2.8166 I-0.0625 J0.0
G1 X0.726
G3 X0.6665 Y2.7735 I0.0 J-0.0625
G1 X0.6399 Y2.6914
G3 X0.5597 Y1.7861 I-0.0802 J-0.4491
G1 X0.7998
G3 X0.8623 Y1.8486 I0.0 J0.0625
G2 X0.8712 I0.0044 J0.0
G1 Y1.7305
G3 X0.9337 Y1.668 I0.0625 J0.0
G1 X1.0822
G1 Z-0.062
G1 X1.3322
G1 F10.0 Z-0.063
G1 F80.0 X1.5636
G3 X1.6261 Y1.7305 I0.0 J0.0625
G1 Y1.8486
G2 X1.635 I0.0044 J0.0
G3 X1.6975 Y1.7861 I0.0625 J0.0
G1 X3.1779 Y1.7867
G3 X3.2086 Y1.9036 I0.0 J0.0625
G1 X1.8679 Y2.6593
G1 X1.8308 Y2.7735
G3 X1.7713 Y2.8166 I-0.0594 J-0.0193
G1 X1.7557
G1 Z-0.062
G1 X1.5057
G1 F10.0 Z-0.063
G1 F80.0 X1.4843
G3 X1.4218 Y2.7541 I0.0 J-0.0625
G1 Y2.636
G2 X1.4129 I-0.0044 J0.0
G3 X1.3504 Y2.6985 I-0.0625 J0.0
G1 X1.1469
G3 X1.0844 Y2.636 I0.0 J-0.0625
G1 F10.0 Z-0.126
G2 F80.0 X1.0756 I-0.0044 J0.0
G1 Y2.7541
G3 X1.0131 Y2.8166 I-0.0625 J0.0
G1 X0.726
G3 X0.6665 Y2.7735 I0.0 J-0.0625
G1 X0.6399 Y2.6914
G3 X0.5597 Y1.7861 I-0.0802 J-0.4491
G1 X0.7998
G3 X0.8623 Y1.8486 I0.0 J0.0625
G2 X0.8712 I0.0044 J0.0
G1 Y1.7305
G3 X0.9337 Y1.668 I0.0625 J0.0
G1 X1.0822
G1 Z-0.062
G1 X1.3322
G1 F10.0 Z-0.126
G1 F80.0 X1.5636
G3 X1.6261 Y1.7305 I0.0 J0.0625
G1 Y1.8486
G2 X1.635 I0.0044 J0.0
G3 X1.6975 Y1.7861 I0.0625 J0.0
G1 X3.1779 Y1.7867
G3 X3.2086 Y1.9036 I0.0 J0.0625
G1 X1.8679 Y2.6593
G1 X1.8308 Y2.7735
G3 X1.7713 Y2.8166 I-0.0594 J-0.0193
G1 X1.7557
G1 Z-0.062
G1 X1.5057
G1 F10.0 Z-0.126
G1 F80.0 X1.4843
G3 X1.4218 Y2.7541 I0.0 J-0.0625
G1 Y2.636
G2 X1.4129 I-0.0044 J0.0
G3 X1.3504 Y2.6985 I-0.0625 J0.0
G1 X1.1469
G3 X1.0844 Y2.636 I0.0 J-0.0625
G1 F10.0 Z-0.189
G2 F80.0 X1.0756 I-0.0044 J0.0
G1 Y2.7541
G3 X1.0131 Y2.8166 I-0.0625 J0.0
G1 X0.726
G3 X0.6665 Y2.7735 I0.0 J-0.0625
G1 X0.6399 Y2.6914
G3 X0.5597 Y1.7861 I-0.0802 J-0.4491
G1 X0.7998
G3 X0.8623 Y1.8486 I0.0 J0.0625
G2 X0.8712 I0.0044 J0.0
G1 Y1.7305
G3 X0.9337 Y1.668 I0.0625 J0.0
G1 X1.0822
G1 Z-0.062
G1 X1.3322
G1 F10.0 Z-0.189
G1 F80.0 X1.5636
G3 X1.6261 Y1.7305 I0.0 J0.0625
G1 Y1.8486
G2 X1.635 I0.0044 J0.0
G3 X1.6975 Y1.7861 I0.0625 J0.0
G1 X3.1779 Y1.7867
G3 X3.2086 Y1.9036 I0.0 J0.0625
G1 X1.8679 Y2.6593
G1 X1.8308 Y2.7735
G3 X1.7713 Y2.8166 I-0.0594 J-0.0193
G1 X1.7557
G1 Z-0.062
G1 X1.5057
G1 F10.0 Z-0.189
G1 F80.0 X1.4843
G3 X1.4218 Y2.7541 I0.0 J-0.0625
G1 Y2.636
G2 X1.4129 I-0.0044 J0.0
G3 X1.3504 Y2.6985 I-0.0625 J0.0
G1 X1.1469
G3 X1.0844 Y2.636 I0.0 J-0.0625
G1 F10.0 Z-0.25
G2 F80.0 X1.0756 I-0.0044 J0.0
G1 Y2.7541
G3 X1.0131 Y2.8166 I-0.0625 J0.0
G1 X0.726
G3 X0.6665 Y2.7735 I0.0 J-0.0625
G1 X0.6399 Y2.6914
G3 X0.5597 Y1.7861 I-0.0802 J-0.4491
G1 X0.7998
G3 X0.8623 Y1.8486 I0.0 J0.0625
G2 X0.8712 I0.0044 J0.0
G1 Y1.7305
G3 X0.9337 Y1.668 I0.0625 J0.0
G1 X1.0822
G1 Z-0.062
G1 X1.3322
G1 F10.0 Z-0.25
G1 F80.0 X1.5636
G3 X1.6261 Y1.7305 I0.0 J0.0625
G1 Y1.8486
G2 X1.635 I0.0044 J0.0
G3 X1.6975 Y1.7861 I0.0625 J0.0
G1 X3.1779 Y1.7867
G3 X3.2086 Y1.9036 I0.0 J0.0625
G1 X1.8679 Y2.6593
G1 X1.8308 Y2.7735
G3 X1.7713 Y2.8166 I-0.0594 J-0.0193
G1 X1.7557
G1 Z-0.062
G1 X1.5057
G1 F10.0 Z-0.25
G1 F80.0 X1.4843
G3 X1.4218 Y2.7541 I0.0 J-0.0625
G1 Y2.636
G2 X1.4129 I-0.0044 J0.0
G3 X1.3504 Y2.6985 I-0.0625 J0.0
G1 X1.1469
G3 X1.0844 Y2.636 I0.0 J-0.0625
( MOPPocket_7 )
S0
G0 Z0.25
G0 X3.8053 Y0.9493
G1 F10.0 Z-0.063
G2 F80.0 X4.2389 Y0.6989 I0.1445 J-0.2503
G2 X3.8053 Y0.4486 I-0.2891 J0.0
G2 Y0.9493 I0.1445 J0.2503
G1 X3.7803 Y0.9926
G2 X4.2889 Y0.6989 I0.1695 J-0.2936
G2 X3.7803 Y0.4053 I-0.3391 J0.0
G2 Y0.9926 I0.1695 J0.2936
G1 X3.8053 Y0.9493
G1 F10.0 Z-0.12
G2 F80.0 X4.2389 Y0.6989 I0.1445 J-0.2503
G2 X3.8053 Y0.4486 I-0.2891 J0.0
G2 Y0.9493 I0.1445 J0.2503
G1 X3.7803 Y0.9926
G2 X4.2889 Y0.6989 I0.1695 J-0.2936
G2 X3.7803 Y0.4053 I-0.3391 J0.0
G2 Y0.9926 I0.1695 J0.2936
( MOPProfile_8 )
S0
G0 Z0.25
G0 X3.8222 Y0.4777
G1 F10.0 Z-0.12
G3 F80.0 X4.2053 Y0.6989 I0.1277 J0.2212
G3 X3.8222 Y0.9201 I-0.2554 J0.0
G3 Y0.4777 I0.1277 J-0.2212
( MOPProfile_9 )
S0
G0 Z0.25
G0 X4.4746 Y1.0926
G1 F10.0 Z-0.063
G2 F80.0 X4.4658 I-0.0044 J0.0
G1 Y1.2107
G3 X4.4033 Y1.2732 I-0.0625 J0.0
G1 X4.1162
G3 X4.0567 Y1.23 I0.0 J-0.0625
G1 X4.0301 Y1.148
G3 X3.9499 Y0.2427 I-0.0802 J-0.4491
G1 X4.19
G3 X4.2525 Y0.3052 I0.0 J0.0625
G2 X4.2614 I0.0044 J0.0
G1 Y0.1871
G3 X4.3239 Y0.1246 I0.0625 J0.0
G1 X4.5107
G1 Z-0.062
G1 X4.7607
G1 F10.0 Z-0.063
G1 F80.0 X4.9538
G3 X5.0163 Y0.1871 I0.0 J0.0625
G1 Y0.3052
G2 X5.0252 I0.0044 J0.0
G3 X5.0877 Y0.2427 I0.0625 J0.0
G1 X5.3278
G3 X5.3636 Y0.254 I0.0 J0.0625
G1 X6.6584 Y1.1595
G3 X6.6226 Y1.2732 I-0.0358 J0.0512
G1 X5.6915
G1 Z-0.062
G1 X5.4415
G1 F10.0 Z-0.063
G1 F80.0 X4.8744
G3 X4.8119 Y1.2107 I0.0 J-0.0625
G1 Y1.0926
G2 X4.8031 I-0.0044 J0.0
G3 X4.7406 Y1.1551 I-0.0625 J0.0
G1 X4.5371
G3 X4.4746 Y1.0926 I0.0 J-0.0625
G1 F10.0 Z-0.126
G2 F80.0 X4.4658 I-0.0044 J0.0
G1 Y1.2107
G3 X4.4033 Y1.2732 I-0.0625 J0.0
G1 X4.1162
G3 X4.0567 Y1.23 I0.0 J-0.0625
G1 X4.0301 Y1.148
G3 X3.9499 Y0.2427 I-0.0802 J-0.4491
G1 X4.19
G3 X4.2525 Y0.3052 I0.0 J0.0625
G2 X4.2614 I0.0044 J0.0
G1 Y0.1871
G3 X4.3239 Y0.1246 I0.0625 J0.0
G1 X4.5107
G1 Z-0.062
G1 X4.7607
G1 F10.0 Z-0.126
G1 F80.0 X4.9538
G3 X5.0163 Y0.1871 I0.0 J0.0625
G1 Y0.3052
G2 X5.0252 I0.0044 J0.0
G3 X5.0877 Y0.2427 I0.0625 J0.0
G1 X5.3278
G3 X5.3636 Y0.254 I0.0 J0.0625
G1 X6.6584 Y1.1595
G3 X6.6226 Y1.2732 I-0.0358 J0.0512
G1 X5.6915
G1 Z-0.062
G1 X5.4415
G1 F10.0 Z-0.126
G1 F80.0 X4.8744
G3 X4.8119 Y1.2107 I0.0 J-0.0625
G1 Y1.0926
G2 X4.8031 I-0.0044 J0.0
G3 X4.7406 Y1.1551 I-0.0625 J0.0
G1 X4.5371
G3 X4.4746 Y1.0926 I0.0 J-0.0625
G1 F10.0 Z-0.189
G2 F80.0 X4.4658 I-0.0044 J0.0
G1 Y1.2107
G3 X4.4033 Y1.2732 I-0.0625 J0.0
G1 X4.1162
G3 X4.0567 Y1.23 I0.0 J-0.0625
G1 X4.0301 Y1.148
G3 X3.9499 Y0.2427 I-0.0802 J-0.4491
G1 X4.19
G3 X4.2525 Y0.3052 I0.0 J0.0625
G2 X4.2614 I0.0044 J0.0
G1 Y0.1871
G3 X4.3239 Y0.1246 I0.0625 J0.0
G1 X4.5107
G1 Z-0.062
G1 X4.7607
G1 F10.0 Z-0.189
G1 F80.0 X4.9538
G3 X5.0163 Y0.1871 I0.0 J0.0625
G1 Y0.3052
G2 X5.0252 I0.0044 J0.0
G3 X5.0877 Y0.2427 I0.0625 J0.0
G1 X5.3278
G3 X5.3636 Y0.254 I0.0 J0.0625
G1 X6.6584 Y1.1595
G3 X6.6226 Y1.2732 I-0.0358 J0.0512
G1 X5.6915
G1 Z-0.062
G1 X5.4415
G1 F10.0 Z-0.189
G1 F80.0 X4.8744
G3 X4.8119 Y1.2107 I0.0 J-0.0625
G1 Y1.0926
G2 X4.8031 I-0.0044 J0.0
G3 X4.7406 Y1.1551 I-0.0625 J0.0
G1 X4.5371
G3 X4.4746 Y1.0926 I0.0 J-0.0625
G1 F10.0 Z-0.25
G2 F80.0 X4.4658 I-0.0044 J0.0
G1 Y1.2107
G3 X4.4033 Y1.2732 I-0.0625 J0.0
G1 X4.1162
G3 X4.0567 Y1.23 I0.0 J-0.0625
G1 X4.0301 Y1.148
G3 X3.9499 Y0.2427 I-0.0802 J-0.4491
G1 X4.19
G3 X4.2525 Y0.3052 I0.0 J0.0625
G2 X4.2614 I0.0044 J0.0
G1 Y0.1871
G3 X4.3239 Y0.1246 I0.0625 J0.0
G1 X4.5107
G1 Z-0.062
G1 X4.7607
G1 F10.0 Z-0.25
G1 F80.0 X4.9538
G3 X5.0163 Y0.1871 I0.0 J0.0625
G1 Y0.3052
G2 X5.0252 I0.0044 J0.0
G3 X5.0877 Y0.2427 I0.0625 J0.0
G1 X5.3278
G3 X5.3636 Y0.254 I0.0 J0.0625
G1 X6.6584 Y1.1595
G3 X6.6226 Y1.2732 I-0.0358 J0.0512
G1 X5.6915
G1 Z-0.062
G1 X5.4415
G1 F10.0 Z-0.25
G1 F80.0 X4.8744
G3 X4.8119 Y1.2107 I0.0 J-0.0625
G1 Y1.0926
G2 X4.8031 I-0.0044 J0.0
G3 X4.7406 Y1.1551 I-0.0625 J0.0
G1 X4.5371
G3 X4.4746 Y1.0926 I0.0 J-0.0625
( MOPPocket_10 )
S0
G0 Z0.25
G0 X3.7735 Y2.5794
G1 F10.0 Z-0.063
G2 F80.0 X4.2071 Y2.329 I0.1445 J-0.2503
G2 X3.7735 Y2.0787 I-0.2891 J0.0
G2 Y2.5794 I0.1445 J0.2503
G1 X3.7485 Y2.6227
G2 X4.2571 Y2.329 I0.1695 J-0.2936
G2 X3.7485 Y2.0354 I-0.3391 J0.0
G2 Y2.6227 I0.1695 J0.2936
G1 X3.7735 Y2.5794
G1 F10.0 Z-0.12
G2 F80.0 X4.2071 Y2.329 I0.1445 J-0.2503
G2 X3.7735 Y2.0787 I-0.2891 J0.0
G2 Y2.5794 I0.1445 J0.2503
G1 X3.7485 Y2.6227
G2 X4.2571 Y2.329 I0.1695 J-0.2936
G2 X3.7485 Y2.0354 I-0.3391 J0.0
G2 Y2.6227 I0.1695 J0.2936
( MOPProfile_11 )
S0
G0 Z0.25
G0 X3.7903 Y2.1078
G1 F10.0 Z-0.12
G3 F80.0 X4.1734 Y2.329 I0.1277 J0.2212
G3 X3.7903 Y2.5502 I-0.2554 J0.0
G3 Y2.1078 I0.1277 J-0.2212
( MOPProfile_12 )
S0
G0 Z0.25
G0 X4.4339 Y1.8172
G1 F10.0 Z-0.063
G1 F80.0 Y1.9353
G2 X4.4428 I0.0044 J0.0
G3 X4.5053 Y1.8728 I0.0625 J0.0
G1 X4.7087
G3 X4.7712 Y1.9353 I0.0 J0.0625
G2 X4.7801 I0.0044 J0.0
G1 Y1.8172
G3 X4.8426 Y1.7547 I0.0625 J0.0
G1 X5.3402
G1 Z-0.062
G1 X5.5902
G1 F10.0 Z-0.063
G1 F80.0 X6.5907
G3 X6.6265 Y1.8684 I0.0 J0.0625
G1 X5.3318 Y2.7739
G3 X5.296 Y2.7852 I-0.0358 J-0.0512
G1 X5.0558
G3 X4.9933 Y2.7227 I0.0 J-0.0625
G2 X4.9845 I-0.0044 J0.0
G1 Y2.8408
G3 X4.922 Y2.9033 I-0.0625 J0.0
G1 X4.7103
G1 Z-0.062
G1 X4.4603
G1 F10.0 Z-0.063
G1 F80.0 X4.292
G3 X4.2295 Y2.8408 I0.0 J-0.0625
G1 Y2.7227
G2 X4.2207 I-0.0044 J0.0
G3 X4.1582 Y2.7852 I-0.0625 J0.0
G1 X3.918
G3 X3.9982 Y1.8799 I0.0 J-0.4562
G1 X4.0249 Y1.7979
G3 X4.0843 Y1.7547 I0.0594 J0.0193
G1 X4.3714
G3 X4.4339 Y1.8172 I0.0 J0.0625
G1 F10.0 Z-0.126
G1 F80.0 Y1.9353
G2 X4.4428 I0.0044 J0.0
G3 X4.5053 Y1.8728 I0.0625 J0.0
G1 X4.7087
G3 X4.7712 Y1.9353 I0.0 J0.0625
G2 X4.7801 I0.0044 J0.0
G1 Y1.8172
G3 X4.8426 Y1.7547 I0.0625 J0.0
G1 X5.3402
G1 Z-0.062
G1 X5.5902
G1 F10.0 Z-0.126
G1 F80.0 X6.5907
G3 X6.6265 Y1.8684 I0.0 J0.0625
G1 X5.3318 Y2.7739
G3 X5.296 Y2.7852 I-0.0358 J-0.0512
G1 X5.0558
G3 X4.9933 Y2.7227 I0.0 J-0.0625
G2 X4.9845 I-0.0044 J0.0
G1 Y2.8408
G3 X4.922 Y2.9033 I-0.0625 J0.0
G1 X4.7103
G1 Z-0.062
G1 X4.4603
G1 F10.0 Z-0.126
G1 F80.0 X4.292
G3 X4.2295 Y2.8408 I0.0 J-0.0625
G1 Y2.7227
G2 X4.2207 I-0.0044 J0.0
G3 X4.1582 Y2.7852 I-0.0625 J0.0
G1 X3.918
G3 X3.9982 Y1.8799 I0.0 J-0.4562
G1 X4.0249 Y1.7979
G3 X4.0843 Y1.7547 I0.0594 J0.0193
G1 X4.3714
G3 X4.4339 Y1.8172 I0.0 J0.0625
G1 F10.0 Z-0.189
G1 F80.0 Y1.9353
G2 X4.4428 I0.0044 J0.0
G3 X4.5053 Y1.8728 I0.0625 J0.0
G1 X4.7087
G3 X4.7712 Y1.9353 I0.0 J0.0625
G2 X4.7801 I0.0044 J0.0
G1 Y1.8172
G3 X4.8426 Y1.7547 I0.0625 J0.0
G1 X5.3402
G1 Z-0.062
G1 X5.5902
G1 F10.0 Z-0.189
G1 F80.0 X6.5907
G3 X6.6265 Y1.8684 I0.0 J0.0625
G1 X5.3318 Y2.7739
G3 X5.296 Y2.7852 I-0.0358 J-0.0512
G1 X5.0558
G3 X4.9933 Y2.7227 I0.0 J-0.0625
G2 X4.9845 I-0.0044 J0.0
G1 Y2.8408
G3 X4.922 Y2.9033 I-0.0625 J0.0
G1 X4.7103
G1 Z-0.062
G1 X4.4603
G1 F10.0 Z-0.189
G1 F80.0 X4.292
G3 X4.2295 Y2.8408 I0.0 J-0.0625
G1 Y2.7227
G2 X4.2207 I-0.0044 J0.0
G3 X4.1582 Y2.7852 I-0.0625 J0.0
G1 X3.918
G3 X3.9982 Y1.8799 I0.0 J-0.4562
G1 X4.0249 Y1.7979
G3 X4.0843 Y1.7547 I0.0594 J0.0193
G1 X4.3714
G3 X4.4339 Y1.8172 I0.0 J0.0625
G1 F10.0 Z-0.25
G1 F80.0 Y1.9353
G2 X4.4428 I0.0044 J0.0
G3 X4.5053 Y1.8728 I0.0625 J0.0
G1 X4.7087
G3 X4.7712 Y1.9353 I0.0 J0.0625
G2 X4.7801 I0.0044 J0.0
G1 Y1.8172
G3 X4.8426 Y1.7547 I0.0625 J0.0
G1 X5.3402
G1 Z-0.062
G1 X5.5902
G1 F10.0 Z-0.25
G1 F80.0 X6.5907
G3 X6.6265 Y1.8684 I0.0 J0.0625
G1 X5.3318 Y2.7739
G3 X5.296 Y2.7852 I-0.0358 J-0.0512
G1 X5.0558
G3 X4.9933 Y2.7227 I0.0 J-0.0625
G2 X4.9845 I-0.0044 J0.0
G1 Y2.8408
G3 X4.922 Y2.9033 I-0.0625 J0.0
G1 X4.7103
G1 Z-0.062
G1 X4.4603
G1 F10.0 Z-0.25
G1 F80.0 X4.292
G3 X4.2295 Y2.8408 I0.0 J-0.0625
G1 Y2.7227
G2 X4.2207 I-0.0044 J0.0
G3 X4.1582 Y2.7852 I-0.0625 J0.0
G1 X3.918
G3 X3.9982 Y1.8799 I0.0 J-0.4562
G1 X4.0249 Y1.7979
G3 X4.0843 Y1.7547 I0.0594 J0.0193
G1 X4.3714
G3 X4.4339 Y1.8172 I0.0 J0.0625
G0 Z0.25
M5
M30
