( Made using CamBam - http://www.cambam.co.uk )
( cable chain2.dxf 8/24/2008 3:36:41 PM )
( T0 : 0.125 )
G20 G90 G64 G40
G0 Z0.25
( T0 : 0.125 )
T0 M6
( MOPProfile_1 )
G17
M3 S0
G0 X1.3726 Y1.178
G1 F10.0 Z-0.063
G2 F80.0 Y1.1869 I0.0 J0.0044
G1 X1.6088
G3 X1.6713 Y1.2494 I0.0 J0.0625
G1 Y2.8637
G3 X1.6088 Y2.9262 I-0.0625 J0.0
G1 X1.0365
G1 Z-0.062
G1 X0.7865
G1 F10.0 Z-0.063
G1 F80.0 X0.2338
G3 X0.1713 Y2.8637 I0.0 J-0.0625
G1 Y1.2494
G3 X0.2338 Y1.1869 I0.0625 J0.0
G1 X0.4701
G2 Y1.178 I0.0 J-0.0044
G3 X0.4076 Y1.1155 I0.0 J-0.0625
G1 Y0.7663
G3 X0.4701 Y0.7038 I0.0625 J0.0
G2 Y0.695 I0.0 J-0.0044
G1 X0.2338
G3 X0.1713 Y0.6325 I0.0 J-0.0625
G1 Y0.2483
G3 X0.2338 Y0.1858 I0.0625 J0.0
G1 X0.7865
G1 Z-0.062
G1 X1.0365
G1 F10.0 Z-0.063
G1 F80.0 X1.6088
G3 X1.6713 Y0.2483 I0.0 J0.0625
G1 Y0.6325
G3 X1.6088 Y0.695 I-0.0625 J0.0
G1 X1.3726
G2 Y0.7038 I0.0 J0.0044
G3 X1.4351 Y0.7663 I0.0 J0.0625
G1 Y1.1155
G3 X1.3726 Y1.178 I-0.0625 J0.0
G1 F10.0 Z-0.126
G2 F80.0 Y1.1869 I0.0 J0.0044
G1 X1.6088
G3 X1.6713 Y1.2494 I0.0 J0.0625
G1 Y2.8637
G3 X1.6088 Y2.9262 I-0.0625 J0.0
G1 X1.0365
G1 Z-0.062
G1 X0.7865
G1 F10.0 Z-0.126
G1 F80.0 X0.2338
G3 X0.1713 Y2.8637 I0.0 J-0.0625
G1 Y1.2494
G3 X0.2338 Y1.1869 I0.0625 J0.0
G1 X0.4701
G2 Y1.178 I0.0 J-0.0044
G3 X0.4076 Y1.1155 I0.0 J-0.0625
G1 Y0.7663
G3 X0.4701 Y0.7038 I0.0625 J0.0
G2 Y0.695 I0.0 J-0.0044
G1 X0.2338
G3 X0.1713 Y0.6325 I0.0 J-0.0625
G1 Y0.2483
G3 X0.2338 Y0.1858 I0.0625 J0.0
G1 X0.7865
G1 Z-0.062
G1 X1.0365
G1 F10.0 Z-0.126
G1 F80.0 X1.6088
G3 X1.6713 Y0.2483 I0.0 J0.0625
G1 Y0.6325
G3 X1.6088 Y0.695 I-0.0625 J0.0
G1 X1.3726
G2 Y0.7038 I0.0 J0.0044
G3 X1.4351 Y0.7663 I0.0 J0.0625
G1 Y1.1155
G3 X1.3726 Y1.178 I-0.0625 J0.0
G1 F10.0 Z-0.189
G2 F80.0 Y1.1869 I0.0 J0.0044
G1 X1.6088
G3 X1.6713 Y1.2494 I0.0 J0.0625
G1 Y2.8637
G3 X1.6088 Y2.9262 I-0.0625 J0.0
G1 X1.0365
G1 Z-0.062
G1 X0.7865
G1 F10.0 Z-0.189
G1 F80.0 X0.2338
G3 X0.1713 Y2.8637 I0.0 J-0.0625
G1 Y1.2494
G3 X0.2338 Y1.1869 I0.0625 J0.0
G1 X0.4701
G2 Y1.178 I0.0 J-0.0044
G3 X0.4076 Y1.1155 I0.0 J-0.0625
G1 Y0.7663
G3 X0.4701 Y0.7038 I0.0625 J0.0
G2 Y0.695 I0.0 J-0.0044
G1 X0.2338
G3 X0.1713 Y0.6325 I0.0 J-0.0625
G1 Y0.2483
G3 X0.2338 Y0.1858 I0.0625 J0.0
G1 X0.7865
G1 Z-0.062
G1 X1.0365
G1 F10.0 Z-0.189
G1 F80.0 X1.6088
G3 X1.6713 Y0.2483 I0.0 J0.0625
G1 Y0.6325
G3 X1.6088 Y0.695 I-0.0625 J0.0
G1 X1.3726
G2 Y0.7038 I0.0 J0.0044
G3 X1.4351 Y0.7663 I0.0 J0.0625
G1 Y1.1155
G3 X1.3726 Y1.178 I-0.0625 J0.0
G1 F10.0 Z-0.25
G2 F80.0 Y1.1869 I0.0 J0.0044
G1 X1.6088
G3 X1.6713 Y1.2494 I0.0 J0.0625
G1 Y2.8637
G3 X1.6088 Y2.9262 I-0.0625 J0.0
G1 X1.0365
G1 Z-0.062
G1 X0.7865
G1 F10.0 Z-0.25
G1 F80.0 X0.2338
G3 X0.1713 Y2.8637 I0.0 J-0.0625
G1 Y1.2494
G3 X0.2338 Y1.1869 I0.0625 J0.0
G1 X0.4701
G2 Y1.178 I0.0 J-0.0044
G3 X0.4076 Y1.1155 I0.0 J-0.0625
G1 Y0.7663
G3 X0.4701 Y0.7038 I0.0625 J0.0
G2 Y0.695 I0.0 J-0.0044
G1 X0.2338
G3 X0.1713 Y0.6325 I0.0 J-0.0625
G1 Y0.2483
G3 X0.2338 Y0.1858 I0.0625 J0.0
G1 X0.7865
G1 Z-0.062
G1 X1.0365
G1 F10.0 Z-0.25
G1 F80.0 X1.6088
G3 X1.6713 Y0.2483 I0.0 J0.0625
G1 Y0.6325
G3 X1.6088 Y0.695 I-0.0625 J0.0
G1 X1.3726
G2 Y0.7038 I0.0 J0.0044
G3 X1.4351 Y0.7663 I0.0 J0.0625
G1 Y1.1155
G3 X1.3726 Y1.178 I-0.0625 J0.0
( MOPProfile_2 )
S0
G0 Z0.25
G0 X3.4498 Y1.086
G1 F10.0 Z-0.063
G1 F80.0 X3.2136
G2 Y1.0949 I0.0 J0.0044
G3 X3.2761 Y1.1574 I0.0 J0.0625
G1 Y2.7716
G3 X3.2136 Y2.8341 I-0.0625 J0.0
G1 X2.8704
G1 Z-0.062
G1 X2.6204
G1 F10.0 Z-0.063
G1 F80.0 X2.3111
G3 X2.2486 Y2.7716 I0.0 J-0.0625
G1 Y1.1574
G3 X2.3111 Y1.0949 I0.0625 J0.0
G2 Y1.086 I0.0 J-0.0044
G1 X2.0748
G3 X2.0123 Y1.0235 I0.0 J-0.0625
G1 Y0.5393
G3 X2.0748 Y0.4768 I0.0625 J0.0
G1 X2.3111
G2 Y0.468 I0.0 J-0.0044
G3 X2.2486 Y0.4055 I0.0 J-0.0625
G1 Y0.2523
G3 X2.3111 Y0.1898 I0.0625 J0.0
G1 X2.662
G1 Z-0.062
G1 X2.912
G1 F10.0 Z-0.063
G1 F80.0 X3.2136
G3 X3.2761 Y0.2523 I0.0 J0.0625
G1 Y0.4055
G3 X3.2136 Y0.468 I-0.0625 J0.0
G2 Y0.4768 I0.0 J0.0044
G1 X3.4498
G3 X3.5123 Y0.5393 I0.0 J0.0625
G1 Y1.0235
G3 X3.4498 Y1.086 I-0.0625 J0.0
G1 F10.0 Z-0.126
G1 F80.0 X3.2136
G2 Y1.0949 I0.0 J0.0044
G3 X3.2761 Y1.1574 I0.0 J0.0625
G1 Y2.7716
G3 X3.2136 Y2.8341 I-0.0625 J0.0
G1 X2.8704
G1 Z-0.062
G1 X2.6204
G1 F10.0 Z-0.126
G1 F80.0 X2.3111
G3 X2.2486 Y2.7716 I0.0 J-0.0625
G1 Y1.1574
G3 X2.3111 Y1.0949 I0.0625 J0.0
G2 Y1.086 I0.0 J-0.0044
G1 X2.0748
G3 X2.0123 Y1.0235 I0.0 J-0.0625
G1 Y0.5393
G3 X2.0748 Y0.4768 I0.0625 J0.0
G1 X2.3111
G2 Y0.468 I0.0 J-0.0044
G3 X2.2486 Y0.4055 I0.0 J-0.0625
G1 Y0.2523
G3 X2.3111 Y0.1898 I0.0625 J0.0
G1 X2.662
G1 Z-0.062
G1 X2.912
G1 F10.0 Z-0.126
G1 F80.0 X3.2136
G3 X3.2761 Y0.2523 I0.0 J0.0625
G1 Y0.4055
G3 X3.2136 Y0.468 I-0.0625 J0.0
G2 Y0.4768 I0.0 J0.0044
G1 X3.4498
G3 X3.5123 Y0.5393 I0.0 J0.0625
G1 Y1.0235
G3 X3.4498 Y1.086 I-0.0625 J0.0
G1 F10.0 Z-0.189
G1 F80.0 X3.2136
G2 Y1.0949 I0.0 J0.0044
G3 X3.2761 Y1.1574 I0.0 J0.0625
G1 Y2.7716
G3 X3.2136 Y2.8341 I-0.0625 J0.0
G1 X2.8704
G1 Z-0.062
G1 X2.6204
G1 F10.0 Z-0.189
G1 F80.0 X2.3111
G3 X2.2486 Y2.7716 I0.0 J-0.0625
G1 Y1.1574
G3 X2.3111 Y1.0949 I0.0625 J0.0
G2 Y1.086 I0.0 J-0.0044
G1 X2.0748
G3 X2.0123 Y1.0235 I0.0 J-0.0625
G1 Y0.5393
G3 X2.0748 Y0.4768 I0.0625 J0.0
G1 X2.3111
G2 Y0.468 I0.0 J-0.0044
G3 X2.2486 Y0.4055 I0.0 J-0.0625
G1 Y0.2523
G3 X2.3111 Y0.1898 I0.0625 J0.0
G1 X2.662
G1 Z-0.062
G1 X2.912
G1 F10.0 Z-0.189
G1 F80.0 X3.2136
G3 X3.2761 Y0.2523 I0.0 J0.0625
G1 Y0.4055
G3 X3.2136 Y0.468 I-0.0625 J0.0
G2 Y0.4768 I0.0 J0.0044
G1 X3.4498
G3 X3.5123 Y0.5393 I0.0 J0.0625
G1 Y1.0235
G3 X3.4498 Y1.086 I-0.0625 J0.0
G1 F10.0 Z-0.25
G1 F80.0 X3.2136
G2 Y1.0949 I0.0 J0.0044
G3 X3.2761 Y1.1574 I0.0 J0.0625
G1 Y2.7716
G3 X3.2136 Y2.8341 I-0.0625 J0.0
G1 X2.8704
G1 Z-0.062
G1 X2.6204
G1 F10.0 Z-0.25
G1 F80.0 X2.3111
G3 X2.2486 Y2.7716 I0.0 J-0.0625
G1 Y1.1574
G3 X2.3111 Y1.0949 I0.0625 J0.0
G2 Y1.086 I0.0 J-0.0044
G1 X2.0748
G3 X2.0123 Y1.0235 I0.0 J-0.0625
G1 Y0.5393
G3 X2.0748 Y0.4768 I0.0625 J0.0
G1 X2.3111
G2 Y0.468 I0.0 J-0.0044
G3 X2.2486 Y0.4055 I0.0 J-0.0625
G1 Y0.2523
G3 X2.3111 Y0.1898 I0.0625 J0.0
G1 X2.662
G1 Z-0.062
G1 X2.912
G1 F10.0 Z-0.25
G1 F80.0 X3.2136
G3 X3.2761 Y0.2523 I0.0 J0.0625
G1 Y0.4055
G3 X3.2136 Y0.468 I-0.0625 J0.0
G2 Y0.4768 I0.0 J0.0044
G1 X3.4498
G3 X3.5123 Y0.5393 I0.0 J0.0625
G1 Y1.0235
G3 X3.4498 Y1.086 I-0.0625 J0.0
G0 Z0.25
M5
M30
